media_library/luts/baidu-pack/人像red.cube
TITLE "Generated by Resolve"
LUT_3D_SIZE 5
0.0360723 0.0411688 0.0419623
0.0880446 0.0385901 0.0322118
0.327611 0.0486458 0.0416724
0.360998 0.0475471 0.0431525
0.360998 0.0475471 0.0431525
0.0315557 0.0947433 0.0631723
0.102998 0.12488 0.0669718
0.461006 0.0779736 0.0476844
0.398718 0.0525521 0.0451362
0.368719 0.0483558 0.043595
0.0638743 0.33901 0.156832
0.060502 0.328527 0.154009
0.672267 0.550698 0.225864
0.865095 0.396674 0.115557
0.813458 0.306401 0.0876631
0.529503 0.67657 0.305943
0.529503 0.67657 0.305943
0.690745 0.755306 0.392905
0.963195 0.845533 0.604486
0.964065 0.844251 0.604273
0.529503 0.67657 0.305943
0.529503 0.67657 0.305943
0.60238 0.707927 0.325765
0.948211 0.844358 0.58468
0.963989 0.84686 0.61059
0.0290532 0.0309148 0.0592203
0.0950179 0.0348058 0.102434
0.288045 0.0399786 0.0512398
0.312825 0.041001 0.0389868
0.336019 0.0438239 0.0410468
0.0314336 0.0930343 0.13228
0.0697185 0.0968795 0.119585
0.426017 0.0583658 0.0514992
0.371008 0.0475319 0.0431983
0.359213 0.0469825 0.0429084
0.0606088 0.335683 0.165896
0.0582742 0.324712 0.159564
0.656413 0.539803 0.221012
0.858671 0.384283 0.110887
0.80679 0.295186 0.0845197
0.529503 0.67657 0.305943
0.529503 0.67657 0.305943
0.684733 0.752239 0.388846
0.963073 0.845182 0.603296
0.96408 0.843641 0.602914
0.529503 0.67657 0.305943
0.529503 0.67657 0.305943
0.59884 0.706249 0.324102
0.946975 0.844144 0.583795
0.963989 0.84686 0.61059
0.0295567 0.0296025 0.0900587
0.0355688 0.03093 0.127871
0.155398 0.0338445 0.175051
0.257786 0.0397803 0.144366
0.259724 0.0399786 0.130419
0.0318303 0.034287 0.140551
0.0332189 0.0348058 0.164019
0.206256 0.036408 0.201694
0.268864 0.0403601 0.132235
0.265324 0.0402686 0.118242
0.0604562 0.448081 0.548257
0.0587625 0.436545 0.536324
0.443214 0.507393 0.509804
0.757015 0.264378 0.244572
0.696834 0.167147 0.14902
0.628809 0.753521 0.465248
0.629145 0.752972 0.462684
0.665415 0.762249 0.452995
0.966125 0.831266 0.535897
0.966384 0.830839 0.540581
0.627039 0.734493 0.391653
0.62652 0.734081 0.390723
0.656352 0.740978 0.378302
0.946731 0.838895 0.558175
0.964309 0.84509 0.601785
0.0296635 0.0296941 0.0921645
0.032517 0.0308385 0.122347
0.118074 0.0335851 0.187274
0.24448 0.0382086 0.20557
0.24448 0.0382086 0.20557
0.0314336 0.0316472 0.126375
0.0318761 0.0319066 0.135698
0.128252 0.0350042 0.205905
0.246937 0.0383154 0.207202
0.244495 0.0382086 0.205585
0.0583658 0.405371 0.620401
0.0574502 0.393744 0.612665
0.151705 0.44239 0.637888
0.629007 0.360601 0.628473
0.570169 0.212482 0.568109
0.287297 0.746944 0.779278
0.287129 0.746838 0.779248
0.359945 0.764706 0.787121
0.838727 0.818662 0.810758
0.883284 0.804059 0.793698
0.291966 0.747829 0.776196
0.291997 0.747814 0.776211
0.296223 0.747951 0.772366
0.787839 0.836942 0.777173
0.923064 0.859571 0.785092
0.0296635 0.0296941 0.0921645
0.0317388 0.0306401 0.116335
0.113878 0.0336156 0.185672
0.24448 0.0382086 0.20557
0.24448 0.0382086 0.20557
0.0309453 0.0309911 0.116655
0.0312047 0.03122 0.12192
0.115679 0.0344091 0.195148
0.244724 0.0382239 0.205722
0.24448 0.0382086 0.20557
0.0567941 0.384375 0.606256
0.0559548 0.372122 0.597375
0.114549 0.402823 0.616434
0.607843 0.304082 0.607782
0.548272 0.160281 0.544823
0.286458 0.746426 0.779187
0.28629 0.746303 0.779156
0.343084 0.75935 0.785199
0.832837 0.81561 0.820935
0.868437 0.809827 0.813519
0.288396 0.747677 0.779507
0.288396 0.747677 0.779507
0.290562 0.748089 0.779644
0.765789 0.839704 0.832807
0.899962 0.855467 0.845548
