media_library/luts/baidu-pack/人像2.cube
TITLE "Generated by Resolve"
LUT_3D_SIZE 33
0.0278325 0.0285801 0.0311894
0.028809 0.0290074 0.0320745
0.0302586 0.0296178 0.0329747
0.0346532 0.0304723 0.0336919
0.0396277 0.0318151 0.0341344
0.0477913 0.0337224 0.0343328
0.0655528 0.0369268 0.0342718
0.0901503 0.0422065 0.0330968
0.129931 0.0466468 0.0276341
0.185565 0.0499428 0.0149996
0.255955 0.0496223 0.00256352
0.33846 0.0391394 0
0.416739 0.0174258 0
0.482551 0.00201419 0
0.536828 0 0
0.578286 0 0
0.608698 0 0
0.631662 0 0
0.648844 0 0
0.661891 0 0
0.671519 0 0
0.678294 0 0
0.683146 0 0
0.686091 0 0
0.686656 0 0
0.686885 0 0
0.687068 0 0
0.687251 0 0
0.687404 0 0
0.687541 0 0
0.687648 0 0
0.687663 0 0
0.687663 0 0
0.0273594 0.0300145 0.0318456
0.0283207 0.0301823 0.0322423
0.0293584 0.0305333 0.0329137
0.0323949 0.0310979 0.0335699
0.0373236 0.0319066 0.0339361
0.0424811 0.0331121 0.0341039
0.0536202 0.0348974 0.0340581
0.0724498 0.0385748 0.033814
0.0961471 0.0437476 0.0323186
0.139742 0.047425 0.0264134
0.194324 0.0510414 0.0104982
0.266423 0.0512093 4.57771e-05
0.352224 0.0398108 0
0.42826 0.0157778 0
0.491279 0.000122072 0
0.544121 0 0
0.583413 0 0
0.612619 0 0
0.634913 0 0
0.651164 0 0
0.663462 0 0
0.672633 0 0
0.679042 0 0
0.683528 0 0
0.686152 0 0
0.686656 0 0
0.686885 0 0
0.687068 0 0
0.687236 0 0
0.687388 0 0
0.687526 0 0
0.687602 0 0
0.687587 0 0
0.0272374 0.0315099 0.0327153
0.0279698 0.0313573 0.0327916
0.0290532 0.0317235 0.0334173
0.0315709 0.0322423 0.0340734
0.0366064 0.033051 0.0344396
0.0415808 0.0342412 0.0345922
0.0513771 0.0358129 0.0345006
0.0690471 0.0387579 0.0341192
0.0897688 0.0434119 0.0328527
0.12723 0.0466773 0.0285344
0.178119 0.0504005 0.0146181
0.243305 0.0523537 0.000320439
0.326268 0.0462654 0
0.405951 0.0273594 0
0.470008 0.000991836 0
0.526726 0 0
0.569741 0 0
0.601816 0 0
0.626444 0 0
0.644984 0 0
0.658274 0 0
0.668681 0 0
0.676112 0 0
0.681193 0 0
0.685161 0 0
0.686488 0 0
0.686763 0 0
0.686961 0 0
0.687144 0 0
0.687297 0 0
0.687449 0 0
0.687556 0 0
0.687556 0 0
0.0263523 0.0352483 0.0340276
0.0271305 0.0341955 0.033753
0.0283513 0.0341802 0.0341955
0.0303655 0.0344091 0.0348669
0.0355535 0.0348974 0.0352178
0.0407568 0.035935 0.0353857
0.0499886 0.0375525 0.0353246
0.0680705 0.0404517 0.0349279
0.0884108 0.0448615 0.0335851
0.122377 0.0480659 0.0296788
0.170993 0.05066 0.0167239
0.230579 0.0528878 0.000656138
0.309514 0.0493935 0
0.391073 0.0348363 0
0.455558 0.00202945 0
0.514549 0 0
0.559976 0 0
0.593866 0 0
0.619852 0 0
0.639628 0 0
0.654215 0 0
0.66537 0 0
0.673671 0 0
0.679423 0 0
0.683986 0 0
0.686198 0 0
0.686671 0 0
0.6869 0 0
0.687068 0 0
0.687251 0 0
0.687388 0 0
0.687526 0 0
0.687526 0 0
0.0247654 0.0401465 0.0358892
0.0254063 0.0387274 0.0352483
0.0266575 0.0384222 0.0353857
0.0289769 0.0386206 0.035996
0.0336004 0.0390784 0.0364385
0.0391241 0.0400244 0.0366522
0.048188 0.0414893 0.0366064
0.0675975 0.0441291 0.0361181
0.0888685 0.048188 0.0346685
0.12163 0.0516518 0.0309148
0.170504 0.0530251 0.0176394
0.226719 0.0544594 0.00132753
0.300282 0.051667 1.5259e-05
0.380072 0.0387427 0
0.444831 0.00421149 0
0.504479 0.000137331 0
0.551766 0 0
0.58706 0 0
0.614404 0 0
0.635187 0 0
0.650767 0 0
0.662608 0 0
0.671565 0 0
0.677913 0 0
0.682765 0 0
0.685634 0 0
0.686549 0 0
0.686839 0 0
0.687022 0 0
0.687205 0 0
0.687343 0 0
0.68748 0 0
0.687495 0 0
0.0212558 0.046067 0.0383307
0.0229343 0.0439307 0.0374456
0.024094 0.0432441 0.037232
0.0267948 0.0432898 0.0376593
0.031342 0.0437324 0.0382391
0.0377203 0.0447395 0.0385138
0.0467231 0.04654 0.0385443
0.0672313 0.0495918 0.0379339
0.0897536 0.0539101 0.0363928
0.122164 0.0577554 0.0324559
0.173754 0.0588998 0.0183871
0.230976 0.0593881 0.00157168
0.302449 0.0560006 1.5259e-05
0.375723 0.0433051 0
0.438575 0.00956741 0
0.4972 0.000595102 0
0.545327 0 0
0.581247 0 0
0.609644 0 0
0.631266 0 0
0.647684 0 0
0.660182 0 0
0.669642 0 0
0.676524 0 0
0.68162 0 0
0.684977 0 0
0.686351 0 0
0.686717 0 0
0.686946 0 0
0.687144 0 0
0.687297 0 0
0.687449 0 0
0.68748 0 0
0.00741588 0.0585184 0.0417334
0.0131075 0.0534981 0.0404212
0.0154116 0.0517281 0.0399786
0.0188449 0.0508125 0.0399329
0.0250858 0.0506142 0.0403296
0.0344549 0.0513008 0.0407874
0.0446479 0.0529946 0.0410773
0.0649882 0.0558938 0.0403754
0.0897688 0.0604257 0.0387732
0.122774 0.0650187 0.0347906
0.177081 0.0671092 0.0213474
0.238102 0.0699168 0.00195315
0.312779 0.0683452 1.5259e-05
0.388617 0.0564889 0
0.4477 0.0280613 0
0.499077 0.00340276 0
0.542641 0.000106813 0
0.576989 0 0
0.605386 0 0
0.627802 0 0
0.644846 0 0
0.657908 0 0
0.667826 0 0
0.67512 0 0
0.680476 0 0
0.684215 0 0
0.68603 0 0
0.686503 0 0
0.686778 0 0
0.687037 0 0
0.687236 0 0
0.687404 0 0
0.687449 0 0
0.000228885 0.0754559 0.0465095
0.00201419 0.069276 0.04477
0.00325017 0.0667735 0.0440528
0.00471504 0.0652628 0.0436866
0.00802625 0.0643778 0.043595
0.0175174 0.0644846 0.0436866
0.0330663 0.0660105 0.0438697
0.0568551 0.0689097 0.0433967
0.0872816 0.0733806 0.0415045
0.12192 0.0784619 0.037644
0.179461 0.0814984 0.0248417
0.244465 0.0843671 0.00248722
0.323857 0.0843671 1.5259e-05
0.405737 0.0774395 0
0.46804 0.0604105 0
0.518044 0.021561 0
0.560449 0.00328069 0
0.587945 0.000183108 0
0.605783 0 0
0.625299 0 0
0.642435 0 0
0.65565 0 0
0.665888 0 0
0.673548 0 0
0.679225 0 0
0.683299 0 0
0.685527 0 0
0.686107 0 0
0.686458 0 0
0.686793 0 0
0.687068 0 0
0.687297 0 0
0.687373 0 0
0 0.0983902 0.0521401
3.0518e-05 0.0875715 0.0496986
0.000122072 0.0840314 0.0487984
0.000228885 0.0820783 0.0482795
0.000579843 0.0807965 0.0480049
0.00241093 0.0803082 0.0481575
0.0118715 0.0814069 0.0480659
0.0373693 0.0846571 0.0477913
0.079408 0.090074 0.045655
0.118578 0.0970321 0.0411536
0.179782 0.102602 0.0294804
0.250278 0.1084 0.00419623
0.333639 0.112016 0.000167849
0.420706 0.108858 0
0.48986 0.0970626 0
0.543938 0.0720531 0
0.585519 0.0243076 0
0.611643 0.00567636 0
0.62742 0.00125124 0
0.642664 0.000198367 0
0.654185 1.5259e-05 0
0.660227 0 0
0.665995 0 0
0.67274 0 0
0.678401 0 0
0.682475 0 0
0.684855 0 0
0.685481 0 0
0.685863 0 0
0.686259 0 0
0.686625 0 0
0.686976 0 0
0.687099 0 0
0 0.135744 0.0561379
0 0.119326 0.0550393
0 0.113054 0.0543984
0 0.109331 0.0539712
0 0.10634 0.0536355
3.0518e-05 0.10396 0.0534066
0.00106813 0.10341 0.0534829
0.007187 0.105898 0.0527657
0.0602274 0.111528 0.0503243
0.109483 0.120134 0.0451362
0.176364 0.127764 0.0310826
0.255146 0.135897 0.00544747
0.343069 0.14258 0.000335698
0.435721 0.145113 0
0.511376 0.14136 0
0.570367 0.130831 0
0.615671 0.110262 0
0.646021 0.0800031 0
0.664515 0.0351873 0
0.67483 0.0104677 0
0.678691 0.00363165 0
0.677852 0.00202945 0
0.678325 0.000732433 0
0.681483 0.00030518 0
0.683711 0.000183108 0
0.684413 4.57771e-05 0
0.684642 0 0
0.684932 0 0
0.685283 0 0
0.685588 0 0
0.685954 0 0
0.686366 0 0
0.686549 0 0
0 0.178882 0.0570993
0 0.159716 0.0573739
0 0.152361 0.0572366
0 0.147631 0.0569772
0 0.144121 0.0567483
0 0.141238 0.0565652
0 0.139361 0.0564889
0.000350958 0.140429 0.0560616
0.0123598 0.146593 0.0532998
0.0834821 0.156847 0.0442969
0.160922 0.168276 0.0245518
0.254032 0.180896 0.00299077
0.349233 0.192172 0.000106813
0.447272 0.196643 0
0.531685 0.194873 0
0.595728 0.187335 0
0.645579 0.174151 0
0.680522 0.157565 0
0.701991 0.139834 0
0.713146 0.11664 0
0.717556 0.0823529 0
0.718044 0.0428168 0
0.715206 0.0178531 0
0.709224 0.0102235 0
0.701961 0.00631724 0
0.694743 0.00209049 0
0.689982 0.000869764 0
0.688624 0.000381476 0
0.687709 9.15541e-05 0
0.68629 1.5259e-05 0
0.685664 0 0
0.68574 0 0
0.685893 0 0
0 0.227512 0.0504616
0 0.205997 0.0554208
0 0.197116 0.0566262
0 0.190951 0.0572976
0 0.186664 0.0574655
0 0.183001 0.0575875
0 0.180117 0.0576944
0 0.179583 0.0579995
0.00062562 0.184161 0.0560311
0.028275 0.196994 0.0426337
0.125292 0.214847 0.010544
0.241794 0.234852 0.000915541
0.350362 0.253178 3.0518e-05
0.455085 0.263508 0
0.549828 0.267857 0
0.621088 0.265446 0
0.676799 0.256764 0
0.716472 0.2439 0
0.742123 0.228077 0
0.756344 0.208392 0
0.763424 0.187686 0
0.765087 0.167956 0
0.761105 0.144671 0
0.753048 0.110674 0
0.743999 0.0673075 0
0.734493 0.0306859 0
0.725597 0.0205692 0
0.715114 0.0105745 0
0.705272 0.00381476 0
0.696086 0.00187686 0
0.691157 0.0011902 0
0.689281 0.000579843 0
0.688899 0.000213626 0
0 0.27541 0.0296941
0 0.254688 0.041062
0 0.245487 0.0459907
0 0.239185 0.0489509
0 0.234318 0.0505837
0 0.230411 0.0513466
0 0.226841 0.0520333
0 0.224704 0.0525521
0 0.226368 0.0518807
0.0019379 0.241413 0.0330968
0.0574502 0.264347 0.0043946
0.212451 0.292348 0.000167849
0.343343 0.317769 0
0.456474 0.334173 0
0.560754 0.343801 0
0.643198 0.3467 0
0.706157 0.341802 0
0.752148 0.332265 0
0.782528 0.320699 0
0.800427 0.30631 0
0.810407 0.290959 0
0.814817 0.275364 0
0.814069 0.256733 0
0.810025 0.235615 0
0.80322 0.212573 0
0.79237 0.186145 0
0.778119 0.154131 0
0.758541 0.0864118 0
0.742916 0.0455482 0
0.730083 0.0330053 0
0.719799 0.0244602 0
0.711376 0.0132143 0
0.707362 0.00608835 0
0 0.317968 0.00411994
0 0.299504 0.0115816
0 0.291249 0.0175631
0 0.285176 0.0224613
0 0.280339 0.0265507
0 0.276417 0.0298161
0 0.272847 0.0325628
0 0.269749 0.03505
0 0.270481 0.0361791
0 0.283238 0.0169985
0.00567636 0.31194 0.0018616
0.161089 0.347631 6.10361e-05
0.322286 0.381994 0
0.447318 0.405371 0
0.563165 0.420752 0
0.656596 0.42858 0
0.727077 0.428641 0
0.780728 0.422705 0
0.816892 0.41294 0
0.839063 0.399558 0
0.852476 0.385748 0
0.859846 0.37232 0
0.862364 0.358434 0
0.86157 0.344549 0
0.857923 0.329595 0
0.85127 0.311421 0
0.842527 0.289769 0
0.829862 0.26041 0
0.815351 0.228748 0
0.799359 0.19678 0
0.778378 0.147295 0
0.756359 0.087129 0
0.745159 0.0541238 0
0 0.354696 0
0 0.338125 1.5259e-05
0 0.330617 0.000411994
0 0.325109 0.00109865
0 0.320577 0.002121
0 0.316945 0.0034638
0 0.313695 0.0047303
0 0.31075 0.00584421
0 0.310262 0.00672923
0 0.315114 0.00370794
9.15541e-05 0.348623 0.000411994
0.0640879 0.393866 1.5259e-05
0.280858 0.437308 0
0.42858 0.470298 0
0.555703 0.492622 0
0.661906 0.507469 0
0.741909 0.513161 0
0.802716 0.512291 0
0.845396 0.506325 0
0.87219 0.496086 0
0.888899 0.483711 0
0.89865 0.470741 0
0.903395 0.457969 0
0.904509 0.444694 0
0.903273 0.430716 0
0.899519 0.415351 0
0.893507 0.398245 0
0.884398 0.376684 0
0.872755 0.351644 0
0.859449 0.323522 0
0.84271 0.287373 0
0.824002 0.247242 0
0.813458 0.224979 0
0 0.385565 0
0 0.371954 0
0 0.36527 0
0 0.360296 0
0 0.356161 4.57771e-05
0 0.352758 0.000137331
0 0.349752 0.000228885
0 0.346944 0.000335698
0 0.344396 0.000442512
0 0.345602 0.00030518
0 0.377966 3.0518e-05
0.0110781 0.428382 0
0.232654 0.47808 0
0.399985 0.519509 0
0.538216 0.54995 0
0.658518 0.572503 0
0.748425 0.584604 0
0.816709 0.588693 0
0.866636 0.587839 0
0.899397 0.582055 0
0.919875 0.573068 0
0.933104 0.563958 0
0.940337 0.554192 0
0.943603 0.544472 0
0.944274 0.534035 0
0.94226 0.521401 0
0.93846 0.507546 0
0.932311 0.489647 0
0.924727 0.469429 0
0.915434 0.446113 0
0.90486 0.421164 0
0.892897 0.394583 0
0.885588 0.378759 0
0 0.40853 0
0 0.39913 0
0 0.39382 0
0 0.389868 0
0 0.386358 0
0 0.383246 0
0 0.380743 0
0 0.378271 0
0 0.375998 0
0 0.377829 0
0 0.406455 0
0.000747692 0.454856 0
0.168963 0.5093 0
0.358572 0.558297 0
0.510735 0.596353 0
0.643458 0.62536 0
0.744747 0.644144 0
0.822278 0.653498 0
0.879271 0.65658 0
0.917967 0.654353 0
0.942794 0.648203 0
0.958923 0.641184 0
0.968948 0.634134 0
0.974441 0.627283 0
0.976837 0.619684 0
0.976989 0.611337 0
0.975418 0.602502 0
0.972015 0.590875 0
0.967041 0.576272 0
0.960708 0.559319 0
0.953216 0.540185 0
0.944839 0.519097 0
0.939452 0.505547 0
0 0.423819 0
0 0.417411 0
0 0.413916 0
0 0.410819 0
0 0.408209 0
0 0.405966 0
0 0.403967 0
0 0.402136 0
0 0.400504 0
0 0.402869 0
0 0.424582 0
0 0.469093 0
0.0749218 0.529183 0
0.302449 0.584573 0
0.474952 0.630198 0
0.62005 0.666056 0
0.733608 0.691402 0
0.819211 0.706325 0
0.88452 0.714305 0
0.929473 0.716258 0
0.959045 0.713954 0
0.977981 0.709331 0
0.98854 0.703334 0
0.993332 0.696925 0
0.995682 0.690654 0
0.996292 0.683574 0
0.995712 0.676417 0
0.994995 0.668391 0
0.994522 0.659205 0
0.992996 0.648234 0
0.989227 0.63505 0
0.983932 0.620462 0
0.980621 0.611765 0
0 0.434852 0
0 0.429892 0
0 0.427237 0
0 0.425071 0
0 0.423224 0
0 0.421637 0
0 0.420127 0
0 0.418784 0
0 0.417502 0
0 0.419654 0
0 0.433249 0
0 0.472923 0
0.0180362 0.537408 0
0.245411 0.597147 0
0.433982 0.649607 0
0.590356 0.691798 0
0.715267 0.723323 0
0.809735 0.743923 0
0.882231 0.756313 0
0.934188 0.762631 0
0.968505 0.76408 0
0.988495 0.761746 0
0.997024 0.757153 0
0.999176 0.751507 0
0.999756 0.746014 0
0.999908 0.740261 0
0.999771 0.73489 0
0.99968 0.72932 0
0.999695 0.72311 0
0.999496 0.715404 0
0.998825 0.706386 0
0.997909 0.696803 0
0.997375 0.690822 0
0 0.443503 0
0 0.439582 0
0 0.437278 0
0 0.435538 0
0 0.434089 0
0 0.432853 0
0 0.431739 0
0 0.430701 0
0 0.42974 0
0 0.430655 0
0 0.4374 0
3.0518e-05 0.472007 0
0.0018616 0.536904 0
0.177768 0.599542 0
0.386069 0.657008 0
0.554223 0.704295 0
0.690532 0.741207 0
0.794324 0.767132 0
0.873655 0.783795 0
0.932158 0.793759 0
0.971313 0.798321 0
0.991928 0.797742 0
0.998962 0.793851 0
1 0.789197 0
1 0.785092 0
1 0.781231 0
1 0.7776 0
1 0.773877 0
1 0.769863 0
1 0.764904 0
1 0.759441 0
1 0.753368 0
0.999985 0.749416 0
0 0.450019 0
0 0.446921 0
0 0.445075 0
0 0.443656 0
0 0.442542 0
0 0.44155 0
0 0.440681 0
0 0.439902 0
0 0.439139 0
0 0.438911 0
0 0.441093 0
0 0.473014 0
0.00172427 0.533547 0
0.109804 0.597284 0
0.336675 0.657862 0
0.516869 0.709178 0
0.662196 0.750286 0
0.77435 0.780499 0
0.860883 0.801038 0
0.925353 0.814176 0
0.969757 0.821591 0
0.992645 0.822904 0
0.999283 0.819806 0
1 0.815824 0
1 0.812528 0
1 0.809766 0
1 0.807279 0
1 0.804913 0
1 0.802304 0
1 0.799283 0
1 0.796048 0
1 0.792309 0
1 0.789929 0
0 0.455482 0
0 0.452537 0
0 0.451041 0
0 0.449928 0
0 0.449012 0
0 0.448249 0
0 0.447578 0
0 0.446967 0
0 0.446387 0
0 0.445853 0
0 0.447105 0
0 0.477501 0
0.00166323 0.530648 0
0.0540017 0.594461 0
0.291646 0.655955 0
0.481804 0.71014 0
0.633677 0.75433 0
0.753445 0.788159 0
0.845869 0.811719 0
0.915511 0.827436 0
0.965042 0.837354 0
0.99115 0.84065 0
0.999039 0.838773 0
1 0.835538 0
1 0.832792 0
1 0.830411 0
1 0.828397 0
1 0.82681 0
1 0.825162 0
1 0.823331 0
1 0.821256 0
1 0.819089 0
1 0.817578 0
0 0.461646 0
0 0.458274 0
0 0.456611 0
0 0.455467 0
0 0.454597 0
0 0.453834 0
0 0.453239 0
0 0.452644 0
0 0.45214 0
0 0.451667 0
0 0.453498 0
0 0.482612 0
0.000900282 0.529686 0
0.0233158 0.592386 0
0.255467 0.653117 0
0.451881 0.709117 0
0.607507 0.755291 0
0.732891 0.791653 0
0.829999 0.817792 0
0.904479 0.835691 0
0.957946 0.84744 0
0.987884 0.852522 0
0.998367 0.852186 0
1 0.849714 0
1 0.847395 0
1 0.845457 0
1 0.843915 0
1 0.842618 0
1 0.84152 0
1 0.840391 0
1 0.839124 0
1 0.83769 0
1 0.836698 0
0 0.468498 0
0 0.464744 0
0 0.462852 0
0 0.461524 0
0 0.460517 0
0 0.459648 0
0 0.458915 0
0 0.458259 0
0 0.457664 0
0 0.457176 0
0 0.459571 0
0 0.488304 0
0.000534066 0.532021 0
0.015198 0.592477 0
0.231983 0.651682 0
0.429694 0.707866 0
0.585702 0.754726 0
0.714137 0.792462 0
0.814618 0.820508 0
0.892409 0.840116 0
0.950164 0.853574 0
0.984298 0.860365 0
0.997635 0.86128 0
1 0.859403 0
1 0.857466 0
1 0.85594 0
1 0.854673 0
1 0.853666 0
1 0.852872 0
1 0.852125 0
1 0.851347 0
1 0.850477 0
1 0.849912 0
0 0.47509 0
0 0.471641 0
0 0.469718 0
0 0.468284 0
0 0.467124 0
0 0.466117 0
0 0.465263 0
0 0.4645 0
0 0.463874 0
0 0.463478 0
0 0.467155 0
0 0.497566 0
0.000717174 0.540093 0
0.0195468 0.59791 0
0.224186 0.654093 0
0.419593 0.708614 0
0.571786 0.754788 0
0.700618 0.792935 0
0.802411 0.821912 0
0.881834 0.842542 0
0.942382 0.85713 0
0.98056 0.865385 0
0.99678 0.867445 0
1 0.866011 0
1 0.864149 0
1 0.862806 0
1 0.861799 0
1 0.861036 0
1 0.860471 0
1 0.859983 0
1 0.859495 0
1 0.858961 0
1 0.858625 0
0 0.480995 0
0 0.477913 0
0 0.476143 0
0 0.474784 0
0 0.473686 0
0 0.472724 0
0 0.471809 0
0 0.471046 0
0 0.470619 0
0 0.47219 0
0 0.480018 0
0 0.513985 0
0.00230411 0.557839 0
0.03682 0.611521 0
0.245609 0.663905 0
0.4318 0.714931 0
0.574212 0.758633 0
0.6981 0.795438 0
0.797269 0.823865 0
0.875715 0.844572 0
0.936507 0.859495 0
0.976898 0.868666 0
0.995651 0.871717 0
0.999954 0.870741 0
1 0.868971 0
1 0.867674 0
1 0.866667 0
1 0.865965 0
1 0.865461 0
1 0.86508 0
1 0.864744 0
1 0.864378 0
1 0.864149 0
0 0.48603 0
0 0.483024 0
0 0.481605 0
0 0.480476 0
0 0.480156 0
0 0.479744 0
0 0.478889 0
0 0.478126 0
0 0.47866 0
0 0.486824 0
0 0.504387 0
0.000259403 0.539818 0
0.00994888 0.582498 0
0.0900282 0.631174 0
0.292699 0.679133 0
0.459312 0.7252 0
0.588357 0.765057 0
0.703655 0.799252 0
0.797803 0.826322 0
0.873381 0.846418 0
0.932967 0.86125 0
0.973983 0.870848 0
0.994476 0.874678 0
0.999771 0.87422 0
1 0.872648 0
1 0.871458 0
1 0.870436 0
1 0.869688 0
1 0.869184 0
1 0.868818 0
1 0.868513 0
1 0.868223 0
1 0.868055 0
6.10361e-05 0.501015 0
0 0.48986 0
0 0.487602 0
0 0.486275 0
0 0.48954 0
0 0.492592 0
0 0.493217 0
0 0.492775 0
0 0.494469 0
