media_library/luts/baidu-pack/人像red.cube
TITLE "Generated by Resolve"
LUT_3D_SIZE 33
0.0360723 0.0411688 0.0419623
0.0361028 0.0411841 0.0419776
0.0362707 0.0412909 0.0420233
0.0373999 0.0412604 0.0417945
0.0419318 0.0403754 0.0404822
0.0489662 0.038941 0.0383001
0.0573892 0.0375372 0.0357824
0.0690929 0.0371405 0.0336004
0.0880446 0.0385901 0.0322118
0.116167 0.0413519 0.031632
0.143664 0.0414893 0.0323644
0.169192 0.0416114 0.0337224
0.202701 0.0434272 0.0355688
0.241123 0.0459602 0.0375525
0.275547 0.0476387 0.0393988
0.30338 0.0482032 0.0408026
0.327611 0.0486458 0.0416724
0.346746 0.0489052 0.0422065
0.35697 0.0482795 0.0427405
0.360372 0.0476997 0.043061
0.360967 0.0475471 0.0431525
0.360998 0.0475471 0.0431525
0.360998 0.0475471 0.0431525
0.360998 0.0475471 0.0431525
0.360998 0.0475471 0.0431525
0.360998 0.0475471 0.0431525
0.360998 0.0475471 0.0431525
0.360998 0.0475471 0.0431525
0.360998 0.0475471 0.0431525
0.360998 0.0475471 0.0431525
0.360998 0.0475471 0.0431525
0.360998 0.0475471 0.0431525
0.360998 0.0475471 0.0431525
0.0360571 0.0412757 0.0420386
0.0360723 0.0412604 0.0420233
0.0361791 0.0412909 0.0420386
0.0369116 0.0413214 0.0419165
0.0400549 0.0407568 0.041062
0.0462043 0.0395056 0.0391852
0.0543832 0.0380407 0.0366979
0.0648051 0.0370794 0.0342107
0.0814374 0.0379492 0.0324407
0.108965 0.0407416 0.0316777
0.137987 0.0415503 0.0321813
0.164309 0.0415351 0.033463
0.196597 0.0430762 0.0352178
0.234958 0.0455634 0.0372168
0.270954 0.0474708 0.0391546
0.299855 0.0481575 0.04065
0.324712 0.0485695 0.0416114
0.344976 0.0489357 0.0421454
0.356298 0.0483711 0.0426642
0.36022 0.0477302 0.043061
0.360952 0.0475471 0.0431525
0.360998 0.0475471 0.0431525
0.360998 0.0475471 0.0431525
0.360998 0.0475471 0.0431525
0.360998 0.0475471 0.0431525
0.360998 0.0475471 0.0431525
0.360998 0.0475471 0.0431525
0.360998 0.0475471 0.0431525
0.360998 0.0475471 0.0431525
0.360998 0.0475471 0.0431525
0.360998 0.0475471 0.0431525
0.360998 0.0475471 0.0431525
0.360998 0.0475471 0.0431525
0.0359808 0.041886 0.0425116
0.035996 0.0417792 0.0424201
0.0360876 0.0417029 0.0423438
0.0366827 0.0417334 0.042237
0.0392767 0.0413062 0.0415198
0.0453498 0.0400244 0.0396277
0.0536202 0.0384375 0.0370489
0.0636149 0.0372015 0.0344396
0.0798505 0.0378576 0.032578
0.107057 0.0405585 0.0317388
0.136385 0.0415656 0.0321355
0.163073 0.0415351 0.033402
0.195254 0.0429999 0.0351568
0.233799 0.0454871 0.037171
0.270176 0.0474403 0.0391089
0.299382 0.0481422 0.0406348
0.324422 0.0485695 0.0415961
0.344839 0.0489357 0.0421454
0.356252 0.0483711 0.0426642
0.360204 0.0477455 0.0430457
0.360952 0.0475624 0.0431525
0.360998 0.0475471 0.0431525
0.360998 0.0475471 0.0431525
0.360998 0.0475471 0.0431525
0.360998 0.0475471 0.0431525
0.360998 0.0475471 0.0431525
0.360998 0.0475471 0.0431525
0.360998 0.0475471 0.0431525
0.360998 0.0475471 0.0431525
0.360998 0.0475471 0.0431525
0.360998 0.0475471 0.0431525
0.360998 0.0475471 0.0431525
0.360998 0.0475471 0.0431525
0.0358434 0.0429084 0.043183
0.0358587 0.0428016 0.043122
0.035935 0.0427558 0.043061
0.0364843 0.0429847 0.0430762
0.0388647 0.0429847 0.0425574
0.0450446 0.0417945 0.0406043
0.053666 0.0400397 0.0378576
0.0640574 0.0386358 0.0350805
0.0800336 0.0390326 0.0330205
0.105165 0.0410773 0.0319982
0.133608 0.0419776 0.032105
0.159838 0.0416419 0.0332341
0.190616 0.042771 0.0348974
0.228931 0.045182 0.0369268
0.266468 0.0473182 0.0388952
0.296468 0.0481117 0.0404974
0.321935 0.0485084 0.0415198
0.343267 0.0489509 0.0420996
0.355657 0.0484627 0.0426184
0.360082 0.0477607 0.0430304
0.360937 0.0475624 0.0431525
0.360998 0.0475471 0.0431525
0.360998 0.0475471 0.0431525
0.360998 0.0475471 0.0431525
0.360998 0.0475471 0.0431525
0.360998 0.0475471 0.0431525
0.360998 0.0475471 0.0431525
0.360998 0.0475471 0.0431525
0.360998 0.0475471 0.0431525
0.360998 0.0475471 0.0431525
0.360998 0.0475471 0.0431525
0.360998 0.0475471 0.0431525
0.360998 0.0475471 0.0431525
0.0353857 0.0468452 0.0448615
0.0354009 0.0466011 0.04477
0.035462 0.0464179 0.0446784
0.0359045 0.046479 0.0446174
0.0381933 0.0468147 0.0441596
0.0445869 0.04654 0.0424353
0.0549477 0.0450752 0.0396124
0.0692607 0.0436561 0.0366064
0.0879225 0.044007 0.0342565
0.110765 0.0448005 0.0328527
0.136568 0.044419 0.0325322
0.161288 0.0431067 0.0333104
0.190478 0.0435645 0.0348211
0.226932 0.0454871 0.0367895
0.26363 0.0474861 0.0387274
0.293065 0.048188 0.0403449
0.31841 0.0484627 0.0414282
0.340917 0.0490272 0.0420081
0.354757 0.0486 0.0425574
0.359884 0.0478218 0.0429999
0.360922 0.0475776 0.0431525
0.360998 0.0475471 0.0431525
0.360998 0.0475471 0.0431525
0.360998 0.0475471 0.0431525
0.360998 0.0475471 0.0431525
0.360998 0.0475471 0.0431525
0.360998 0.0475471 0.0431525
0.360998 0.0475471 0.0431525
0.360998 0.0475471 0.0431525
0.360998 0.0475471 0.0431525
0.360998 0.0475471 0.0431525
0.360998 0.0475471 0.0431525
0.360998 0.0475471 0.0431525
0.0344701 0.0553902 0.0479438
0.0345006 0.0549477 0.0478065
0.0345312 0.0546273 0.0476997
0.0347906 0.0544137 0.0475013
0.0364233 0.0547951 0.046891
0.0428168 0.056611 0.0456092
0.0571145 0.0581216 0.0435187
0.0777905 0.0570993 0.0408637
0.102693 0.0563211 0.0381323
0.129351 0.0557412 0.0357671
0.155444 0.0531014 0.0343633
0.179049 0.049485 0.0343023
0.205859 0.0476997 0.0354162
0.238376 0.0481117 0.0372015
0.271412 0.049073 0.0390478
0.298741 0.0493324 0.0405737
0.321981 0.0493935 0.0416114
0.342824 0.0496834 0.0421607
0.356023 0.0491035 0.0426184
0.360555 0.0480507 0.0430304
0.361303 0.0476387 0.0431678
0.361242 0.0475624 0.0431678
0.36112 0.0475624 0.0431525
0.361028 0.0475471 0.0431525
0.360998 0.0475471 0.0431525
0.360998 0.0475471 0.0431525
0.360998 0.0475471 0.0431525
0.360998 0.0475471 0.0431525
0.360998 0.0475471 0.0431525
0.360998 0.0475471 0.0431525
0.360998 0.0475471 0.0431525
0.360998 0.0475471 0.0431525
0.360998 0.0475471 0.0431525
0.033814 0.0664378 0.0510414
0.0338445 0.06598 0.0509194
0.0338445 0.0657359 0.0508583
0.0339513 0.0654002 0.0507057
0.034638 0.0653544 0.0503548
0.0396582 0.0681926 0.0499886
0.0552834 0.0741436 0.0495155
0.0831769 0.0779126 0.0482795
0.119249 0.0779889 0.0456397
0.158267 0.0759594 0.0420996
0.194003 0.0721904 0.0389563
0.225513 0.0667735 0.0373236
0.253849 0.0614023 0.0376135
0.281041 0.057847 0.0390173
0.306081 0.0556191 0.040528
0.326528 0.0539712 0.0417487
0.342351 0.0527504 0.0424811
0.357092 0.0520485 0.0429084
0.368093 0.0510414 0.0432746
0.371435 0.0495613 0.043595
0.370245 0.048661 0.0436561
0.367559 0.0482338 0.043534
0.364706 0.0479286 0.0433661
0.362234 0.0476692 0.0432136
0.361425 0.0475929 0.043183
0.361227 0.0475624 0.0431678
0.361105 0.0475624 0.0431525
0.361028 0.0475471 0.0431525
0.360998 0.0475471 0.0431525
0.360998 0.0475471 0.0431525
0.360998 0.0475471 0.0431525
0.360998 0.0475471 0.0431525
0.360998 0.0475471 0.0431525
0.0330968 0.0798199 0.0552834
0.0331426 0.0793774 0.0550851
0.0331579 0.0791943 0.0549935
0.0332036 0.0788128 0.0547951
0.0334936 0.0782635 0.054551
0.035935 0.0797436 0.0551003
0.0462196 0.0858778 0.0565652
0.0733959 0.0958877 0.0573739
0.118517 0.103365 0.0555428
0.173053 0.105257 0.0517128
0.227054 0.103059 0.0473487
0.275441 0.0968643 0.0435798
0.317021 0.0875868 0.0420539
0.347875 0.0779431 0.0424659
0.369772 0.0699321 0.0433661
0.384314 0.0649424 0.0441749
0.393256 0.0617075 0.0445411
0.398917 0.0594492 0.0447242
0.402167 0.0571756 0.0448615
0.400259 0.0543526 0.0449683
0.394034 0.0520027 0.0448768
0.386389 0.0504311 0.0445716
0.380728 0.0496834 0.0442817
0.375921 0.0491493 0.044007
0.372045 0.0487221 0.0437781
0.368566 0.0483253 0.043595
0.365148 0.0479744 0.0433967
0.362509 0.0476997 0.0432441
0.36144 0.0475929 0.0431678
0.361196 0.0475624 0.0431678
0.361166 0.0475624 0.0431678
0.361166 0.0475624 0.0431678
0.361166 0.0475624 0.0431678
0.0315557 0.0947433 0.0631723
0.0316014 0.094316 0.0629435
0.0316014 0.0942397 0.0628824
0.031632 0.0939498 0.0627146
0.0317998 0.0931258 0.0622568
0.0325475 0.0931106 0.0623178
0.0384833 0.0973678 0.063859
0.0596933 0.109117 0.0662242
0.102998 0.12488 0.0669718
0.167117 0.136645 0.0643931
0.239872 0.140581 0.0594797
0.306584 0.135958 0.0531014
0.361303 0.124865 0.0491798
0.404562 0.11075 0.0475166
0.435752 0.0970626 0.0472267
0.454017 0.0859693 0.0475929
0.461006 0.0779736 0.0476844
0.46006 0.0720378 0.0474861
0.454902 0.0677653 0.0473182
0.446921 0.0635691 0.0470741
0.437415 0.0602579 0.0467842
0.427207 0.0579538 0.0463874
0.4177 0.0561074 0.0459754
0.408209 0.0543069 0.0455634
0.398718 0.0525521 0.0451362
0.389899 0.0509651 0.0447395
0.383169 0.0499733 0.0444038
0.378027 0.0493782 0.0441291
0.373617 0.0488746 0.0438849
0.369512 0.0484321 0.0436408
0.368719 0.0483558 0.043595
0.368719 0.0483558 0.043595
0.368719 0.0483558 0.043595
0.03122 0.112367 0.072221
0.0312352 0.111955 0.0720378
0.0312352 0.11194 0.0720226
0.03122 0.111681 0.0719005
0.0311894 0.110658 0.0714427
0.0313115 0.109712 0.0709697
0.0341802 0.111604 0.0714885
0.047425 0.120684 0.0741894
0.0808118 0.139361 0.0779889
0.144488 0.162585 0.079408
0.22916 0.178271 0.0755474
0.313512 0.181399 0.0675364
0.383963 0.172839 0.0599527
0.439475 0.156771 0.0549325
0.482856 0.137179 0.0525826
0.512383 0.118257 0.0517739
0.525917 0.102419 0.0514229
0.525597 0.0902571 0.0509957
0.517952 0.0825055 0.0505684
0.506554 0.0778668 0.0500191
0.494209 0.0743114 0.0494698
0.481895 0.0709087 0.0488899
0.469505 0.0675669 0.0483101
0.456992 0.0642863 0.0476997
0.445304 0.0615702 0.0471656
0.434455 0.0593576 0.0466926
0.423957 0.0572976 0.0462348
0.41355 0.0552834 0.0458076
0.403021 0.053254 0.0453346
0.392493 0.0512703 0.044892
0.390433 0.0508888 0.0448005
0.390433 0.0508888 0.0448005
0.390433 0.0508888 0.0448005
0.0322728 0.13283 0.0811322
0.0322423 0.132464 0.0810254
0.0322423 0.132631 0.0810864
0.0322576 0.132433 0.0810101
0.0321965 0.131334 0.0806287
0.0321355 0.129915 0.0799725
0.0323491 0.12932 0.0792401
0.0385748 0.134997 0.08159
0.0646982 0.152621 0.0872969
0.120455 0.180575 0.0907912
0.203494 0.209491 0.0893873
0.300221 0.226276 0.0836957
0.390906 0.226017 0.0749828
0.461021 0.212284 0.0663615
0.513039 0.190036 0.0606851
0.550179 0.165072 0.0577707
0.572656 0.142 0.0559854
0.581659 0.121431 0.0549172
0.579385 0.105348 0.0540627
0.56878 0.0957198 0.0532998
0.55552 0.0911421 0.0525673
0.543297 0.0877546 0.0519265
0.531395 0.0843824 0.0513313
0.518837 0.0809033 0.0507057
0.505882 0.0773327 0.0500496
0.492866 0.0737469 0.049424
0.479698 0.0701457 0.0487678
0.46627 0.0664836 0.0481117
0.453437 0.0632792 0.0475013
0.441764 0.0607919 0.0469978
0.439536 0.0603342 0.0469062
0.439536 0.0603342 0.0469062
0.439536 0.0603342 0.0469062
0.0336767 0.158145 0.0895857
0.0336461 0.157778 0.0894484
0.0336461 0.158007 0.0895247
0.0336461 0.1579 0.0895094
0.0335699 0.156802 0.0891432
0.0334783 0.155032 0.0885634
0.0334325 0.153536 0.0877852
0.036286 0.155947 0.0883192
0.0525368 0.168536 0.0928511
0.097612 0.195056 0.0997635
0.172229 0.23151 0.101625
0.271641 0.26482 0.0990616
0.380438 0.278798 0.09337
0.470024 0.273976 0.0843061
0.536431 0.25626 0.0767834
0.583124 0.231189 0.0708782
0.611475 0.200946 0.0655528
0.627497 0.170123 0.0619211
0.632822 0.142245 0.0591287
0.627878 0.121874 0.0571603
0.614969 0.111101 0.0559091
0.601389 0.105928 0.0550546
0.589731 0.102159 0.0543984
0.578515 0.0985428 0.0538033
0.567086 0.0948959 0.053193
0.55552 0.0913405 0.0525826
0.543542 0.0878462 0.0519417
0.530663 0.0842145 0.0512856
0.517266 0.0804913 0.0506142
0.503532 0.0766766 0.0499428
0.500816 0.0759136 0.0498207
0.500816 0.0759136 0.0498207
0.500816 0.0759136 0.0498207
0.0366674 0.188525 0.0994583
0.0366217 0.188113 0.099321
0.0366674 0.188571 0.0995041
0.0366674 0.188647 0.0995346
0.0365454 0.187442 0.0991073
0.0363012 0.185351 0.0983597
0.0360571 0.183017 0.0974441
0.036759 0.182345 0.0966049
0.0430915 0.188663 0.0977493
0.0779889 0.211154 0.105806
0.14403 0.247486 0.113619
0.235523 0.287877 0.115328
0.347601 0.319814 0.113649
0.455863 0.330999 0.107774
0.542687 0.322698 0.0999466
0.604654 0.302358 0.0922255
0.643717 0.272801 0.0837415
0.665461 0.237049 0.075639
0.674388 0.201114 0.0686961
0.675181 0.170092 0.0634318
0.66952 0.150332 0.0604257
0.660166 0.139254 0.0589456
0.649332 0.131334 0.0580606
0.638102 0.124117 0.0572518
0.626673 0.11751 0.0565194
0.615 0.111894 0.0558328
0.603296 0.107469 0.0551766
0.59147 0.103334 0.0545205
0.579431 0.0991684 0.0538643
0.5673 0.0950332 0.0532082
0.56492 0.0942245 0.0530861
0.56492 0.0942245 0.0530861
0.56492 0.0942245 0.0530861
0.0406653 0.222858 0.112856
0.0406195 0.222492 0.112688
0.0406806 0.223072 0.112978
0.0407111 0.223255 0.113069
0.0405737 0.222126 0.112505
0.0403449 0.220035 0.111482
0.0400244 0.21738 0.110277
0.040238 0.215518 0.109071
0.0443122 0.21883 0.10898
0.0642557 0.234165 0.114549
0.116411 0.264652 0.126497
0.204044 0.305455 0.135714
0.310353 0.346517 0.136873
0.426596 0.376303 0.13547
0.533059 0.384115 0.129992
0.61416 0.372824 0.121401
0.669535 0.350469 0.111849
0.702235 0.319051 0.100282
0.717906 0.281041 0.0878157
0.723369 0.242039 0.0767987
0.723415 0.210529 0.0695048
0.719036 0.189593 0.0653697
0.710033 0.176211 0.0633249
0.699092 0.165805 0.0620127
0.687739 0.157382 0.0610208
0.676249 0.149493 0.0601053
0.66453 0.141527 0.059205
0.652689 0.133516 0.0582895
0.64062 0.125719 0.0574197
0.628412 0.118547 0.0566262
0.626017 0.117174 0.0564889
0.626017 0.117174 0.0564889
0.626017 0.117174 0.0564889
0.0457313 0.260151 0.130205
0.0456855 0.259846 0.130083
0.0457923 0.260533 0.130388
0.0458228 0.260853 0.130541
0.0456703 0.259815 0.130083
0.0453803 0.257862 0.129183
0.0450141 0.255238 0.127993
0.0447089 0.25243 0.126558
0.0459144 0.252049 0.125505
0.0544137 0.259937 0.127749
0.0865492 0.282765 0.138201
0.166934 0.321508 0.154803
0.27248 0.36527 0.162661
0.387564 0.405676 0.165301
0.50544 0.432242 0.164691
0.60676 0.436439 0.157397
0.683024 0.424949 0.146807
0.733074 0.40264 0.134051
0.76054 0.370809 0.118914
0.773388 0.331807 0.102419
0.778012 0.293431 0.0888228
0.77731 0.26331 0.0788891
0.770657 0.244236 0.0740826
0.760647 0.230686 0.0716564
0.749691 0.218112 0.0695964
0.738521 0.205447 0.0675822
0.727199 0.192782 0.0655985
0.715572 0.180758 0.0638743
0.703548 0.170108 0.0625315
0.691402 0.16083 0.0614328
0.689021 0.159075 0.0612345
0.689021 0.159075 0.0612345
0.689021 0.159075 0.0612345
0.0531014 0.298741 0.145006
0.0530556 0.298528 0.144945
0.053254 0.299321 0.145205
0.0533455 0.299763 0.145357
0.0531319 0.298833 0.145037
0.0526894 0.296941 0.144427
0.0521248 0.294377 0.143587
0.0514382 0.291218 0.14255
0.0510872 0.28867 0.141466
0.0537118 0.291096 0.142061
0.0702983 0.305486 0.149035
0.127626 0.337636 0.166796
0.22948 0.380468 0.184604
0.347707 0.423804 0.19324
0.467948 0.462287 0.195056
0.585199 0.487633 0.193362
0.683238 0.493477 0.186725
0.753155 0.483299 0.175387
0.796765 0.462196 0.160616
0.821057 0.432059 0.142535
0.83154 0.395865 0.124407
0.832563 0.361395 0.10837
0.827665 0.335515 0.0972915
0.819196 0.316732 0.0908827
0.809461 0.300053 0.0861524
0.79942 0.283635 0.0819257
0.788907 0.267399 0.0783093
0.77789 0.252293 0.0754253
0.766445 0.238285 0.0729992
0.754742 0.224414 0.0706951
0.752453 0.221698 0.0702373
0.752453 0.221698 0.0702373
0.752453 0.221698 0.0702373
0.0638743 0.33901 0.156832
0.0637827 0.338796 0.156771
0.0642405 0.339757 0.157076
0.0645304 0.340383 0.157275
0.0641184 0.339483 0.157
0.0632334 0.33753 0.156405
0.0622263 0.33492 0.155642
0.061265 0.331731 0.154849
0.060502 0.328527 0.154009
0.0608682 0.327184 0.153506
0.067277 0.332952 0.156313
0.0997177 0.3561 0.172122
0.183093 0.395697 0.195636
0.306706 0.441489 0.214694
0.431968 0.485359 0.222232
0.55552 0.524544 0.225193
0.672267 0.550698 0.225864
0.762997 0.557198 0.220081
0.822416 0.54815 0.209781
0.857542 0.528893 0.195804
0.875242 0.501335 0.177554
0.88101 0.468818 0.157107
0.878752 0.43827 0.138231
0.872816 0.415122 0.124559
0.865095 0.396674 0.115557
0.856031 0.37937 0.109178
0.846265 0.362219 0.103807
0.83621 0.345052 0.0987716
0.82594 0.327565 0.0937057
0.815503 0.309865 0.0886549
0.813458 0.306401 0.0876631
0.813458 0.306401 0.0876631
0.813458 0.306401 0.0876631
0.0867018 0.384146 0.171649
0.0865797 0.383963 0.171588
0.0872969 0.385122 0.172015
0.0877852 0.385916 0.172305
0.0872663 0.385107 0.172
0.0860609 0.383169 0.171283
0.0845045 0.380484 0.170336
0.0826886 0.377111 0.169192
0.080705 0.373281 0.16791
0.0791791 0.369909 0.166659
0.0803845 0.370153 0.166598
0.0974136 0.383627 0.177279
0.15523 0.415366 0.200351
0.263615 0.459602 0.226673
0.394797 0.506508 0.244587
0.52549 0.551522 0.253574
0.650675 0.590661 0.260487
0.757275 0.614923 0.265034
0.832471 0.620783 0.264607
0.878584 0.61297 0.258442
0.903883 0.596017 0.245426
0.916381 0.57203 0.223529
0.918166 0.544381 0.199496
0.914458 0.519387 0.180682
0.908675 0.500008 0.168292
0.901823 0.482475 0.158587
0.894606 0.464744 0.149142
0.887266 0.446738 0.13959
0.879728 0.428321 0.129885
0.871839 0.409918 0.120729
0.870268 0.406317 0.118975
0.870268 0.406317 0.118975
0.870268 0.406317 0.118975
0.121752 0.431159 0.19089
0.121675 0.431098 0.19086
0.122637 0.432288 0.191379
0.123339 0.433173 0.191745
0.122789 0.432486 0.191455
0.121355 0.430701 0.190692
0.119356 0.428214 0.189624
0.116716 0.424918 0.18822
0.113588 0.421027 0.186557
0.110567 0.417136 0.184787
0.109606 0.415229 0.183429
0.118166 0.421424 0.187213
0.153658 0.443107 0.205203
0.234913 0.481239 0.233433
0.361013 0.529 0.261418
0.49955 0.576013 0.281315
0.627604 0.619028 0.294881
0.7402 0.654505 0.308309
0.828397 0.675914 0.320165
0.886137 0.681331 0.324697
0.918502 0.674632 0.318868
0.935546 0.660014 0.302571
0.940688 0.638132 0.280613
0.939498 0.616266 0.260975
0.936126 0.598642 0.245609
0.932326 0.582757 0.231769
0.928389 0.566705 0.217792
0.924376 0.550301 0.203571
0.919783 0.533104 0.189654
0.914046 0.515053 0.177295
0.912856 0.511482 0.174975
0.912856 0.511482 0.174975
0.912856 0.511482 0.174975
0.166522 0.479255 0.213779
0.166552 0.479301 0.213809
0.168109 0.48072 0.214527
0.169299 0.481834 0.215091
0.168643 0.481239 0.214801
0.166751 0.479484 0.213901
0.163973 0.476905 0.212573
0.160311 0.473487 0.210819
0.156085 0.469535 0.208789
0.151675 0.465248 0.206561
0.148836 0.461799 0.204105
0.15404 0.464179 0.203479
0.179797 0.480476 0.215854
0.241001 0.511574 0.241001
0.347463 0.554925 0.272892
0.47921 0.601404 0.304067
0.60705 0.644663 0.328359
0.720073 0.683436 0.349508
0.814832 0.714977 0.371496
0.883253 0.733455 0.389059
0.923476 0.735485 0.39321
0.944335 0.726787 0.383429
0.952193 0.711666 0.366003
0.953628 0.696696 0.34934
0.95259 0.68365 0.334249
0.950835 0.67155 0.319753
0.948943 0.659403 0.305226
0.946639 0.646128 0.290318
0.943557 0.630793 0.274937
0.939941 0.614527 0.2598
0.939208 0.611322 0.256855
0.939208 0.611322 0.256855
0.939208 0.611322 0.256855
0.233402 0.532753 0.241062
0.23357 0.532845 0.241093
0.236683 0.534615 0.241947
0.239185 0.536049 0.242634
0.238254 0.535515 0.242374
0.234775 0.533516 0.241413
0.229618 0.530526 0.239963
0.222934 0.526619 0.238087
0.214969 0.52195 0.235843
0.207782 0.517052 0.233387
0.203204 0.51281 0.230701
0.208377 0.513405 0.228611
0.233707 0.52575 0.234073
0.281407 0.550103 0.253376
0.362219 0.585565 0.283574
0.473411 0.628107 0.32018
0.592447 0.67013 0.356329
0.7019 0.70811 0.387701
0.795834 0.741604 0.417746
0.870115 0.766506 0.444099
0.919707 0.776547 0.457359
0.946395 0.77348 0.454765
0.957443 0.764523 0.443717
0.960708 0.756817 0.43331
0.961181 0.749508 0.422019
0.960861 0.741772 0.40914
0.960052 0.732891 0.395377
0.958587 0.721935 0.380865
0.956847 0.709911 0.36585
0.955001 0.697536 0.35053
0.954635 0.695094 0.347524
0.954635 0.695094 0.347524
0.954635 0.695094 0.347524
0.343679 0.594781 0.270649
0.343893 0.594919 0.27071
0.347585 0.596704 0.271504
0.350576 0.598123 0.272145
0.349813 0.597787 0.271992
0.346426 0.59617 0.271275
0.341176 0.5935 0.270039
0.33431 0.589792 0.268299
0.32607 0.58526 0.266148
0.316625 0.580041 0.263691
0.306432 0.574411 0.261021
0.3019 0.571084 0.258167
0.322301 0.579446 0.259373
0.361395 0.598596 0.27277
0.418601 0.625605 0.29868
0.499153 0.659586 0.334234
0.594903 0.696468 0.376791
0.693263 0.73196 0.420005
0.781643 0.76318 0.457084
0.854627 0.788525 0.487572
0.909895 0.803525 0.506706
0.943389 0.805707 0.511971
0.957748 0.80209 0.510597
0.962646 0.799374 0.508553
0.963806 0.796414 0.504067
0.963821 0.791165 0.494423
0.9635 0.784131 0.481758
0.963104 0.776471 0.468208
0.962692 0.768536 0.454154
0.962264 0.760601 0.440116
0.962188 0.759045 0.437385
0.962188 0.759045 0.437385
0.962188 0.759045 0.437385
0.450263 0.643198 0.291737
0.450767 0.643427 0.291844
0.454139 0.644968 0.292515
0.456977 0.646235 0.293065
0.456657 0.646097 0.293004
0.453925 0.644877 0.29247
0.4495 0.642878 0.2916
0.44361 0.640238 0.290455
0.436484 0.637018 0.289067
0.42829 0.633326 0.287465
0.419272 0.629252 0.285695
0.413077 0.626245 0.283986
0.425071 0.631037 0.285283
0.461219 0.647364 0.295521
0.509575 0.670634 0.317876
0.564385 0.696818 0.350362
0.628672 0.725093 0.391241
0.702083 0.75407 0.437537
0.775067 0.780789 0.480461
0.839246 0.803113 0.514107
0.89514 0.819699 0.537041
0.936263 0.826215 0.54786
0.955734 0.825803 0.555367
0.962341 0.826123 0.562524
0.964019 0.826719 0.565896
0.964263 0.824521 0.561898
0.964233 0.820127 0.552987
0.964187 0.815167 0.54284
0.964141 0.810025 0.532296
0.964096 0.80473 0.521492
0.96408 0.803693 0.519356
0.96408 0.803693 0.519356
0.96408 0.803693 0.519356
0.511513 0.669215 0.302846
0.511818 0.669337 0.302892
0.513375 0.669978 0.303166
0.514717 0.670527 0.30338
0.514702 0.670512 0.303395
0.513603 0.670054 0.303197
0.511757 0.669306 0.302876
0.509316 0.668315 0.302464
0.506386 0.667109 0.301961
0.502983 0.665721 0.301366
0.499153 0.664149 0.30071
0.495964 0.662821 0.300099
0.502922 0.665583 0.301106
0.535927 0.679698 0.309422
0.582452 0.701625 0.329442
0.626245 0.724361 0.359136
0.668223 0.746151 0.396231
0.716442 0.76846 0.441001
0.771359 0.7906 0.485985
0.825833 0.810086 0.522332
0.877638 0.825681 0.547814
0.923339 0.835966 0.563729
0.950607 0.839536 0.576822
0.961028 0.840162 0.588159
0.963684 0.840497 0.594385
0.964111 0.84036 0.595499
0.964172 0.839094 0.592905
0.964202 0.837339 0.589075
0.964233 0.835508 0.585061
0.964279 0.833524 0.580743
0.964294 0.833112 0.579889
0.964294 0.833112 0.579889
0.964294 0.833112 0.579889
0.529503 0.67657 0.305943
0.529503 0.67657 0.305943
0.529503 0.67657 0.305943
0.529503 0.67657 0.305943
0.529503 0.67657 0.305943
0.529503 0.67657 0.305943
0.529503 0.67657 0.305943
0.529503 0.67657 0.305943
0.529503 0.67657 0.305943
0.529503 0.67657 0.305943
0.529503 0.67657 0.305943
0.529686 0.676646 0.305959
0.535744 0.679026 0.306767
0.561822 0.689891 0.312428
0.606531 0.710246 0.328984
0.652369 0.733639 0.357061
0.690745 0.755306 0.392905
0.726497 0.775357 0.435554
0.767025 0.794507 0.4804
0.812268 0.811704 0.518715
0.860807 0.825925 0.546609
0.910704 0.837552 0.565637
0.944823 0.843427 0.580667
0.959167 0.845014 0.595117
0.963195 0.845533 0.604486
0.963943 0.845808 0.607645
0.964019 0.845731 0.607767
0.964034 0.845472 0.607141
0.964034 0.845167 0.606348
0.964065 0.844434 0.604669
0.964065 0.844251 0.604273
0.964065 0.844251 0.604273
0.964065 0.844251 0.604273
0.529503 0.67657 0.305943
0.529503 0.67657 0.305943
0.529503 0.67657 0.305943
0.529503 0.67657 0.305943
0.529503 0.67657 0.305943
0.529503 0.67657 0.305943
0.529503 0.67657 0.305943
0.529503 0.67657 0.305943
0.529503 0.67657 0.305943
0.529503 0.67657 0.305943
0.529503 0.67657 0.305943
0.529549 0.676585 0.305943
0.531762 0.677455 0.306218
0.547921 0.684001 0.309102
0.589776 0.702174 0.320989
0.641215 0.72694 0.345846
0.685649 0.750942 0.380209
0.721355 0.772137 0.42121
0.756451 0.791318 0.466087
0.797024 0.808637 0.507774
0.842985 0.82298 0.539483
0.894545 0.834974 0.561013
0.936156 0.842435 0.576959
0.956542 0.84535 0.593545
0.962753 0.846448 0.605798
0.963882 0.846815 0.610025
0.963989 0.84686 0.610574
0.963989 0.84686 0.61059
0.963989 0.846815 0.610468
0.963989 0.846647 0.610056
0.964004 0.846601 0.609964
0.964004 0.846601 0.609964
0.964004 0.846601 0.609964
0.529503 0.67657 0.305943
0.529503 0.67657 0.305943
0.529503 0.67657 0.305943
