media_library/luts/baidu-pack/人像1.cube
TITLE "Generated by Resolve"
LUT_3D_SIZE 9
0 0 0
0.00140383 0 0
0.188602 0.0103151 0.00544747
0.496635 0.0425269 0.0166629
0.751461 0.0765698 0.021973
0.961715 0.100999 0.0275731
0.962112 0.100999 0.0275731
0.962112 0.100999 0.0275731
0.962112 0.100999 0.0275731
0 0 0
0 0 0
0.122026 0.00416571 0.00311284
0.437034 0.0339971 0.0146487
0.698787 0.0699474 0.0206607
0.94696 0.100771 0.0275578
0.962112 0.100999 0.0275731
0.962112 0.100999 0.0275731
0.962112 0.100999 0.0275731
0.0299382 0.118547 0.0283513
0.0253605 0.103563 0.0239872
0.0681926 0.0819409 0.0132601
0.380423 0.101152 0.0100862
0.640925 0.119814 0.0192264
0.911635 0.142397 0.0278935
0.962005 0.135866 0.0277562
0.962036 0.126726 0.0276951
0.962051 0.120989 0.0276646
0.12665 0.387854 0.122026
0.119097 0.36762 0.114702
0.139101 0.346319 0.105699
0.292409 0.278294 0.0542458
0.596658 0.287541 0.00395209
0.850599 0.286229 0.0156405
0.961532 0.283619 0.0202487
0.961563 0.272145 0.0211337
0.961593 0.264759 0.021622
0.219455 0.650431 0.21181
0.213947 0.634943 0.206485
0.215732 0.619196 0.201419
0.271519 0.599725 0.189563
0.561257 0.49189 0.105928
0.805676 0.533272 0.0318151
0.960784 0.514977 0
0.96083 0.495216 0
0.960861 0.482277 0
0.288624 0.871031 0.278294
0.283192 0.854612 0.27306
0.278401 0.839139 0.268315
0.365026 0.82298 0.261494
0.545861 0.784985 0.145571
0.759976 0.685359 0.167147
0.953567 0.705455 0.121096
0.954025 0.697948 0.109163
0.954498 0.692882 0.100923
0.319417 0.963867 0.307988
0.319417 0.963867 0.307988
0.319417 0.963867 0.307988
0.388556 0.963027 0.305776
0.3467 0.959716 0.295811
0.780056 0.955245 0.166384
0.929671 0.840055 0.224292
0.947921 0.834699 0.224094
0.94754 0.827726 0.222477
0.319417 0.963867 0.307988
0.319417 0.963867 0.307988
0.319417 0.963867 0.307988
0.36524 0.963439 0.307012
0.38558 0.962966 0.305791
0.721447 0.962188 0.100038
0.909148 0.871244 0.232685
0.947906 0.852964 0.224231
0.947906 0.852964 0.224231
0.319417 0.963867 0.307988
0.319417 0.963867 0.307988
0.319417 0.963867 0.307988
0.351324 0.963623 0.3075
0.418769 0.96231 0.305959
0.689494 0.958434 0.140841
0.899702 0.896132 0.241184
0.947906 0.852964 0.224231
0.947906 0.852964 0.224231
0.000488289 0.000961318 0.00512703
0.000946059 0.000381476 0.00205997
0.179904 0.00973526 0.00520333
0.489372 0.0414435 0.0164492
0.744335 0.0759442 0.0218814
0.961563 0.100999 0.0275731
0.962112 0.100999 0.0275731
0.962112 0.100999 0.0275731
0.962112 0.100999 0.0275731
0 0 0
0 0 0
0.114595 0.00366217 0.00294499
0.429084 0.0328527 0.0144656
0.691966 0.0689403 0.0206149
0.94403 0.100725 0.0275883
0.962112 0.100999 0.0275731
0.962112 0.100999 0.0275731
0.962112 0.100999 0.0275731
0.0276646 0.111803 0.0261845
0.0236362 0.0972 0.0223392
0.0630655 0.076173 0.0126955
0.372946 0.0958114 0.0101625
0.634699 0.114672 0.0193332
0.904723 0.137545 0.0277104
0.96202 0.131701 0.0277256
0.962051 0.122683 0.0276799
0.962066 0.116884 0.0276493
0.123247 0.378805 0.118715
0.115663 0.358373 0.11136
0.132601 0.337285 0.102556
0.282719 0.270878 0.0515755
0.589609 0.279805 0.00416571
0.84332 0.279713 0.0161135
0.961547 0.278569 0.0207065
0.961578 0.267124 0.0214694
0.961608 0.259876 0.0221714
0.217044 0.643595 0.209461
0.211505 0.628092 0.20412
0.212558 0.612177 0.199329
0.272557 0.592325 0.18735
0.554269 0.485695 0.104326
0.799191 0.526589 0.0304265
0.9608 0.506294 0
0.960861 0.486229 0
0.960891 0.473579 4.57771e-05
0.286183 0.863645 0.275944
0.280751 0.847013 0.27071
0.27628 0.832883 0.266407
0.36051 0.816403 0.259403
0.534859 0.778668 0.147143
0.752407 0.678264 0.16437
0.953155 0.702174 0.115969
0.954269 0.694652 0.103822
0.954971 0.689357 0.0952163
0.319417 0.963867 0.307988
0.319417 0.963867 0.307988
0.319417 0.963867 0.307988
0.385611 0.961913 0.305959
0.3393 0.957794 0.298451
0.772015 0.953185 0.158068
0.926925 0.838224 0.224384
0.947707 0.830228 0.223148
0.947234 0.82269 0.221149
0.319417 0.963867 0.307988
0.319417 0.963867 0.307988
0.319417 0.963867 0.307988
0.362188 0.963485 0.307134
0.395132 0.962814 0.30605
0.714137 0.961578 0.107362
0.907195 0.876753 0.234638
0.947906 0.852964 0.224231
0.947906 0.852964 0.224231
0.319417 0.963867 0.307988
0.319417 0.963867 0.307988
0.319417 0.963867 0.307988
0.348318 0.963653 0.307576
0.421225 0.962234 0.30576
0.683528 0.957107 0.153201
0.897337 0.901228 0.24271
0.947906 0.852964 0.224231
0.947906 0.852964 0.224231
0.0333867 0.0674449 0.214679
0.0305333 0.0607919 0.199207
0.130495 0.0108339 0.196338
0.48629 0.0174411 0.13106
0.755795 0.0304112 0.105882
0.963775 0.0657054 0.105272
0.964492 0.068574 0.0990311
0.964477 0.0718547 0.0926375
0.963531 0.0743877 0.0863203
0.0234531 0.0466163 0.164446
0.0205539 0.04094 0.150317
0.0876631 0.021622 0.142596
0.414405 0.0136568 0.0901961
0.700542 0.0324865 0.0833906
0.942336 0.0758526 0.0815747
0.963485 0.0786755 0.0747845
0.96347 0.0813001 0.0679484
0.96318 0.0838178 0.062974
0.0144503 0.11516 0.125124
0.0131991 0.100587 0.110567
0.0594034 0.0855421 0.0968948
0.354513 0.0837873 0.0594644
0.635889 0.109316 0.0500343
0.898695 0.134173 0.0483101
0.962142 0.127657 0.0449989
0.962142 0.116167 0.0411383
0.962158 0.110369 0.0390326
0.11043 0.368643 0.130846
0.104555 0.348379 0.12166
0.119417 0.327932 0.112657
0.271595 0.271412 0.0733959
0.581033 0.272084 0.0228428
0.835431 0.275059 0.0248875
0.961593 0.274769 0.0272984
0.961624 0.262699 0.0250858
0.961624 0.255253 0.0238193
0.2121 0.636408 0.219608
0.207874 0.621073 0.211429
0.208179 0.604639 0.204227
0.275776 0.585092 0.191394
0.546471 0.479728 0.105089
0.792493 0.518975 0.0293584
0.960815 0.497505 0
0.960876 0.477745 0
0.960906 0.465095 0.000289921
0.283635 0.856794 0.277775
0.278752 0.840925 0.269825
0.274235 0.826413 0.264439
0.355856 0.809674 0.257221
0.523384 0.772366 0.14992
0.747372 0.673503 0.162402
0.950713 0.698833 0.111284
0.954742 0.691035 0.0979324
0.955444 0.685802 0.0894179
0.319417 0.963867 0.307988
0.319417 0.963867 0.307988
0.319417 0.963867 0.307988
0.382666 0.959991 0.306157
0.335027 0.955718 0.300404
0.764263 0.951141 0.149081
0.924269 0.836454 0.224765
0.947402 0.825193 0.22182
0.946914 0.817487 0.219791
0.319417 0.963867 0.307988
0.319417 0.963867 0.307988
0.319417 0.963867 0.307988
0.359243 0.963516 0.30724
0.404623 0.962631 0.306203
0.70721 0.960937 0.11429
0.905257 0.882261 0.236591
0.947906 0.852964 0.224231
0.947906 0.852964 0.224231
0.319417 0.963867 0.307988
0.319417 0.963867 0.307988
0.319417 0.963867 0.307988
0.345449 0.963684 0.307652
0.423667 0.962158 0.305562
0.677943 0.955673 0.165438
0.894942 0.906371 0.244266
0.947906 0.852964 0.224231
0.947906 0.852964 0.224231
0.0904707 0.197833 0.51223
0.0876173 0.191012 0.496223
0.145632 0.109056 0.485634
0.478172 4.57771e-05 0.503853
0.75288 0.0137026 0.461128
0.962692 0.0277104 0.376471
0.964248 0.028687 0.349737
0.964614 0.0296941 0.322942
0.964599 0.0303502 0.306447
0.0800183 0.173205 0.456046
0.0770428 0.165805 0.439445
0.120714 0.11014 0.425818
0.405844 0.000137331 0.442908
0.701381 0.0157931 0.392081
0.940246 0.0309453 0.286015
0.964584 0.031632 0.260777
0.964553 0.0317998 0.234073
0.964553 0.0318303 0.217838
0.0645914 0.232563 0.413169
0.0624552 0.215152 0.393881
0.0993973 0.187335 0.370855
0.326635 0.0551614 0.379355
0.648905 0.0480201 0.313573
0.898665 0.0515297 0.20795
0.964523 0.0462654 0.179629
0.964523 0.0416876 0.162142
0.964508 0.0404822 0.15227
0.0190738 0.359838 0.370748
0.0196231 0.340215 0.352239
0.0366217 0.320485 0.33283
0.250889 0.30518 0.321141
0.579767 0.283345 0.246845
0.834134 0.304891 0.225238
0.962509 0.304173 0.20824
0.962448 0.290242 0.192294
0.962417 0.280537 0.181262
0.147158 0.620111 0.269322
0.148608 0.605158 0.24979
0.152682 0.589517 0.228992
0.258137 0.574563 0.1944
0.53904 0.51397 0.271916
0.775937 0.506355 0.184253
0.9617 0.482109 0.155306
0.961669 0.465583 0.141207
0.961654 0.454154 0.132677
0.24712 0.843214 0.283177
0.246159 0.82855 0.284077
0.24477 0.81323 0.285588
0.328588 0.799863 0.296086
0.442847 0.770748 0.269978
0.744091 0.691569 0.271305
0.95198 0.71667 0.178836
0.958221 0.704158 0.157641
0.958511 0.696345 0.143023
0.298009 0.964157 0.345785
0.30045 0.964157 0.346929
0.303197 0.963577 0.347341
0.365286 0.958694 0.348455
0.366308 0.954162 0.364462
0.739757 0.948379 0.173938
0.922148 0.846433 0.287221
0.948211 0.83125 0.274525
0.94818 0.822629 0.26685
0.306416 0.964126 0.346273
0.308293 0.964111 0.344793
0.309834 0.964096 0.342626
0.347127 0.963912 0.340032
0.411749 0.963363 0.346944
0.694102 0.957336 0.185641
0.903685 0.893309 0.270436
0.948013 0.858167 0.250462
0.947997 0.857114 0.245747
0.309834 0.964096 0.342611
0.311101 0.96408 0.340261
0.312108 0.96405 0.336233
0.336736 0.963912 0.332128
0.422583 0.962905 0.333608
0.667216 0.952514 0.209995
0.89276 0.913787 0.26273
0.947951 0.85478 0.236362
0.947936 0.854154 0.232197
0.134615 0.313359 0.767987
0.131563 0.305089 0.753292
0.193698 0.222354 0.729473
0.45333 0.010193 0.769741
0.745968 0 0.757107
0.958846 0.00267033 0.741039
0.962783 0.00408942 0.72517
0.962737 0.00512703 0.70901
0.962722 0.0059968 0.698528
0.125383 0.28809 0.717739
0.12311 0.281468 0.703655
0.168383 0.220523 0.682139
0.359869 0.0217746 0.715282
0.694697 0 0.707713
0.93521 0.00721752 0.687022
0.962707 0.00959792 0.669596
0.962692 0.0109255 0.651164
0.962676 0.0116426 0.639307
0.110353 0.353033 0.683268
0.109285 0.336812 0.668086
0.148501 0.308904 0.648463
0.262226 0.110582 0.649775
0.641886 0.0361639 0.659495
0.892424 0.0314794 0.634012
0.962631 0.0260166 0.605982
0.962615 0.0224613 0.586603
0.962615 0.0225681 0.573571
0.0715648 0.463752 0.656229
0.0717784 0.448295 0.641245
0.0884565 0.433249 0.625177
0.279072 0.416114 0.598779
0.586297 0.263935 0.609155
0.841184 0.246082 0.564095
0.962463 0.229129 0.512581
0.962463 0.21149 0.491402
0.962448 0.200031 0.477729
0.00515755 0.608469 0.616541
0.0065156 0.59266 0.600992
0.00923171 0.575875 0.585824
0.176287 0.56109 0.570962
0.519142 0.550027 0.562737
0.77348 0.522164 0.500145
0.963394 0.526665 0.478676
0.963333 0.50985 0.458259
0.963211 0.502129 0.447654
0.116213 0.823545 0.558618
0.116976 0.808331 0.542275
0.118379 0.79324 0.525185
0.200137 0.779324 0.506355
0.381094 0.771572 0.449516
0.741054 0.72079 0.510887
0.953887 0.71873 0.428641
0.962371 0.702449 0.406119
0.962341 0.69163 0.39115
0.195407 0.964874 0.4766
0.202762 0.964797 0.453162
0.21062 0.962112 0.427283
0.275303 0.957244 0.400443
0.344564 0.951659 0.296971
0.692622 0.937621 0.282979
0.922942 0.874891 0.488716
0.951507 0.857038 0.471305
0.951507 0.849073 0.460487
0.221469 0.964553 0.388739
0.228153 0.964416 0.358541
0.235233 0.964263 0.324804
0.27657 0.963897 0.284413
0.388281 0.96289 0.30135
0.624628 0.952651 0.304433
0.904799 0.927504 0.452415
0.951156 0.887282 0.431495
0.951064 0.885985 0.423285
0.235431 0.964263 0.324056
0.243076 0.96405 0.285954
0.250507 0.963882 0.259495
0.276738 0.96376 0.261341
0.397559 0.963073 0.319051
0.56112 0.956039 0.334691
0.892744 0.948363 0.428077
0.950957 0.883467 0.40734
0.950927 0.882216 0.399298
0.159121 0.367742 0.909117
0.159121 0.367742 0.909117
0.22063 0.292165 0.896117
0.347204 0.0681163 0.935897
0.738125 0 0.964324
0.955962 0 0.960357
0.962936 0 0.956039
0.962936 0 0.951751
0.962936 0 0.949142
0.159121 0.367742 0.909117
0.159121 0.367742 0.908232
0.20618 0.317113 0.89279
0.267445 0.142016 0.904509
0.686427 0 0.950576
0.930983 0 0.944656
0.96379 0 0.934874
0.964279 0 0.923949
0.964294 0 0.915846
0.15494 0.447013 0.908446
0.155489 0.437278 0.902571
0.191608 0.415015 0.889799
0.269306 0.275013 0.86714
0.633021 0.0317388 0.91696
0.885466 0.0214084 0.90576
0.964538 0.0126955 0.892424
0.964843 0.0078584 0.878325
0.964981 0.00527962 0.868849
0.134173 0.571298 0.898268
0.132845 0.558572 0.886305
0.146212 0.545312 0.872816
0.322927 0.524376 0.847929
0.519265 0.274723 0.855283
0.834318 0.236881 0.856184
0.96379 0.217685 0.84152
0.963638 0.200519 0.826001
0.963561 0.189441 0.8159
0.0801556 0.675532 0.870939
0.0791028 0.662089 0.856901
0.0799268 0.647288 0.841184
0.24712 0.640742 0.822751
0.539864 0.633356 0.796292
0.782467 0.514931 0.805035
0.962798 0.497002 0.778195
0.96257 0.479347 0.760937
0.962554 0.466972 0.749035
0.00654612 0.815427 0.827253
0.00671397 0.800534 0.812589
0.00653086 0.785122 0.797101
0.106477 0.770687 0.782177
0.450401 0.757671 0.767819
0.724575 0.745983 0.755795
0.952972 0.729473 0.720073
0.963912 0.716213 0.704692
0.963851 0.706111 0.693278
0.0651102 0.965347 0.774395
0.0739605 0.965194 0.759472
0.0825818 0.960723 0.744472
0.142855 0.956039 0.729488
0.312963 0.951263 0.711009
0.630381 0.944884 0.662547
0.924178 0.90544 0.713069
0.957275 0.887938 0.697917
0.957549 0.881331 0.687205
0.0931411 0.965301 0.723766
0.10042 0.965286 0.709102
0.107942 0.96527 0.693935
0.145418 0.965225 0.678523
0.227939 0.965133 0.659144
0.560418 0.964385 0.601251
0.89749 0.959014 0.664912
0.956573 0.920439 0.658412
0.956542 0.918975 0.650355
0.108202 0.96527 0.693416
0.115114 0.965255 0.678996
0.122286 0.96524 0.66363
0.146029 0.965194 0.647913
0.238758 0.965072 0.627329
0.514687 0.964385 0.563729
0.869505 0.962554 0.624567
0.955932 0.916335 0.633417
0.955413 0.915145 0.624262
0.159121 0.367742 0.909117
0.159121 0.367742 0.909117
0.218814 0.295445 0.896162
0.332341 0.0764324 0.932647
0.731914 0 0.964324
0.952972 0 0.964111
0.962951 0 0.964096
0.962951 0 0.964096
0.962951 0 0.964096
0.159121 0.367742 0.909117
0.159121 0.367742 0.909117
0.204517 0.320516 0.898314
0.263752 0.152667 0.911711
0.679896 0 0.964385
0.925597 0 0.964126
0.962951 0 0.964096
0.962951 0 0.964096
0.962951 0 0.964096
0.155322 0.442649 0.918914
0.155734 0.433082 0.91725
0.189364 0.413046 0.912337
0.269978 0.282582 0.899535
0.624018 0.0279698 0.963272
0.87837 0.0177462 0.964187
0.962951 0.0101472 0.964096
0.962951 0.00607309 0.964096
0.962951 0.00407416 0.964096
0.140276 0.574212 0.935943
0.14139 0.565805 0.93518
0.154177 0.557076 0.933211
0.327794 0.541955 0.922347
0.464576 0.289662 0.932601
0.827008 0.22855 0.96437
0.962844 0.210361 0.964218
0.96286 0.192752 0.964218
0.96286 0.181582 0.964202
0.10161 0.694697 0.950469
0.105379 0.686305 0.949523
0.110369 0.678004 0.948455
0.278264 0.677058 0.943786
0.549371 0.674632 0.931212
0.769421 0.507836 0.961669
0.962707 0.487694 0.964401
0.962722 0.46923 0.964279
0.962722 0.457893 0.962966
0.0422675 0.826032 0.959136
0.0464179 0.815869 0.958556
0.0498817 0.805158 0.958389
0.160998 0.79826 0.957855
0.480308 0.801526 0.953353
0.739162 0.801175 0.940795
0.948821 0.716945 0.958968
0.962615 0.702174 0.956542
0.962631 0.692454 0.954681
0 0.965423 0.961151
0 0.963439 0.959854
0 0.958831 0.957382
0.0521401 0.954147 0.955108
0.362173 0.949142 0.953536
0.672389 0.940581 0.948302
0.919341 0.930785 0.938582
0.963012 0.916152 0.931243
0.962982 0.907561 0.9243
0 0.965423 0.953902
0 0.965423 0.950469
0 0.965423 0.94255
0.0260014 0.965408 0.93341
0.284596 0.965209 0.924651
0.617624 0.96495 0.915236
0.866041 0.964614 0.898695
0.962325 0.956497 0.89247
0.961929 0.954971 0.883345
0 0.965423 0.942367
0 0.965423 0.933089
0.00030518 0.965423 0.923629
0.014374 0.965408 0.914321
0.2392 0.96524 0.90103
0.581765 0.964965 0.887816
0.830976 0.964645 0.866148
0.961334 0.952087 0.865354
0.961242 0.950225 0.855909
0.159121 0.367742 0.909117
0.159121 0.367742 0.909117
0.216922 0.298817 0.896239
0.316854 0.0850385 0.929274
0.72549 0 0.96434
0.950118 0 0.964111
0.962951 0 0.964096
0.962951 0 0.964096
0.962951 0 0.964096
0.159121 0.367742 0.909117
0.159121 0.367742 0.909117
0.202579 0.32369 0.898665
0.262242 0.16405 0.909453
0.673182 0 0.964385
0.920455 0 0.964141
0.962951 0 0.964096
0.962951 0 0.964096
0.962951 0 0.964096
0.155505 0.438392 0.918166
0.155932 0.428794 0.916533
0.186358 0.408408 0.911849
0.267292 0.28127 0.899275
0.615656 0.0247196 0.963088
0.87187 0.0138094 0.964187
0.962951 0.00830091 0.964096
0.962951 0.00459297 0.964096
0.962951 0.00288396 0.964096
0.14078 0.570382 0.935592
0.142016 0.562051 0.934676
0.15288 0.553338 0.932631
0.320836 0.537301 0.921935
0.454231 0.286015 0.931304
0.82002 0.220676 0.96437
0.96286 0.202731 0.964218
0.96286 0.185061 0.964218
0.96286 0.173724 0.964202
0.103304 0.690959 0.950042
0.106828 0.682582 0.949081
0.110872 0.674159 0.947997
0.272007 0.673014 0.943465
0.542824 0.67068 0.931151
0.761379 0.499962 0.961151
0.962722 0.479347 0.964401
0.962722 0.461631 0.964385
0.962737 0.450172 0.96437
0.0443275 0.821363 0.958801
0.0479286 0.811231 0.958495
0.0513771 0.800504 0.958312
0.157778 0.793957 0.95761
0.473106 0.797238 0.953536
0.732418 0.796719 0.943603
0.94612 0.710567 0.964553
0.962615 0.695766 0.964523
0.962631 0.686015 0.964523
0 0.965423 0.961288
0 0.961425 0.961318
0 0.956756 0.961349
0.0477302 0.952148 0.961547
0.352331 0.946395 0.962661
0.665766 0.936172 0.963149
0.914855 0.928359 0.961944
0.963211 0.911772 0.96466
0.963104 0.902983 0.96466
0 0.965423 0.961288
0 0.965423 0.961288
0 0.965423 0.961288
0.0229191 0.965408 0.961364
0.275074 0.965209 0.962264
0.61117 0.964965 0.963455
0.86479 0.964767 0.96434
0.964691 0.964691 0.964691
0.964691 0.964691 0.964691
0 0.965423 0.961288
0 0.965423 0.961288
0 0.965423 0.961288
0.0100099 0.965423 0.961318
0.230838 0.965255 0.962112
0.575067 0.964996 0.963317
0.832502 0.964797 0.964233
0.964691 0.964691 0.964691
0.964691 0.964691 0.964691
0.159121 0.367742 0.909117
0.159121 0.367742 0.909117
0.21593 0.300587 0.896391
0.310903 0.0899214 0.927779
0.721981 0 0.96434
0.948501 0 0.964111
0.962951 0 0.964096
0.962951 0 0.964096
0.962951 0 0.964096
0.159121 0.367742 0.909117
0.159121 0.367742 0.909117
0.201511 0.325322 0.898863
0.261707 0.170062 0.908431
0.669474 0 0.964385
0.917617 0 0.964126
0.962951 0 0.964096
0.962951 0 0.964096
0.962951 0 0.964096
0.155596 0.436316 0.9178
0.156024 0.42652 0.916152
0.184787 0.406256 0.911635
0.265919 0.280583 0.899138
0.61117 0.0231937 0.962982
0.868376 0.0119936 0.964202
0.962951 0.00741588 0.964096
0.962951 0.00399786 0.964096
0.962951 0.00227359 0.964096
0.141024 0.568521 0.935439
0.142397 0.560052 0.934386
0.152117 0.551431 0.932342
0.317525 0.535119 0.921675
0.447974 0.284504 0.930465
0.816678 0.21651 0.96437
0.96286 0.198596 0.964218
0.96286 0.181308 0.964202
0.96286 0.16997 0.964202
0.104173 0.689067 0.949828
0.107546 0.68072 0.948852
0.111147 0.672251 0.947753
0.269032 0.670924 0.943313
0.539956 0.668833 0.931121
0.757641 0.495995 0.960952
0.962722 0.475227 0.964385
0.962722 0.457633 0.964385
0.962737 0.446052 0.96437
0.0453193 0.819089 0.958633
0.0487526 0.808728 0.95845
0.0521401 0.798276 0.958251
0.156161 0.791836 0.957458
0.469596 0.795132 0.953323
0.729442 0.794553 0.943465
0.944823 0.707439 0.964553
0.962631 0.692592 0.964523
0.962631 0.68275 0.964523
0 0.964889 0.961288
0 0.960403 0.961318
0 0.955749 0.961364
0.0458991 0.951049 0.961547
0.347616 0.94432 0.962554
0.662226 0.933867 0.962997
0.91162 0.925582 0.962142
0.96318 0.908797 0.96466
0.963012 0.899611 0.96466
0 0.965423 0.961288
0 0.965423 0.961288
0 0.965423 0.961288
0.0215457 0.965408 0.961364
0.269993 0.965225 0.962234
0.607355 0.964965 0.963439
0.861418 0.964767 0.964324
0.964691 0.964691 0.964691
0.964691 0.964691 0.964691
0 0.965423 0.961288
0 0.965423 0.961288
0 0.965423 0.961288
0.00936904 0.965423 0.961318
0.225925 0.965255 0.962081
0.570932 0.964996 0.963302
0.828733 0.964797 0.964218
0.964691 0.964691 0.964691
0.964691 0.964691 0.964691
