media_library/luts/baidu-pack/人像2.cube
TITLE "Generated by Resolve"
LUT_3D_SIZE 9
0.0278325 0.0285801 0.0311894
0.0396277 0.0318151 0.0341344
0.129931 0.0466468 0.0276341
0.416739 0.0174258 0
0.608698 0 0
0.671519 0 0
0.686656 0 0
0.687404 0 0
0.687663 0 0
0.0247654 0.0401465 0.0358892
0.0336004 0.0390784 0.0364385
0.0888685 0.048188 0.0346685
0.300282 0.051667 1.5259e-05
0.551766 0 0
0.650767 0 0
0.682765 0 0
0.687022 0 0
0.687495 0 0
0 0.0983902 0.0521401
0.000579843 0.0807965 0.0480049
0.079408 0.090074 0.045655
0.333639 0.112016 0.000167849
0.585519 0.0243076 0
0.654185 1.5259e-05 0
0.678401 0 0
0.685863 0 0
0.687099 0 0
0 0.27541 0.0296941
0 0.234318 0.0505837
0 0.226368 0.0518807
0.343343 0.317769 0
0.706157 0.341802 0
0.810407 0.290959 0
0.80322 0.212573 0
0.742916 0.0455482 0
0.707362 0.00608835 0
0 0.40853 0
0 0.386358 0
0 0.375998 0
0.168963 0.5093 0
0.744747 0.644144 0
0.942794 0.648203 0
0.976837 0.619684 0
0.967041 0.576272 0
0.939452 0.505547 0
0 0.450019 0
0 0.442542 0
0 0.439139 0
0.00172427 0.533547 0
0.662196 0.750286 0
0.969757 0.821591 0
1 0.812528 0
1 0.802304 0
1 0.789929 0
0 0.47509 0
0 0.467124 0
0 0.463874 0
0.000717174 0.540093 0
0.571786 0.754788 0
0.942382 0.85713 0
1 0.864149 0
1 0.860471 0
1 0.858625 0
0.0141146 0.552712 0
0.000518807 0.509651 0
0.000167849 0.545403 0
0.186069 0.656001 0
0.665537 0.790814 0
0.940734 0.86595 0
1 0.876188 0
1 0.873259 0
1 0.872251 0
0.554864 0.759579 0
0.438712 0.722301 0
0.502022 0.742901 0
0.656138 0.789807 0
0.841184 0.842924 0
0.981216 0.87776 0
1 0.878462 0
1 0.876493 0
1 0.875593 0
0.026978 0.0294499 0.0400244
0.0369268 0.0325628 0.0442664
0.129381 0.0475776 0.0432746
0.417838 0.00241093 0.000106813
0.615717 0 9.15541e-05
0.677989 0 0
0.690242 0 0
0.687541 0 0
0.687663 0 0
0.0240635 0.0390326 0.0431525
0.0317082 0.0371099 0.0417945
0.0826429 0.0451972 0.0415808
0.276631 0.0442664 0.00256352
0.543359 0 0
0.650294 0 0
0.683314 0 0
0.687068 0 0
0.687465 0 0
0 0.0925765 0.0591897
0.000701915 0.0763104 0.0521706
0.0693217 0.0826123 0.0509041
0.284947 0.100389 0.00477607
0.554406 0.0302281 0
0.644526 1.5259e-05 0
0.676921 0 0
0.686 0 0
0.687144 0 0
0 0.263859 0.0457923
0 0.217777 0.0567788
0 0.206744 0.0577096
0.293889 0.281697 0.000137331
0.654643 0.315816 0
0.789136 0.2701 0
0.78587 0.177325 0
0.725795 0.0169223 0
0.696498 0.00109865 0
0 0.401892 0
0 0.374365 0
0 0.36228 0
0.109957 0.473228 0
0.70042 0.60943 0
0.919509 0.620279 0
0.961318 0.584726 0
0.950973 0.535943 0
0.918074 0.453941 0
0 0.447852 0
0 0.439017 0
0 0.434897 0
0 0.508904 0
0.609903 0.727703 0
0.951095 0.807797 0
1 0.801083 0
1 0.788525 0
1 0.772351 0
0 0.472663 0
0 0.463935 0
0 0.460502 0
0 0.512581 0
0.500282 0.731167 0
0.916518 0.848417 0
1 0.861753 0
1 0.857053 0
1 0.854932 0
0.00698863 0.52929 0
0 0.492454 0
0 0.512901 0
0.0364233 0.61442 0
0.581491 0.764965 0
0.907362 0.857023 0
1 0.876143 0
1 0.872557 0
1 0.871427 0
0.493141 0.739879 0
0.354772 0.695949 0
0.41651 0.715007 0
0.578637 0.766842 0
0.793729 0.829801 0
0.961013 0.872908 0
1 0.878859 0
1 0.876432 0
1 0.875334 0
0.0171206 0.0282444 0.0935988
0.0318608 0.0294041 0.101137
0.126085 0.0409857 0.121447
0.426383 7.62951e-05 0.137606
0.628412 0 0.147097
0.69192 0 0.14873
0.705409 0 0.135668
0.701167 0 0.0687114
0.698619 0 0.0327001
0.0169528 0.0332189 0.0845197
0.0281529 0.0327611 0.0738537
0.0776379 0.0413977 0.0785534
0.278218 0.0302281 0.0757916
0.552163 0 0.0601968
0.660044 0 0.0413214
0.694255 0 0.0330053
0.697429 0 0.0109712
0.693446 0 0.00077821
0 0.0928969 0.116075
0.000122072 0.074342 0.0903639
0.058854 0.0776226 0.087953
0.283909 0.0847944 0.0747997
0.54873 0.000885023 0.03122
0.651026 0 0.0167391
0.68864 0 0.00613413
0.695521 0 0.000793469
0.691356 0 4.57771e-05
0 0.282628 0.149615
0 0.228 0.117037
0 0.21355 0.109514
0.275746 0.273426 0.0562753
0.651576 0.295399 0.00463874
0.787121 0.243671 3.0518e-05
0.789197 0.159091 0
0.734829 0.0159915 0
0.696208 0.00047303 0
0 0.428336 0.127398
0 0.390784 0.0842603
0 0.376562 0.0746929
0.0657969 0.472877 0.00956741
0.692607 0.613062 0
0.921111 0.625147 0
0.965713 0.592523 0
0.955779 0.544823 0
0.914061 0.444373 0
0 0.46302 0.0720684
0 0.446433 0.0196078
0 0.440742 0.0130159
0 0.503365 0.000869764
0.589105 0.725231 0
0.946426 0.808194 0
1 0.801816 0
1 0.788815 0
1 0.767346 0
0 0.476844 0.0397498
0 0.463523 0.00289921
0 0.459617 0
0 0.501472 0
0.466529 0.720958 0
0.90547 0.844892 0
1 0.860716 0
1 0.856031 0
1 0.853284 0
0.00361639 0.521843 0.00932326
0 0.488289 9.15541e-05
0 0.50341 3.0518e-05
0.0103151 0.597192 0
0.546181 0.753796 0
0.892882 0.853147 0
1 0.876143 0
1 0.872267 0
1 0.871061 0
0.466529 0.731319 0
0.320119 0.685939 0
0.374289 0.701686 0
0.547967 0.757443 0
0.772839 0.823758 0
0.950561 0.870344 0
1 0.879057 0
1 0.876448 0
1 0.875242 0
0 0 0.250904
6.10361e-05 0 0.254978
0.116335 0 0.291554
0.442313 0 0.343435
0.653101 0 0.374899
0.718135 0 0.392386
0.7337 0 0.402213
0.732494 0 0.391745
0.730739 0 0.378897
0 0 0.222629
0.00125124 0.000762951 0.198627
0.0651865 0.00154116 0.213825
0.282368 0.000244144 0.247242
0.570413 0 0.278782
0.682322 0 0.293095
0.716747 0 0.300908
0.719936 0 0.287266
0.71664 0 0.254856
0 0.0231022 0.2607
0 0.0210727 0.217472
0.0312352 0.0345159 0.217136
0.256748 0.0222934 0.235142
0.539467 0 0.251957
0.665537 0 0.259556
0.708705 0 0.262913
0.71574 0 0.247318
0.712016 0 0.206882
0 0.294621 0.372885
0 0.237278 0.307561
0 0.218387 0.289555
0.21796 0.260716 0.296498
0.624216 0.244404 0.285573
0.752117 0.135439 0.258778
0.758938 0.0120089 0.234501
0.723964 0.000518807 0.202625
0.710491 0 0.14818
0 0.484718 0.419287
0 0.43917 0.350027
0 0.421408 0.327581
0.00442512 0.490257 0.324041
0.631785 0.595544 0.284352
0.879362 0.5888 0.223087
0.929458 0.546395 0.152087
0.925933 0.49543 0.102571
0.901747 0.412573 0.038941
0 0.535363 0.433722
0 0.511284 0.355383
0 0.501686 0.327077
0 0.540459 0.314992
0.485878 0.726238 0.237583
0.900587 0.798428 0.134417
0.995346 0.800763 0.0600443
0.999939 0.790478 0.0084535
1 0.778943 0
0 0.554696 0.447166
0 0.530419 0.358923
0 0.520592 0.323049
0 0.535378 0.300389
0.318959 0.720165 0.219379
0.856443 0.836027 0.0931258
0.996811 0.860807 0.0321355
1 0.860014 0.0009308
1 0.859434 0
4.57771e-05 0.585931 0.42771
0 0.541588 0.335515
0 0.543252 0.296834
0.000534066 0.60415 0.259159
0.432944 0.740764 0.140444
0.846952 0.839643 0.0596475
0.995651 0.872206 0.0047303
1 0.872633 0
1 0.871809 0
0.276188 0.73315 0.29839
0.106172 0.68162 0.179065
0.212757 0.688487 0.123491
0.479103 0.740948 0.0464485
0.732418 0.811017 0.00151064
0.93019 0.863493 0
0.999908 0.878325 0
1 0.87631 0
1 0.874983 0
0 0 0.380377
0 0 0.380941
0.0577554 0 0.409857
0.438651 0 0.479011
0.668849 0 0.516136
0.739132 0 0.536812
0.755993 0 0.549004
0.756436 0 0.550988
0.756374 0 0.550591
0 0 0.35761
0 0 0.338384
0.00753796 0 0.350347
0.278264 0 0.400992
0.584833 0 0.445472
0.704021 0 0.467735
0.740139 0 0.482078
0.745113 0 0.484733
0.744701 0 0.481071
0 0 0.370275
0 0 0.339117
0.000167849 0 0.339864
0.237934 0 0.382177
0.546777 0 0.422644
0.68716 0 0.442924
0.731929 0 0.454765
0.741543 0 0.458091
0.740642 0 0.451423
0 0.23888 0.519951
0 0.16994 0.455863
0 0.142992 0.435966
0.167788 0.191287 0.466133
0.583825 0.131594 0.481834
0.729015 0.0103914 0.470405
0.743053 0.000320439 0.449271
0.741741 0 0.441611
0.737682 0 0.429374
0 0.498604 0.613519
0 0.452888 0.558068
0 0.43444 0.53959
1.5259e-05 0.480262 0.556649
0.575326 0.582147 0.573571
0.853758 0.560067 0.566186
0.902586 0.501137 0.550393
0.893675 0.432837 0.529625
0.858351 0.312428 0.48513
0 0.569635 0.639963
0 0.553002 0.588785
0 0.546044 0.569665
0 0.568795 0.571008
0.338506 0.753582 0.586847
0.859403 0.825986 0.583535
0.972396 0.82211 0.5617
0.99115 0.806409 0.534249
0.990097 0.780514 0.492485
0 0.58996 0.659556
0 0.577066 0.608713
0 0.571801 0.58677
0 0.56907 0.572778
0.12694 0.756069 0.593652
0.794553 0.873304 0.588006
0.970413 0.896635 0.567452
0.99968 0.892699 0.531594
1 0.881407 0.466728
0 0.62356 0.677119
0 0.596368 0.623301
0 0.594858 0.601251
0 0.63711 0.601053
0.197375 0.780713 0.599313
0.769696 0.877546 0.591852
0.955703 0.905806 0.568612
0.998962 0.906859 0.536797
1 0.896574 0.475486
0.0116884 0.768505 0.697902
0 0.729732 0.644816
1.5259e-05 0.732982 0.617563
0.187518 0.783505 0.593683
0.609598 0.846738 0.584375
0.845243 0.88864 0.565988
0.962371 0.90457 0.539727
0.998398 0.904219 0.500771
1 0.893965 0.427756
0 0 0.448127
0 0 0.447883
0.00642405 0 0.462379
0.409506 0 0.542031
0.678309 0 0.585382
0.754208 0 0.603876
0.771572 0 0.613245
0.772595 0 0.615335
0.772976 0 0.616449
0 0 0.43566
0 0 0.425513
0 0 0.429541
0.243641 0 0.487373
0.58732 0 0.54316
0.718395 0 0.566155
0.756909 0 0.580285
0.763577 0 0.585931
0.763851 0 0.586954
0 0 0.436973
0 0 0.423117
0 0 0.422538
0.206973 0 0.472862
0.548974 0 0.527443
0.702098 0 0.551308
0.749371 0 0.564981
0.760204 0 0.571298
0.760281 0 0.571527
0 0.0548867 0.540948
0 0.00688182 0.497032
0 0.00341802 0.482139
0.136995 0.035111 0.512474
0.535195 0.00314336 0.55375
0.694545 1.5259e-05 0.550698
0.743633 0 0.555993
0.757961 0 0.561807
0.758373 0 0.561349
0 0.472145 0.6963
0 0.418235 0.659922
0 0.395483 0.645899
0 0.412055 0.660029
0.510903 0.506569 0.702571
0.819593 0.466957 0.707073
0.869764 0.385107 0.690227
0.855436 0.275456 0.666331
0.813062 0.085359 0.619318
0 0.577066 0.731594
0 0.563241 0.707759
0 0.556039 0.697993
0 0.556649 0.695476
0.192782 0.741131 0.742565
0.826429 0.817594 0.764691
0.955917 0.805951 0.761486
0.975082 0.783902 0.755673
0.971771 0.752163 0.745037
0 0.599603 0.746197
0 0.590967 0.722881
0 0.587655 0.712596
0 0.585641 0.706096
0.00355535 0.75317 0.751171
0.74464 0.888136 0.773816
0.952758 0.916289 0.774517
0.994263 0.91754 0.765484
0.999817 0.913542 0.750744
0 0.623087 0.759167
0 0.609583 0.737057
0 0.606958 0.726772
0 0.623819 0.728649
0.0242313 0.779355 0.76083
0.710079 0.89427 0.780774
0.934035 0.930526 0.782254
0.990143 0.937163 0.775708
0.999954 0.935943 0.7617
0 0.742306 0.798718
0 0.716335 0.777295
0 0.727138 0.769833
0.0039826 0.784878 0.767666
0.498405 0.859068 0.775677
0.798245 0.911742 0.784131
0.939605 0.933776 0.781674
0.986999 0.939635 0.774701
0.999557 0.939452 0.763607
0 0 0.480171
0 0 0.479881
0.000274662 0 0.483787
0.352499 0 0.564797
0.686534 0 0.619013
0.768826 0 0.636622
0.786526 0 0.646418
0.787854 0 0.648447
0.788296 0 0.649439
0 0 0.472526
0 0 0.467124
0 0 0.467475
0.175479 0 0.516304
0.579141 0 0.585977
0.731289 0 0.611124
0.77116 0 0.623545
0.778088 0 0.628183
0.778759 0 0.629572
0 0 0.472877
0 0 0.465675
0 0 0.464836
0.148028 0 0.507607
0.542916 0 0.575555
0.714534 0 0.602518
0.764111 0 0.615442
0.774517 0 0.6206
0.775036 0 0.621515
0 0.0010071 0.513558
0 0 0.474937
0 0 0.465751
0.0773022 0 0.494804
0.493126 0 0.566323
0.696132 0 0.596567
0.757382 0 0.610025
0.772488 0 0.61651
0.773297 0 0.617288
0 0.413977 0.704021
0 0.338811 0.672938
0 0.305257 0.658015
0 0.29192 0.659739
0.448753 0.375158 0.718563
0.770459 0.296712 0.725414
0.823941 0.176028 0.703365
0.808743 0.0257267 0.668391
0.799802 0.00698863 0.650752
0 0.572732 0.756939
0 0.553292 0.745708
0 0.543847 0.740948
0 0.535393 0.73724
0.118563 0.694652 0.792523
0.794095 0.773724 0.82707
0.939712 0.75079 0.828214
0.959243 0.718608 0.823301
0.952651 0.671321 0.814252
0 0.598276 0.765255
0 0.595254 0.761028
0 0.593057 0.758297
0 0.590417 0.755611
0 0.723125 0.802701
0.692927 0.882078 0.838941
0.940291 0.914351 0.849958
0.988266 0.914717 0.849683
0.996017 0.910475 0.847654
0 0.618647 0.778164
0 0.610224 0.769329
0 0.607004 0.765072
0 0.609583 0.764858
7.62951e-05 0.751842 0.811322
0.643381 0.88983 0.841123
0.91751 0.935363 0.854673
0.983871 0.943694 0.855314
0.998032 0.944656 0.852995
0 0.710521 0.813916
0 0.665766 0.795087
0 0.701595 0.805768
0 0.754742 0.815564
0.341009 0.845579 0.827192
0.752132 0.912093 0.849393
0.923095 0.939971 0.85658
0.979995 0.947997 0.857237
0.996353 0.949874 0.855756
0 0 0.503105
0 0 0.5028
0 0 0.503929
0.247791 0 0.569833
0.684153 0 0.639872
0.780636 0 0.658305
0.797116 0 0.667231
0.798367 0 0.668711
0.798733 0 0.669291
0 0 0.497398
0 0 0.492821
0 0 0.492775
0.0432593 0 0.518639
0.55903 0 0.610346
0.742275 0 0.638392
0.784466 0 0.651514
0.791501 0 0.656138
0.792096 0 0.657252
0 0 0.497383
0 0 0.491325
0 0 0.490242
0.0422675 0 0.513619
0.517555 0 0.599451
0.723766 0 0.630777
0.777188 0 0.644038
0.788647 0 0.650599
0.789303 0 0.651682
0 0 0.501472
0 0 0.491051
0 0 0.489342
0.0294499 0 0.508156
0.487648 0 0.59263
0.710353 0 0.626261
0.771954 0 0.639582
0.786877 0 0.647272
0.787747 0 0.648249
0 0.317281 0.675547
0 0.200687 0.627787
0 0.152758 0.608698
0 0.112871 0.594659
0.392691 0.184054 0.666239
0.715023 0.0718853 0.679881
0.78616 0.0078584 0.668406
0.798154 0.0024567 0.664393
0.78909 0 0.649226
0 0.561715 0.759106
0 0.533364 0.749538
0 0.518105 0.74435
0 0.504799 0.739879
0.0533455 0.626001 0.789822
0.763165 0.704875 0.830701
0.919707 0.667201 0.830976
0.937835 0.620706 0.822904
0.926665 0.556085 0.809064
0 0.598398 0.771344
0 0.592599 0.767468
0 0.590127 0.766598
0 0.587762 0.765774
0 0.685649 0.806577
0.638148 0.865766 0.850889
0.930175 0.902632 0.86714
0.984222 0.900618 0.868406
0.992569 0.894392 0.867582
0 0.618143 0.782132
0 0.61091 0.777386
0 0.607675 0.77499
0 0.606027 0.773434
0 0.712291 0.814939
0.564492 0.877272 0.851194
0.902937 0.933089 0.871336
0.980102 0.942748 0.874235
0.996246 0.943694 0.874067
0 0.695933 0.813977
0 0.628229 0.785733
0 0.661219 0.800214
0 0.712459 0.816571
0.139086 0.822126 0.833356
0.701823 0.904601 0.861479
0.908522 0.939239 0.873182
0.975067 0.948745 0.875792
0.994324 0.951095 0.875898
0 0 0.509361
0 0 0.509422
0 0 0.509926
0.191623 0 0.564782
0.681468 0 0.644663
0.783017 0 0.662547
0.799329 0 0.670848
0.800244 0 0.671763
0.80029 0 0.671824
0 0 0.507057
0 0 0.504677
0 0 0.504616
0.0137331 0 0.515282
0.537118 0 0.618296
0.746151 0 0.648737
0.789975 0 0.661341
0.796429 0 0.665507
0.796658 0 0.665904
0 0 0.507057
0 0 0.5037
0 0 0.50309
0 0 0.513069
0.486778 0 0.608087
0.726375 0 0.64329
0.784009 0 0.656382
0.79469 0 0.662486
0.795163 0 0.663096
0 0 0.507225
0 0 0.503532
0 0 0.502556
0 0 0.516915
0.474968 0 0.605173
0.717159 0 0.64062
0.780179 0 0.653635
0.793362 0 0.660395
0.794079 0 0.661067
0 0.222049 0.636713
0 0.0594949 0.574289
0 0.016022 0.556527
0 0.00624094 0.548745
0.367407 0.084184 0.626368
0.697902 0.00756847 0.66067
0.779934 0.000122072 0.662531
0.792676 0 0.660426
0.793256 0 0.659419
0 0.55555 0.758297
0 0.515633 0.745617
0 0.494759 0.738857
0 0.47689 0.733013
0.0417029 0.572381 0.777737
0.743786 0.644282 0.821546
0.903456 0.594125 0.819883
0.918761 0.538933 0.808621
0.901396 0.454932 0.788159
0 0.598001 0.772045
0 0.591592 0.76939
0 0.587869 0.768368
0 0.584802 0.767742
0 0.659998 0.8009
0.603357 0.853635 0.851118
0.924804 0.892851 0.86978
0.981567 0.888075 0.87097
0.98999 0.880003 0.869932
0 0.617594 0.782376
0 0.61004 0.778103
0 0.606821 0.776242
0 0.604913 0.775143
0 0.686656 0.810468
0.498314 0.867597 0.850568
0.89424 0.930983 0.874418
0.97818 0.941176 0.87805
0.995422 0.942016 0.878019
0 0.687861 0.811902
0 0.628183 0.78674
0 0.632532 0.788266
0 0.694072 0.813306
0.0590219 0.804883 0.833539
0.66656 0.898497 0.862226
0.899626 0.938018 0.87628
0.972503 0.948455 0.879545
0.993408 0.950851 0.879927
