media_library/luts/baidu-pack/人像cold.cube
TITLE "Generated by Resolve"
LUT_3D_SIZE 5
0.00357061 0.00357061 0.00357061
0.218158 0.0133669 0.00416571
0.762905 0.0793011 0.0175937
0.95903 0.102632 0.0204318
0.957992 0.103182 0.0180514
0.115587 0.0713359 0.178973
0.0415045 0.0894789 0.00740063
0.645502 0.120821 0.0180056
0.958785 0.138064 0.0245518
0.958053 0.124544 0.0227817
0.393317 0.563684 0.515496
0.109773 0.619577 0.503655
0.489723 0.514488 0.0985428
0.956741 0.520485 0
0.956039 0.489387 0
0.582147 0.839597 0.765377
0.319142 0.913222 0.811017
0.0438849 1 0.624491
0.815503 0.880751 0.215518
0.942321 0.832227 0.221988
0.669718 0.798169 0.917861
0.418585 0.866361 0.981888
0.202686 0.966522 0.909941
0.448417 1 0.529686
0.804196 0.897215 0.20914
0.0324254 0.0612955 0.20293
0.161318 0.00399786 0.18854
0.766781 0.0326696 0.103243
0.964645 0.0691539 0.0966201
0.96347 0.0747387 0.0844892
0.0756085 0.0907759 0.102174
0.0708934 0.0803388 0.0885634
0.639918 0.10985 0.0449378
0.960067 0.129305 0.0392615
0.95906 0.113603 0.031342
0.434089 0.556909 0.299443
0.29781 0.56054 0.354177
0.510079 0.491432 0.101076
0.957595 0.501427 0
0.957671 0.47068 0
0.661036 0.839628 0.532815
0.494575 0.88101 0.612924
0.238788 0.95816 0.60383
0.84564 0.869749 0.221057
0.943175 0.821637 0.219211
0.763882 0.794186 0.680034
0.582147 0.839597 0.765393
0.425315 0.911528 0.807858
0.578149 0.981918 0.573404
0.840116 0.886152 0.212909
0.141253 0.319417 0.785824
0.205783 0.223713 0.748196
0.756741 0 0.777905
0.963989 0.00216678 0.74905
0.9635 0.00317388 0.725216
0.11809 0.353674 0.702541
0.160143 0.308598 0.666377
0.646357 0.0333562 0.680705
0.963043 0.0240635 0.636515
0.962798 0.0205386 0.60676
0.136202 0.570809 0.608286
0.0800488 0.558236 0.593408
0.513176 0.553124 0.578561
0.960952 0.522911 0.498039
0.961212 0.499504 0.464698
0.480217 0.872724 0.549676
0.423163 0.887144 0.543496
0.422309 0.910582 0.500496
0.87982 0.902327 0.508736
0.949706 0.855375 0.482673
0.672435 0.814878 0.528862
0.582208 0.839887 0.529534
0.562264 0.879789 0.595819
0.757336 0.958343 0.732204
0.879164 0.908034 0.414466
0.164111 0.365881 0.912947
0.227222 0.285817 0.897749
0.741436 0 0.964645
0.965072 0 0.963577
0.96466 0 0.963027
0.160723 0.434363 0.923812
0.198215 0.403159 0.913268
0.628229 0.0238041 0.964004
0.964355 0.00883497 0.96376
0.963973 0.00364691 0.963241
0.131563 0.683177 0.939422
0.116091 0.673381 0.951995
0.545357 0.671977 0.932494
0.960098 0.486641 0.964233
0.963104 0.457969 0.96376
0.186297 0.913954 0.922576
0.124208 0.923659 0.935531
0.406912 0.931456 0.949645
0.899245 0.932052 0.958144
0.962249 0.910491 0.952117
0.355962 0.857343 0.980133
0.294102 0.873213 0.997787
0.437507 0.890486 1
0.896147 0.923369 1
0.927153 0.970108 0.90219
0.165774 0.365255 0.914214
0.225925 0.290272 0.899046
0.73283 0 0.965545
0.966369 0 0.964187
0.965789 0 0.963409
0.162585 0.427527 0.923781
0.195163 0.396323 0.913939
0.616785 0.0187991 0.964813
0.965682 0.00582895 0.964416
0.965072 0.00163272 0.963577
0.113695 0.68188 0.957153
0.117433 0.667414 0.953185
0.536812 0.665385 0.933562
0.960174 0.474571 0.964996
0.964157 0.446448 0.964019
0.0722515 0.94638 0.931136
0.0281987 0.947555 0.950774
0.333959 0.94255 0.9664
0.891859 0.925414 0.963714
0.96379 0.901289 0.964477
0.248402 0.896788 0.909682
0.186313 0.913954 0.922576
0.325002 0.930953 0.936187
0.862318 0.947662 0.951217
0.964691 0.964691 0.964691
