media_library/luts/baidu-pack/人像red.cube
TITLE "Generated by Resolve"
LUT_3D_SIZE 9
0.0360723 0.0411688 0.0419623
0.0419318 0.0403754 0.0404822
0.0880446 0.0385901 0.0322118
0.202701 0.0434272 0.0355688
0.327611 0.0486458 0.0416724
0.360967 0.0475471 0.0431525
0.360998 0.0475471 0.0431525
0.360998 0.0475471 0.0431525
0.360998 0.0475471 0.0431525
0.0353857 0.0468452 0.0448615
0.0381933 0.0468147 0.0441596
0.0879225 0.044007 0.0342565
0.190478 0.0435645 0.0348211
0.31841 0.0484627 0.0414282
0.360922 0.0475776 0.0431525
0.360998 0.0475471 0.0431525
0.360998 0.0475471 0.0431525
0.360998 0.0475471 0.0431525
0.0315557 0.0947433 0.0631723
0.0317998 0.0931258 0.0622568
0.102998 0.12488 0.0669718
0.361303 0.124865 0.0491798
0.461006 0.0779736 0.0476844
0.437415 0.0602579 0.0467842
0.398718 0.0525521 0.0451362
0.373617 0.0488746 0.0438849
0.368719 0.0483558 0.043595
0.0366674 0.188525 0.0994583
0.0365454 0.187442 0.0991073
0.0430915 0.188663 0.0977493
0.347601 0.319814 0.113649
0.643717 0.272801 0.0837415
0.66952 0.150332 0.0604257
0.626673 0.11751 0.0565194
0.579431 0.0991684 0.0538643
0.56492 0.0942245 0.0530861
0.0638743 0.33901 0.156832
0.0641184 0.339483 0.157
0.060502 0.328527 0.154009
0.183093 0.395697 0.195636
0.672267 0.550698 0.225864
0.875242 0.501335 0.177554
0.865095 0.396674 0.115557
0.82594 0.327565 0.0937057
0.813458 0.306401 0.0876631
0.233402 0.532753 0.241062
0.238254 0.535515 0.242374
0.214969 0.52195 0.235843
0.233707 0.52575 0.234073
0.592447 0.67013 0.356329
0.919707 0.776547 0.457359
0.961181 0.749508 0.422019
0.956847 0.709911 0.36585
0.954635 0.695094 0.347524
0.529503 0.67657 0.305943
0.529503 0.67657 0.305943
0.529503 0.67657 0.305943
0.535744 0.679026 0.306767
0.690745 0.755306 0.392905
0.860807 0.825925 0.546609
0.963195 0.845533 0.604486
0.964034 0.845167 0.606348
0.964065 0.844251 0.604273
0.529503 0.67657 0.305943
0.529503 0.67657 0.305943
0.529503 0.67657 0.305943
0.529503 0.67657 0.305943
0.627573 0.720165 0.338277
0.788815 0.805798 0.501213
0.954665 0.845151 0.592172
0.963989 0.84686 0.61059
0.963989 0.84686 0.61059
0.529503 0.67657 0.305943
0.529503 0.67657 0.305943
0.529503 0.67657 0.305943
0.529503 0.67657 0.305943
0.60238 0.707927 0.325765
0.770291 0.797955 0.482246
0.948211 0.844358 0.58468
0.963989 0.84686 0.61059
0.963989 0.84686 0.61059
0.0330816 0.0382239 0.0439307
0.0415961 0.0385901 0.0468147
0.0909285 0.0371405 0.0417487
0.19968 0.0423133 0.0359045
0.323751 0.0480812 0.041413
0.360525 0.0474861 0.0431067
0.360983 0.0475471 0.0431525
0.360998 0.0475471 0.0431525
0.360998 0.0475471 0.0431525
0.0342412 0.0467842 0.0489204
0.0369268 0.0458381 0.0471809
0.0854047 0.0419318 0.0369726
0.187869 0.0429389 0.0349279
0.316411 0.0482338 0.0413062
0.360769 0.0475471 0.0431373
0.360998 0.0475471 0.0431525
0.360998 0.0475471 0.0431525
0.360998 0.0475471 0.0431525
0.0314641 0.0938888 0.065095
0.0316777 0.0922866 0.0637522
0.0999161 0.12224 0.0667124
0.355734 0.122667 0.0487678
0.456931 0.0771649 0.0474861
0.435401 0.0598764 0.0466926
0.397192 0.0522621 0.0450752
0.373129 0.0488289 0.0438544
0.368261 0.0482948 0.0435645
0.0364843 0.186877 0.0989242
0.0363622 0.185931 0.0985885
0.0422065 0.186725 0.0971695
0.344198 0.317342 0.112978
0.641825 0.271427 0.0831922
0.668315 0.149554 0.0603342
0.625513 0.116884 0.0564431
0.57879 0.0989395 0.0538338
0.564172 0.0939956 0.0530251
0.0632334 0.337606 0.156405
0.0636454 0.338415 0.15668
0.0602426 0.327642 0.15378
0.181537 0.394415 0.194965
0.670741 0.549783 0.225406
0.874754 0.500664 0.177172
0.864866 0.396262 0.115404
0.825879 0.327428 0.0936599
0.813413 0.30634 0.0876478
0.231846 0.531838 0.240604
0.237201 0.534905 0.242084
0.21413 0.521401 0.235554
0.233295 0.525475 0.233936
0.591821 0.669871 0.35613
0.919676 0.776608 0.457435
0.961212 0.749874 0.422644
0.956924 0.71043 0.366445
0.954742 0.695766 0.348348
0.529503 0.67657 0.305943
0.529503 0.67657 0.305943
0.529503 0.67657 0.305943
0.535805 0.679057 0.306783
0.691142 0.755505 0.393133
0.861067 0.826017 0.546731
0.963211 0.845594 0.604639
0.964034 0.845197 0.606439
0.96405 0.844404 0.604578
0.529503 0.67657 0.305943
0.529503 0.67657 0.305943
0.529503 0.67657 0.305943
0.529503 0.67657 0.305943
0.628061 0.720409 0.338537
0.789334 0.805982 0.501656
0.954849 0.845182 0.592386
0.963989 0.84686 0.61059
0.963989 0.84686 0.61059
0.529503 0.67657 0.305943
0.529503 0.67657 0.305943
0.529503 0.67657 0.305943
0.529503 0.67657 0.305943
0.60293 0.708202 0.326055
0.770779 0.798169 0.482765
0.948455 0.844404 0.584939
0.963989 0.84686 0.61059
0.963989 0.84686 0.61059
0.0290532 0.0309148 0.0592203
0.033814 0.0310369 0.066392
0.0950179 0.0348058 0.102434
0.185809 0.0379339 0.0957504
0.288045 0.0399786 0.0512398
0.302449 0.0400702 0.0383001
0.312825 0.041001 0.0389868
0.330007 0.0430457 0.0404974
0.336019 0.0438239 0.0410468
0.0291752 0.0342565 0.0639506
0.0301366 0.0334936 0.0629435
0.0892195 0.0356756 0.0945754
0.180621 0.0380713 0.0896773
0.284321 0.0400092 0.048661
0.306035 0.0403906 0.038529
0.316442 0.0413672 0.0392767
0.333806 0.043534 0.0408484
0.339422 0.0442664 0.0413672
0.0314336 0.0930343 0.13228
0.0313115 0.0915694 0.129549
0.0697185 0.0968795 0.119585
0.296971 0.0893568 0.0866255
0.426017 0.0583658 0.0514992
0.399268 0.05037 0.0443732
0.371008 0.0475319 0.0431983
0.360876 0.0469825 0.0429236
0.359213 0.0469825 0.0429084
0.0348363 0.200031 0.156161
0.0347753 0.199161 0.155306
0.0368811 0.192416 0.141482
0.31545 0.297414 0.132937
0.624674 0.255848 0.0849622
0.657801 0.139879 0.059617
0.616831 0.111772 0.0559396
0.570489 0.095964 0.0533761
0.55613 0.0915084 0.0526131
0.0606088 0.335683 0.165896
0.0607309 0.336568 0.166339
0.0582742 0.324712 0.159564
0.1682 0.384375 0.191684
0.656413 0.539803 0.221012
0.86746 0.490043 0.171511
0.858671 0.384283 0.110887
0.819303 0.316304 0.0905013
0.80679 0.295186 0.0845197
0.218051 0.523827 0.236851
0.223575 0.527062 0.238422
0.204868 0.514656 0.232197
0.220142 0.516258 0.229145
0.576288 0.661021 0.348486
0.915358 0.77145 0.448936
0.960815 0.744625 0.413657
0.95584 0.703151 0.357458
0.953658 0.688502 0.339391
0.529503 0.67657 0.305943
0.529503 0.67657 0.305943
0.529503 0.67657 0.305943
0.533471 0.678111 0.306416
0.684733 0.752239 0.388846
0.856992 0.82472 0.54464
0.963073 0.845182 0.603296
0.96405 0.844923 0.605768
0.96408 0.843641 0.602914
0.529503 0.67657 0.305943
0.529503 0.67657 0.305943
0.529503 0.67657 0.305943
0.529503 0.67657 0.305943
0.624063 0.718441 0.336477
0.786252 0.804746 0.498695
0.953857 0.84506 0.591287
0.963989 0.84686 0.61059
0.963989 0.84686 0.61059
0.529503 0.67657 0.305943
0.529503 0.67657 0.305943
0.529503 0.67657 0.305943
0.529503 0.67657 0.305943
0.59884 0.706249 0.324102
0.767865 0.796872 0.479576
0.946975 0.844144 0.583795
0.963989 0.84686 0.61059
0.963989 0.84686 0.61059
0.0284123 0.0285344 0.0702068
0.0292515 0.0287938 0.0757305
0.054902 0.0319371 0.118914
0.120165 0.033463 0.135897
0.237369 0.038819 0.140703
0.287907 0.0410468 0.0877546
0.294652 0.0409247 0.0730297
0.298192 0.0406043 0.0583047
0.299062 0.0404974 0.0537881
0.0286259 0.0290684 0.0750439
0.0287327 0.0291142 0.075639
0.0523537 0.0318761 0.117342
0.11693 0.0335088 0.133455
0.235584 0.0387427 0.139101
0.289876 0.0409857 0.0834974
0.295888 0.0408789 0.0694133
0.29868 0.0405432 0.055787
0.299321 0.0404364 0.0518807
0.0322881 0.0526741 0.149615
0.032105 0.0515908 0.146212
0.0398718 0.0571145 0.159335
0.209934 0.0472725 0.190784
0.329931 0.0435798 0.160906
0.33402 0.0420996 0.0726177
0.311635 0.0408942 0.0537423
0.301411 0.0402075 0.0454261
0.298665 0.0400244 0.0431373
0.0399023 0.224765 0.31281
0.0398413 0.223835 0.311803
0.0393225 0.214176 0.296147
0.204532 0.257771 0.285451
0.54638 0.204959 0.212116
0.573877 0.0800793 0.082536
0.538247 0.0608682 0.056733
0.503609 0.0558328 0.0518044
0.492226 0.0544747 0.0504616
0.0518807 0.390417 0.336263
0.0520333 0.391821 0.337682
0.0500496 0.377523 0.32372
0.10454 0.401846 0.295155
0.595895 0.52398 0.282856
0.842252 0.459525 0.210193
0.827283 0.332677 0.111086
0.791852 0.274784 0.0865949
0.780652 0.25742 0.0807202
0.194247 0.551522 0.33138
0.19791 0.555383 0.334569
0.181949 0.540734 0.322927
0.181216 0.52845 0.300496
0.529793 0.652232 0.357412
0.909361 0.767437 0.443366
0.960281 0.736919 0.398779
0.95407 0.690944 0.342809
0.951843 0.676143 0.324742
0.552819 0.690303 0.324727
0.55436 0.691203 0.325963
0.550942 0.689189 0.323201
0.540719 0.683772 0.317113
0.680156 0.749386 0.38349
0.851301 0.822385 0.539742
0.962829 0.844434 0.600748
0.964065 0.843946 0.603586
0.964111 0.842084 0.599496
0.530587 0.677211 0.306828
0.53077 0.677333 0.306981
0.530404 0.677104 0.306676
0.529961 0.676844 0.30631
0.6177 0.715373 0.333364
0.781491 0.802762 0.493889
0.952163 0.844846 0.58941
0.963989 0.84686 0.61059
0.963989 0.84686 0.61059
0.529839 0.676768 0.306218
0.529915 0.676814 0.306279
0.529778 0.676738 0.306172
0.529549 0.6766 0.305989
0.593317 0.703639 0.32166
0.763272 0.794812 0.47451
0.944045 0.843626 0.581949
0.963989 0.84686 0.61059
0.963989 0.84686 0.61059
0.0295567 0.0296025 0.0900587
0.0296025 0.029633 0.0911421
0.0355688 0.03093 0.127871
0.0868849 0.0328679 0.161349
0.155398 0.0338445 0.175051
0.255528 0.0395514 0.155795
0.257786 0.0397803 0.144366
0.259113 0.0399329 0.133547
0.259724 0.0399786 0.130419
0.0295109 0.0295567 0.089601
0.0294804 0.0295262 0.0890516
0.0333257 0.0306249 0.120623
0.0822003 0.0326848 0.156451
0.153079 0.0337835 0.172122
0.254322 0.0395209 0.152773
0.257908 0.0398108 0.141939
0.259419 0.0399481 0.132052
0.259983 0.0399939 0.129107
0.0318303 0.034287 0.140551
0.0316472 0.0336767 0.136889
0.0332189 0.0348058 0.164019
0.113283 0.0380255 0.226795
0.206256 0.036408 0.201694
0.273457 0.0404212 0.15227
0.268864 0.0403601 0.132235
0.264393 0.0402228 0.121096
0.265324 0.0402686 0.118242
0.0450141 0.199893 0.404685
0.0449836 0.199298 0.403983
0.0439918 0.183505 0.384726
0.0711681 0.205066 0.393668
0.426307 0.170123 0.388525
0.52076 0.0628519 0.256809
0.477394 0.0499123 0.15903
0.429496 0.0469062 0.128328
0.41532 0.0461738 0.12079
0.0604562 0.448081 0.548257
0.0607156 0.44976 0.550057
0.0587625 0.436545 0.536324
0.0771344 0.452018 0.529686
0.443214 0.507393 0.509804
0.7458 0.397101 0.398962
0.757015 0.264378 0.244572
0.711742 0.186557 0.167666
0.696834 0.167147 0.14902
0.183169 0.618585 0.527077
0.187915 0.623117 0.529809
0.168383 0.607492 0.520989
0.146426 0.588251 0.50724
0.393408 0.653956 0.471305
0.868986 0.763607 0.516228
0.956359 0.743389 0.469703
0.948638 0.687907 0.408194
0.946303 0.670375 0.388342
0.628809 0.753521 0.465248
0.627207 0.753567 0.467567
0.629145 0.752972 0.462684
0.621027 0.747509 0.451469
0.665415 0.762249 0.452995
0.851255 0.822721 0.529198
0.966125 0.831266 0.535897
0.966476 0.831189 0.539574
0.966384 0.830839 0.540581
0.638209 0.742321 0.407401
0.639597 0.743526 0.410315
0.638071 0.742061 0.406516
0.632639 0.738094 0.398184
0.678981 0.753185 0.396689
0.787167 0.801984 0.478523
0.957092 0.83743 0.553094
0.964752 0.842588 0.589822
0.96463 0.843305 0.593194
0.627039 0.734493 0.391653
0.629801 0.736171 0.394461
0.62652 0.734081 0.390723
0.61883 0.72929 0.382269
0.656352 0.740978 0.378302
0.768734 0.794568 0.461555
0.946731 0.838895 0.558175
0.964416 0.844511 0.599008
0.964309 0.84509 0.601785
0.0296635 0.0296941 0.0921645
0.0297093 0.0297398 0.0932021
0.0333867 0.0310369 0.127733
0.0783398 0.0337987 0.172549
0.122728 0.0335088 0.188876
0.241199 0.0380102 0.205447
0.244709 0.0382239 0.205127
0.245945 0.0383459 0.202945
0.246342 0.0383917 0.202121
0.0297246 0.0297551 0.0932631
0.0297246 0.0297551 0.0932937
0.0322728 0.0307927 0.120516
0.0724651 0.0336614 0.169512
0.118135 0.0335699 0.187243
0.239322 0.0379187 0.205371
0.244938 0.0382544 0.204715
0.246098 0.0383459 0.202609
0.246555 0.0383917 0.201541
0.0318914 0.0323491 0.135775
0.0317998 0.0321965 0.13402
0.032517 0.0328069 0.149386
0.071519 0.0361791 0.219211
0.140322 0.035523 0.215595
0.238117 0.0377203 0.214282
0.252094 0.0386206 0.205356
0.249012 0.0386358 0.196124
0.249729 0.0387274 0.19408
0.0451362 0.168582 0.410437
0.0451209 0.168063 0.409842
0.0442817 0.150118 0.390829
0.0474403 0.152819 0.432029
0.276356 0.131975 0.447349
0.413199 0.0502632 0.394141
0.419699 0.0460822 0.329717
0.384329 0.0446632 0.267414
0.372015 0.0442969 0.250919
0.059617 0.421866 0.625711
0.0598001 0.423514 0.627039
0.0585184 0.410712 0.616922
0.0586709 0.403708 0.613901
0.213321 0.473091 0.636347
0.596002 0.437415 0.629877
0.69163 0.350622 0.603693
0.677256 0.219547 0.521553
0.66772 0.187137 0.490776
0.163027 0.657832 0.72398
0.167971 0.66215 0.72665
0.151751 0.648371 0.718593
0.127733 0.628626 0.708995
0.277104 0.681575 0.715908
0.69427 0.717464 0.71252
0.865553 0.699245 0.687724
0.866056 0.665949 0.655253
0.863188 0.648249 0.639399
0.335592 0.743114 0.70399
0.332006 0.743236 0.708034
0.338354 0.742962 0.700557
0.352743 0.742443 0.684428
0.368032 0.75024 0.699321
0.679973 0.80618 0.699336
0.93228 0.846265 0.695796
0.948379 0.843473 0.680873
0.950988 0.841978 0.668421
0.45214 0.742748 0.600565
0.445136 0.742657 0.60592
0.454063 0.742763 0.598978
0.473594 0.743145 0.58407
0.486656 0.743847 0.575463
0.613794 0.776699 0.595132
0.948547 0.849409 0.628687
0.961105 0.846204 0.614923
0.962173 0.844602 0.605203
0.490013 0.743404 0.571801
0.483116 0.743313 0.576974
0.492012 0.74345 0.57026
0.511223 0.743816 0.555886
0.528344 0.745205 0.543893
0.611124 0.7691 0.561517
0.94464 0.845319 0.602365
0.963958 0.841154 0.585687
0.964813 0.839612 0.576867
0.0296635 0.0296941 0.0921645
0.0296788 0.0297093 0.0925765
0.032517 0.0308385 0.122347
0.073518 0.0336767 0.170047
0.118074 0.0335851 0.187274
0.239338 0.0379034 0.205524
0.24448 0.0382086 0.20557
0.24448 0.0382086 0.20557
0.24448 0.0382086 0.20557
0.0296788 0.0297093 0.0925612
0.0296788 0.0297093 0.0924392
0.0316625 0.0306096 0.115633
0.0679179 0.0335241 0.166979
0.11458 0.0336156 0.185977
0.237095 0.0377813 0.205463
0.24448 0.0382086 0.20557
0.24448 0.0382086 0.20557
0.24448 0.0382086 0.20557
0.0314336 0.0316472 0.126375
0.0313573 0.0315404 0.125124
0.0318761 0.0319066 0.135698
0.0633249 0.0352789 0.202289
0.128252 0.0350042 0.205905
0.224689 0.0370642 0.21146
0.246937 0.0383154 0.207202
0.244556 0.0382086 0.205615
0.244495 0.0382086 0.205585
0.044007 0.145495 0.384314
0.044007 0.145571 0.38439
0.0430762 0.126818 0.362875
0.0459449 0.128267 0.403845
0.247868 0.10869 0.43064
0.367391 0.0479744 0.379599
0.380743 0.0439918 0.331289
0.346761 0.0420081 0.288975
0.336202 0.041413 0.27657
0.0583658 0.405371 0.620401
0.0585336 0.407248 0.621683
0.0574502 0.393744 0.612665
0.0569467 0.380545 0.609812
0.151705 0.44239 0.637888
0.568017 0.451774 0.65153
0.629007 0.360601 0.628473
0.584451 0.246815 0.5832
0.570169 0.212482 0.568109
0.158801 0.651408 0.751278
0.163714 0.655436 0.752544
0.147936 0.642374 0.748409
0.12929 0.620356 0.741756
0.343648 0.708522 0.769299
0.75819 0.771252 0.797635
0.837491 0.774166 0.793469
0.833768 0.764645 0.7879
0.823636 0.75053 0.780835
0.287297 0.746944 0.779278
0.28748 0.747066 0.779324
0.287129 0.746838 0.779248
0.286442 0.74638 0.779095
0.359945 0.764706 0.787121
0.673686 0.816861 0.816861
0.838727 0.818662 0.810758
0.884138 0.809094 0.798199
0.883284 0.804059 0.793698
0.29041 0.747768 0.777768
0.290089 0.747753 0.778058
0.290425 0.747768 0.777752
0.291234 0.747799 0.776959
0.299489 0.749584 0.777264
0.592813 0.814862 0.812131
0.792279 0.837827 0.781155
0.919661 0.859007 0.789548
0.921218 0.859266 0.788998
0.291966 0.747829 0.776196
0.291676 0.747845 0.776684
0.291997 0.747814 0.776211
0.292821 0.747646 0.774136
0.296223 0.747951 0.772366
0.545037 0.806104 0.80621
0.787839 0.836942 0.777173
0.920714 0.859205 0.784863
0.923064 0.859571 0.785092
0.0296635 0.0296941 0.0921645
0.0296788 0.0297093 0.0923171
0.0318456 0.0306554 0.117021
0.0683757 0.0335546 0.167285
0.114305 0.0336156 0.185855
0.236515 0.0377661 0.205402
0.24448 0.0382086 0.20557
0.24448 0.0382086 0.20557
0.24448 0.0382086 0.20557
0.0296635 0.0296941 0.0922408
0.0296635 0.0296941 0.0922255
0.0310826 0.0304417 0.110796
0.0631876 0.0332952 0.164096
0.111681 0.0336614 0.184817
0.231388 0.0374762 0.205142
0.24448 0.0382086 0.20557
0.24448 0.0382086 0.20557
0.24448 0.0382086 0.20557
0.0309911 0.0310369 0.117601
0.0309453 0.0309911 0.11667
0.031281 0.031281 0.123293
0.0561837 0.0343786 0.187381
0.116884 0.0344549 0.19617
0.212116 0.0364691 0.207874
0.244831 0.0382239 0.205798
0.244495 0.0382086 0.20557
0.24448 0.0382086 0.20557
0.042771 0.122072 0.356176
0.0427863 0.122225 0.356588
0.0415961 0.106737 0.331914
0.0441138 0.104067 0.371283
0.226459 0.08748 0.40885
0.338415 0.0456703 0.357076
0.366079 0.0430762 0.311864
0.332601 0.0412299 0.272419
0.322194 0.0406958 0.260868
0.0569467 0.386664 0.607874
0.0570993 0.388968 0.609506
0.0561227 0.374502 0.599115
0.055436 0.360937 0.594217
0.117739 0.406882 0.618799
0.52784 0.412268 0.633661
0.610147 0.31017 0.610132
0.565026 0.200092 0.562676
0.550759 0.166003 0.547494
0.135637 0.630335 0.74432
0.139574 0.635355 0.746181
0.128481 0.620661 0.740673
0.113313 0.595834 0.731975
0.29839 0.688029 0.762005
0.735103 0.759197 0.79118
0.830533 0.765988 0.789242
0.821546 0.748592 0.780072
0.811643 0.734951 0.773297
0.286549 0.746471 0.779202
0.286763 0.746624 0.779232
0.286366 0.746365 0.779171
0.285069 0.745525 0.778943
0.344945 0.75993 0.785443
0.659098 0.81178 0.817334
0.833661 0.816175 0.821241
0.870756 0.812848 0.815366
0.868727 0.810193 0.813733
0.288396 0.747677 0.779507
0.288396 0.747677 0.779507
0.288396 0.747677 0.779507
0.288396 0.747677 0.779507
0.29575 0.74931 0.780102
0.588418 0.81442 0.816495
0.778607 0.841276 0.833814
0.898039 0.855131 0.845182
0.899962 0.855467 0.845533
0.288396 0.747677 0.779507
0.288396 0.747677 0.779507
0.288396 0.747677 0.779507
0.288396 0.747677 0.779507
0.290806 0.74815 0.77966
0.541588 0.805722 0.810864
0.766522 0.839796 0.832868
0.895552 0.85478 0.844724
0.899992 0.855482 0.84535
0.0296635 0.0296941 0.0921645
0.0296635 0.0296941 0.0922866
0.0317388 0.0306401 0.116335
0.0677043 0.0335241 0.166888
0.113878 0.0336156 0.185672
0.23566 0.0377203 0.205371
0.24448 0.0382086 0.20557
0.24448 0.0382086 0.20557
0.24448 0.0382086 0.20557
0.0296635 0.0296941 0.0922408
0.0296635 0.0296941 0.0922103
0.0310216 0.0304417 0.110201
0.062562 0.0332647 0.163714
0.111299 0.0336614 0.184649
0.230442 0.0374304 0.205081
0.24448 0.0382086 0.20557
0.24448 0.0382086 0.20557
0.24448 0.0382086 0.20557
0.0309453 0.0309911 0.116655
0.0309148 0.03093 0.115694
0.0312047 0.03122 0.12192
0.0553445 0.0342718 0.185626
0.115679 0.0344091 0.195148
0.210254 0.0363775 0.207385
0.244724 0.0382239 0.205722
0.24448 0.0382086 0.20557
0.24448 0.0382086 0.20557
0.0426032 0.119478 0.352651
0.0426337 0.119524 0.353124
0.0413977 0.104356 0.327901
0.0438697 0.101213 0.367269
0.223468 0.0855573 0.405844
0.334813 0.0453803 0.354284
0.364279 0.0429694 0.309682
0.33077 0.0411383 0.270314
0.320455 0.0406195 0.259098
0.0567941 0.384375 0.606256
0.0569314 0.386709 0.60798
0.0559548 0.372122 0.597375
0.0552682 0.358541 0.592325
0.114549 0.402823 0.616434
0.52282 0.407599 0.631495
0.607843 0.304082 0.607782
0.562585 0.194186 0.560082
0.548272 0.160281 0.544823
0.133822 0.627802 0.743343
0.136645 0.632853 0.745373
0.126802 0.618051 0.739635
0.111452 0.59292 0.730785
0.292927 0.685481 0.76112
0.732067 0.757641 0.790356
0.829541 0.764767 0.788571
0.819852 0.746258 0.778912
0.81001 0.732708 0.772168
0.286458 0.746426 0.779187
0.286671 0.746563 0.779232
0.28629 0.746303 0.779156
0.28484 0.745373 0.778912
0.343084 0.75935 0.785199
0.656947 0.8112 0.816999
0.832837 0.81561 0.820935
0.870375 0.812345 0.815061
0.868437 0.809827 0.813519
0.288396 0.747677 0.779507
0.288396 0.747677 0.779507
0.288396 0.747677 0.779507
0.288396 0.747677 0.779507
0.29543 0.749233 0.780072
0.58613 0.814008 0.816236
0.777951 0.841199 0.833768
0.897963 0.855116 0.845167
0.899962 0.855467 0.845548
0.288396 0.747677 0.779507
0.288396 0.747677 0.779507
0.288396 0.747677 0.779507
0.288396 0.747677 0.779507
0.290562 0.748089 0.779644
0.538857 0.805203 0.810529
0.765789 0.839704 0.832807
0.895201 0.854734 0.844739
0.899962 0.855467 0.845548
