media_library/luts/baidu-pack/人像cold.cube
TITLE "Generated by Resolve"
LUT_3D_SIZE 9
0.00357061 0.00357061 0.00357061
0.00408942 0.00062562 0
0.218158 0.0133669 0.00416571
0.515328 0.0461891 0.0136263
0.762905 0.0793011 0.0175937
0.959548 0.102358 0.021622
0.95903 0.102632 0.0204318
0.958511 0.102907 0.0192416
0.957992 0.103182 0.0180514
0.0445716 0 0.0770123
0 0.00581369 0
0.147951 0.00706493 0.00332647
0.453849 0.0374609 0.0138094
0.706569 0.0722972 0.018265
0.947005 0.102022 0.0243534
0.959365 0.102235 0.0234531
0.958984 0.102434 0.0226291
0.957137 0.103166 0.0226291
0.115587 0.0713359 0.178973
0 0.100145 0.173709
0.0415045 0.0894789 0.00740063
0.393072 0.101793 0.010132
0.645502 0.120821 0.0180056
0.910613 0.143893 0.0256046
0.958785 0.138064 0.0245518
0.958419 0.129809 0.0236515
0.958053 0.124544 0.0227817
0.255604 0.319326 0.348363
0.121126 0.336675 0.370703
0 0.371679 0.267536
0.24683 0.288823 0.0480964
0.597604 0.288334 0.00326543
0.845655 0.287846 0.0141604
0.957931 0.286671 0.0178378
0.957534 0.276356 0.0177615
0.957153 0.269169 0.01738
0.393317 0.563684 0.515496
0.262852 0.583032 0.542901
0.109773 0.619577 0.503655
0.0449836 0.650492 0.331731
0.489723 0.514488 0.0985428
0.797208 0.535271 0.0349126
0.956741 0.520485 0
0.956466 0.502144 0
0.956039 0.489387 0
0.506569 0.76466 0.658488
0.378485 0.781582 0.689952
0.22385 0.81326 0.676371
0.150668 0.854261 0.588754
0.276234 0.853422 0.266331
0.668559 0.722637 0.16083
0.941482 0.709895 0.12192
0.949264 0.701823 0.112184
0.949218 0.697017 0.103029
0.582147 0.839597 0.765377
0.459998 0.871992 0.804105
0.319142 0.913222 0.811017
0.223407 0.966278 0.759014
0.0438849 1 0.624491
0.474464 1 0.242969
0.815503 0.880751 0.215518
0.931579 0.842695 0.218891
0.942321 0.832227 0.221988
0.626154 0.818814 0.84184
0.504234 0.85098 0.881941
0.369833 0.889311 0.898085
0.254154 0.939223 0.869017
0.123613 0.994873 0.78851
0.326116 1 0.433433
0.590326 0.971633 0.311757
0.822156 0.891676 0.211032
0.921279 0.861799 0.215198
0.669718 0.798169 0.917861
0.548486 0.830045 0.959045
0.418585 0.866361 0.981888
0.294163 0.913039 0.968627
0.202686 0.966522 0.909941
0.302205 1 0.659144
0.448417 1 0.529686
0.617319 0.945098 0.285054
0.804196 0.897215 0.20914
0.000823987 0 0.000640879
0.00314336 0 0
0.211017 0.0122225 0.00607309
0.509483 0.0443122 0.0165408
0.757305 0.0776684 0.0216831
0.962005 0.101091 0.0269017
0.961929 0.101137 0.0267796
0.961837 0.101167 0.0266728
0.961761 0.101213 0.026566
0.0310521 0 0
3.0518e-05 3.0518e-05 3.0518e-05
0.140078 0.00631724 0.00259403
0.446494 0.0361486 0.0127871
0.700084 0.0712444 0.0170596
0.944656 0.102068 0.0229038
0.959548 0.102358 0.021622
0.95903 0.102632 0.0204318
0.958511 0.102907 0.0192416
0.13727 0.0687114 0.0665141
0.0660258 0.0720073 0.0972305
0.0542 0.0784009 0.00865187
0.385946 0.0965133 0.00994888
0.639521 0.115328 0.0179599
0.904051 0.138674 0.0252995
0.95964 0.133684 0.0244297
0.959289 0.125505 0.0235599
0.958938 0.120119 0.0226902
0.291676 0.310369 0.228824
0.201419 0.312047 0.262058
0.08336 0.334874 0.251789
0.254368 0.275853 0.0476997
0.590936 0.280324 0.00343328
0.838315 0.281285 0.0143893
0.958709 0.281254 0.018204
0.958358 0.270909 0.0180362
0.957992 0.263966 0.0178683
0.43801 0.554864 0.394278
0.341955 0.563027 0.431937
0.215228 0.585016 0.450126
0.114824 0.620905 0.350347
0.500694 0.503395 0.0989242
0.791531 0.527932 0.0334936
0.957229 0.51136 0
0.957244 0.493095 0
0.956847 0.480598 0
0.556023 0.754177 0.536049
0.455238 0.762142 0.575006
0.325551 0.783169 0.603067
0.251545 0.818967 0.561669
0.307195 0.831693 0.29482
0.678935 0.710506 0.160143
0.944976 0.705013 0.118624
0.950164 0.698421 0.106783
0.950423 0.693217 0.0970169
0.637171 0.835447 0.644373
0.538369 0.860304 0.689158
0.415457 0.893156 0.725612
0.330877 0.937057 0.714305
0.133013 0.989151 0.627024
0.494011 1 0.260884
0.830625 0.875273 0.218128
0.939544 0.836118 0.221439
0.942779 0.827207 0.220676
0.683238 0.814099 0.720272
0.582147 0.839597 0.765393
0.459983 0.871992 0.804105
0.359686 0.912963 0.80972
0.238453 0.965866 0.759075
0.394751 1 0.458259
0.608728 0.96939 0.331563
0.840116 0.886152 0.212909
0.931548 0.858351 0.218952
0.72871 0.792905 0.796323
0.626169 0.818814 0.841856
0.504219 0.850996 0.881956
0.39556 0.889128 0.89778
0.314916 0.937881 0.86746
0.393439 0.986267 0.657908
0.505577 1 0.555611
0.635752 0.938247 0.298665
0.822156 0.891676 0.211032
0.0324254 0.0612955 0.20293
0.0296941 0.0555734 0.188373
0.161318 0.00399786 0.18854
0.509224 0.0187533 0.117403
0.766781 0.0326696 0.103243
0.964752 0.0666972 0.102464
0.964645 0.0691539 0.0966201
0.964553 0.072221 0.0907454
0.96347 0.0747387 0.0844892
0.0234226 0.0415961 0.156085
0.0196536 0.0371405 0.142184
0.102388 0.0125734 0.135363
0.435569 0.0138399 0.0827039
0.708873 0.035172 0.0808423
0.944747 0.0769665 0.0788128
0.963272 0.0794537 0.0724346
0.963211 0.0818952 0.0661173
0.962844 0.0843977 0.0611887
0.0756085 0.0907759 0.102174
0.0435492 0.0860304 0.0954604
0.0708934 0.0803388 0.0885634
0.369314 0.0845655 0.0531014
0.639918 0.10985 0.0449378
0.897337 0.134813 0.0434119
0.960067 0.129305 0.0392615
0.959564 0.119127 0.0343786
0.95906 0.113603 0.031342
0.256275 0.31548 0.151583
0.215 0.305119 0.160998
0.16846 0.302937 0.186114
0.261189 0.269978 0.0677806
0.58233 0.271473 0.0191348
0.830228 0.275349 0.0220188
0.959594 0.276707 0.0242161
0.959228 0.265705 0.0214847
0.958862 0.25835 0.0194095
0.434089 0.556909 0.299443
0.377813 0.555077 0.320165
0.29781 0.56054 0.354177
0.21825 0.584497 0.340337
0.510079 0.491432 0.101076
0.784436 0.519295 0.0322881
0.957595 0.501427 0
0.958053 0.483223 0
0.957671 0.47068 0
0.568093 0.75256 0.428565
0.500084 0.753231 0.454643
0.405066 0.7626 0.492638
0.35671 0.78378 0.50959
0.360769 0.802594 0.319219
0.690745 0.699565 0.159731
0.942397 0.70071 0.113832
0.951385 0.694331 0.100252
0.95169 0.689143 0.0905318
0.661036 0.839628 0.532815
0.590173 0.857038 0.568978
0.494575 0.88101 0.612924
0.431235 0.91136 0.643183
0.238788 0.95816 0.60383
0.527474 1 0.28191
0.84564 0.869749 0.221057
0.943877 0.829374 0.221958
0.943175 0.821637 0.219211
0.713466 0.816663 0.605936
0.637186 0.835447 0.644373
0.538369 0.860304 0.689158
0.452873 0.892851 0.724956
0.357397 0.937377 0.714199
0.479057 0.988525 0.467353
0.634043 0.965087 0.356603
0.858076 0.880613 0.214801
0.939651 0.855634 0.222095
0.763882 0.794186 0.680034
0.683238 0.814099 0.720272
0.582147 0.839597 0.765393
0.482292 0.871839 0.803861
0.425315 0.911528 0.807858
0.491035 0.956451 0.639185
0.578149 0.981918 0.573404
0.656291 0.930297 0.316793
0.840116 0.886152 0.212909
0.0932326 0.197589 0.515663
0.0899825 0.191745 0.500099
0.15111 0.0930953 0.493111
0.500343 0 0.510735
0.763912 0.0135042 0.470756
0.964019 0.0269627 0.390906
0.964736 0.0280003 0.367636
0.965072 0.0290532 0.343923
0.96495 0.0298009 0.328389
0.0831617 0.17377 0.462486
0.0797284 0.167422 0.445808
0.129747 0.108507 0.434287
0.426368 0 0.451865
0.709758 0.0153811 0.404211
0.942641 0.0305791 0.301991
0.964858 0.0313725 0.279103
0.964721 0.0317998 0.252567
0.96463 0.0321508 0.23476
0.0799268 0.226459 0.411139
0.0657664 0.213107 0.400244
0.10811 0.182498 0.377005
0.342977 0.0514687 0.388632
0.653971 0.0463111 0.327169
0.898222 0.0500343 0.220691
0.964523 0.0454108 0.1879
0.964416 0.0401923 0.168444
0.96434 0.038529 0.157794
0.113298 0.328008 0.355703
0.0827497 0.318364 0.345296
0.0729992 0.308843 0.333867
0.255238 0.304036 0.32723
0.58204 0.282643 0.255268
0.829496 0.30544 0.233158
0.961013 0.307164 0.21622
0.960464 0.294697 0.20029
0.95993 0.284916 0.187396
0.321019 0.560357 0.288243
0.291478 0.554025 0.280324
0.262119 0.548211 0.276844
0.299626 0.551186 0.267063
0.519402 0.520974 0.277394
0.767208 0.507439 0.193545
0.958846 0.484581 0.163394
0.959731 0.469429 0.149126
0.959319 0.457862 0.139345
0.505684 0.754238 0.34255
0.466651 0.749767 0.364904
0.41352 0.74847 0.395483
0.414649 0.757214 0.447333
0.366217 0.773877 0.430701
0.704112 0.711772 0.276249
0.943343 0.71931 0.188968
0.955856 0.708553 0.166857
0.955642 0.700526 0.150942
0.631586 0.852003 0.471977
0.58529 0.863783 0.500206
0.524605 0.878645 0.533837
0.494285 0.896513 0.57792
0.375463 0.929107 0.619287
0.572076 0.976043 0.35436
0.861357 0.87686 0.29221
0.945617 0.836072 0.282002
0.945083 0.827543 0.273075
0.704555 0.825986 0.541619
0.649454 0.839872 0.570672
0.57995 0.857267 0.605188
0.518822 0.881102 0.647044
0.465415 0.914595 0.687114
0.56376 0.956741 0.515679
0.674128 0.963134 0.422599
0.876188 0.881605 0.2495
0.944396 0.859266 0.250828
0.76669 0.801404 0.60885
0.70457 0.816876 0.639628
0.629221 0.83566 0.67454
0.551308 0.860395 0.715633
0.518746 0.892287 0.755138
0.575967 0.927001 0.642161
0.667216 0.963912 0.595422
0.684062 0.922377 0.356832
0.858122 0.882414 0.226215
0.141253 0.319417 0.785824
0.137758 0.312398 0.771359
0.205783 0.223713 0.748196
0.477562 0.00666819 0.790387
0.756741 0 0.777905
0.961288 0.00135805 0.763607
0.963989 0.00216678 0.74905
0.963714 0.00273136 0.734417
0.9635 0.00317388 0.725216
0.131838 0.295399 0.738201
0.128725 0.289311 0.723415
0.178622 0.220386 0.701198
0.384833 0.0192416 0.737011
0.702235 0 0.729137
0.93727 0.00468452 0.711345
0.963424 0.00675975 0.696101
0.963287 0.0080415 0.679973
0.963149 0.00872816 0.669093
0.11809 0.353674 0.702541
0.115404 0.338827 0.687251
0.160143 0.308598 0.666377
0.269993 0.103609 0.670954
0.646357 0.0333562 0.680705
0.890852 0.0284428 0.660151
0.963043 0.0240635 0.636515
0.962921 0.0208286 0.619318
0.962798 0.0205386 0.60676
0.11194 0.458 0.65684
0.090074 0.449119 0.652689
0.100206 0.43856 0.644831
0.286793 0.419806 0.618143
0.586511 0.260807 0.631464
0.836362 0.244541 0.596735
0.962585 0.228809 0.549538
0.962478 0.212299 0.530877
0.962386 0.200946 0.517159
0.136202 0.570809 0.608286
0.106264 0.56495 0.600671
0.0800488 0.558236 0.593408
0.214588 0.554299 0.586099
0.513176 0.553124 0.578561
0.769497 0.521767 0.527367
0.960952 0.522911 0.498039
0.96231 0.507729 0.478569
0.961212 0.499504 0.464698
0.313985 0.755474 0.580102
0.282567 0.749401 0.575067
0.25243 0.743145 0.572702
0.296239 0.738964 0.574777
0.425147 0.748638 0.56527
0.713527 0.733669 0.529122
0.944198 0.719585 0.458152
0.960922 0.704768 0.436103
0.96051 0.693767 0.420157
0.480217 0.872724 0.549676
0.454276 0.880812 0.544762
0.423163 0.887144 0.543496
0.432959 0.895064 0.549493
0.422309 0.910582 0.500496
0.610819 0.937987 0.450568
0.87982 0.902327 0.508736
0.950286 0.863371 0.494926
0.949706 0.855375 0.482673
0.586053 0.842924 0.525414
0.552819 0.852399 0.521004
0.510811 0.864073 0.519341
0.484443 0.879332 0.521019
0.50956 0.900954 0.537118
0.575601 0.929641 0.555352
0.736538 0.972335 0.630549
0.89778 0.907423 0.449287
0.948638 0.890486 0.445426
0.672435 0.814878 0.528862
0.632212 0.826108 0.523857
0.582208 0.839887 0.529534
0.532387 0.857176 0.557107
0.562264 0.879789 0.595819
0.544839 0.910628 0.679103
0.757336 0.958343 0.732204
0.729488 0.938781 0.573404
0.879164 0.908034 0.414466
0.163272 0.366186 0.912306
0.162585 0.366506 0.911147
0.228611 0.282399 0.897169
0.383093 0.0535592 0.943679
0.748363 0 0.964263
0.958648 0 0.963195
0.964508 0 0.962585
0.964324 0 0.962356
0.964157 0 0.962402
0.16321 0.366125 0.9131
0.162448 0.366491 0.911467
0.213596 0.308019 0.897505
0.268162 0.117556 0.916594
0.694362 0 0.962448
0.932692 0 0.960891
0.964218 0 0.954696
0.964034 0 0.948501
0.963851 0 0.944717
0.159609 0.439612 0.921218
0.159152 0.431022 0.917128
0.200885 0.407568 0.90631
0.274022 0.269245 0.88809
0.636393 0.0285801 0.943923
0.883055 0.0192874 0.938308
0.964355 0.0115816 0.929381
0.965118 0.00761425 0.918166
0.965423 0.00518807 0.909819
0.151507 0.569009 0.915892
0.143709 0.561776 0.914153
0.162753 0.553277 0.904326
0.333684 0.534203 0.881453
0.496071 0.281224 0.885863
0.828519 0.233982 0.894163
0.965393 0.217243 0.881971
0.965301 0.200488 0.867247
0.965225 0.188968 0.857481
0.155932 0.668971 0.876661
0.128481 0.663355 0.873137
0.108278 0.655177 0.868559
0.264836 0.652979 0.858381
0.541558 0.646677 0.832105
0.772335 0.513497 0.843366
0.961013 0.496605 0.826352
0.962722 0.480339 0.811826
0.962585 0.468635 0.800458
0.172091 0.770947 0.828046
0.141421 0.764538 0.819745
0.109712 0.758984 0.812375
0.173938 0.754147 0.804883
0.475608 0.752865 0.797467
0.71548 0.754223 0.785824
0.942901 0.727184 0.752712
0.962905 0.714443 0.734951
0.96228 0.704921 0.722896
0.289693 0.894011 0.798749
0.26569 0.902495 0.793439
0.2421 0.906157 0.789532
0.268589 0.909499 0.788769
0.42858 0.91371 0.792416
0.664546 0.924514 0.794522
0.8916 0.923751 0.739147
0.956878 0.895933 0.731563
0.956405 0.889021 0.719661
0.400793 0.865278 0.789929
0.376913 0.873106 0.789899
0.351736 0.881239 0.792447
0.347509 0.890501 0.799207
0.386084 0.903044 0.811582
0.633143 0.923247 0.812802
0.814633 0.961212 0.8262
0.920821 0.936004 0.689708
0.954787 0.924025 0.683909
0.500938 0.83505 0.812345
0.47335 0.843549 0.816968
0.44062 0.853117 0.825223
0.410376 0.864866 0.838041
0.436698 0.880323 0.855543
0.627405 0.902541 0.855863
0.832578 0.934524 0.876677
0.802899 0.9505 0.832395
0.902693 0.937194 0.653422
0.164111 0.365881 0.912947
0.163409 0.366201 0.911757
0.227222 0.285817 0.897749
0.361135 0.0613718 0.940429
0.741436 0 0.964645
0.956313 0 0.963973
0.965072 0 0.963577
0.964858 0 0.963287
0.96466 0 0.963027
0.164034 0.36582 0.913725
0.163272 0.366186 0.912306
0.212299 0.311559 0.899474
0.266072 0.131304 0.915496
0.687236 0 0.964813
0.927031 0 0.96408
0.964721 0 0.963668
0.964508 0 0.963363
0.964324 0 0.963119
0.160723 0.434363 0.923812
0.160159 0.42591 0.920424
0.198215 0.403159 0.913268
0.273014 0.271244 0.901274
0.628229 0.0238041 0.964004
0.87602 0.0150912 0.964248
0.964355 0.00883497 0.96376
0.964141 0.00543221 0.96347
0.963973 0.00364691 0.963241
0.147036 0.567056 0.941054
0.146197 0.559823 0.939849
0.162646 0.552087 0.935943
0.330861 0.536248 0.923476
0.464836 0.285115 0.933501
0.820752 0.224948 0.964538
0.963912 0.208209 0.963958
0.963714 0.192157 0.963684
0.963546 0.180743 0.96347
0.131563 0.683177 0.939422
0.119402 0.678981 0.947402
0.116091 0.673381 0.951995
0.281773 0.673671 0.946319
0.545357 0.671977 0.932494
0.753109 0.505943 0.959762
0.960098 0.486641 0.964233
0.963241 0.469688 0.963958
0.963104 0.457969 0.96376
0.135363 0.797513 0.925673
0.110643 0.795575 0.933928
0.0871901 0.792782 0.943191
0.173724 0.792401 0.952483
0.472007 0.79881 0.95584
0.728267 0.800717 0.945251
0.938399 0.717037 0.964477
0.962798 0.703426 0.964218
0.962707 0.693309 0.963882
0.186297 0.913954 0.922576
0.155261 0.919875 0.929046
0.124208 0.923659 0.935531
0.141451 0.927581 0.942199
0.406912 0.931456 0.949645
0.685802 0.931884 0.955367
0.899245 0.932052 0.958144
0.962783 0.918593 0.955489
0.962249 0.910491 0.952117
0.276295 0.884947 0.944961
0.242725 0.894057 0.953017
0.209796 0.902937 0.959365
0.199741 0.911376 0.965805
0.409857 0.919127 0.975753
0.707607 0.927581 0.991592
0.887999 0.94406 1
0.945693 0.968246 0.932601
0.96231 0.962386 0.926665
0.355962 0.857343 0.980133
0.325032 0.86537 0.988006
0.294102 0.873213 0.997787
0.268315 0.881361 1
0.437507 0.890486 1
0.727489 0.902876 1
0.896147 0.923369 1
0.9084 0.961715 1
0.927153 0.970108 0.90219
0.164935 0.36556 0.913588
0.164233 0.365896 0.912383
0.225849 0.28925 0.898405
0.340368 0.0694133 0.937148
0.734844 0 0.965072
0.953735 0 0.964309
0.965698 0 0.963851
0.965423 0 0.9635
0.965209 0 0.96318
0.164858 0.365515 0.914336
0.164111 0.365881 0.912947
0.210895 0.315129 0.900404
0.264759 0.14493 0.913008
0.680034 0 0.965286
0.921462 0 0.964462
0.965347 0 0.963958
0.965072 0 0.963577
0.964858 0 0.963272
0.161715 0.429358 0.923491
0.161166 0.420706 0.92015
0.195499 0.397894 0.91342
0.270909 0.270405 0.901625
0.619211 0.0201419 0.964324
0.869078 0.0106813 0.964645
0.964996 0.00665293 0.96405
0.964721 0.00375372 0.963668
0.964492 0.00215152 0.963363
0.147372 0.562737 0.942473
0.147753 0.555322 0.939788
0.161105 0.54757 0.935958
0.323903 0.530938 0.923629
0.45304 0.281621 0.932372
0.813581 0.215793 0.964981
0.964385 0.199435 0.964263
0.964279 0.183322 0.963867
0.964065 0.171923 0.963577
0.118425 0.682246 0.950576
0.114382 0.676097 0.954482
0.116411 0.669017 0.952834
0.275227 0.668788 0.946517
0.538537 0.667124 0.932982
0.743725 0.497154 0.959487
0.95993 0.477211 0.964553
0.96379 0.460868 0.964126
0.963592 0.449348 0.963851
0.095079 0.803861 0.938247
0.0778973 0.799298 0.947723
0.0653239 0.79324 0.95642
0.159915 0.789578 0.961334
0.463783 0.793957 0.956359
0.721813 0.795605 0.945541
0.9346 0.709575 0.964874
0.963317 0.696162 0.964355
0.963149 0.686015 0.964096
0.120623 0.9337 0.919738
0.0910811 0.93666 0.928054
0.0625772 0.939437 0.936873
0.079942 0.941772 0.946471
0.347707 0.941573 0.957275
0.649073 0.934524 0.964981
0.893355 0.927428 0.963012
0.963623 0.912825 0.964584
0.963333 0.903395 0.964355
0.21735 0.905364 0.916136
0.186313 0.913954 0.922576
0.155261 0.92253 0.92903
0.142702 0.931105 0.935546
0.344915 0.939498 0.942824
0.649882 0.947829 0.950454
0.868513 0.956207 0.957794
0.964691 0.964691 0.964691
0.964172 0.964965 0.9635
0.30927 0.875959 0.936858
0.276295 0.884947 0.944961
0.242725 0.894057 0.953475
0.214466 0.902937 0.962493
0.3823 0.911223 0.973251
0.694011 0.918898 0.986908
0.91426 0.927428 1
1 0.943984 1
0.946731 0.970214 0.962798
0.165774 0.365255 0.914214
0.165057 0.365591 0.913008
0.225925 0.290272 0.899046
0.335042 0.0725719 0.936187
0.73283 0 0.965545
0.953124 0 0.964706
0.966369 0 0.964187
0.966049 0 0.963775
0.965789 0 0.963409
0.165682 0.365194 0.914961
0.164935 0.36556 0.913588
0.210971 0.316121 0.901152
0.265232 0.149294 0.912764
0.677928 0 0.965805
0.920073 0 0.964874
0.966018 0 0.964294
0.965698 0 0.963867
0.965423 0 0.9635
0.162585 0.427527 0.923781
0.162051 0.418875 0.920516
0.195163 0.396323 0.913939
0.270817 0.269978 0.902144
0.616785 0.0187991 0.964813
0.867063 0.00929274 0.965103
0.965682 0.00582895 0.964416
0.965331 0.00315862 0.963958
0.965072 0.00163272 0.963577
0.148363 0.561227 0.942824
0.148775 0.553765 0.940139
0.161074 0.545937 0.9364
0.322408 0.529137 0.924086
0.448981 0.2813 0.932143
0.811765 0.212802 0.965499
0.965026 0.196674 0.96466
0.964904 0.18088 0.964157
0.96463 0.169268 0.963775
0.113695 0.68188 0.957153
0.114672 0.674632 0.95613
0.117433 0.667414 0.953185
0.273655 0.667216 0.947021
0.536812 0.665385 0.933562
0.740719 0.494331 0.959701
0.960174 0.474571 0.964996
0.964431 0.458137 0.964431
0.964157 0.446448 0.964019
0.0727855 0.80766 0.951736
0.063447 0.801007 0.959304
0.0592203 0.793057 0.963912
0.158663 0.78793 0.96257
0.461891 0.792187 0.956771
0.720516 0.794156 0.94612
0.933669 0.707225 0.965408
0.963989 0.693858 0.964675
0.963684 0.683635 0.964263
0.0722515 0.94638 0.931136
0.0486305 0.947341 0.940993
0.0281987 0.947555 0.950774
0.0550393 0.946639 0.959808
0.333959 0.94255 0.9664
0.646738 0.932952 0.96582
0.891859 0.925414 0.963714
0.964279 0.910735 0.964965
0.96379 0.901289 0.964477
0.150729 0.925612 0.911849
0.120623 0.933761 0.919738
0.0910811 0.941711 0.928008
0.0800031 0.949279 0.936873
0.284321 0.956024 0.947082
0.599145 0.961318 0.958068
0.836851 0.964004 0.966171
0.965515 0.964385 0.965331
0.965042 0.964599 0.964599
0.248402 0.896788 0.909682
0.217365 0.905364 0.916136
0.186313 0.913954 0.922576
0.159442 0.92253 0.929046
0.325002 0.930953 0.936187
0.637095 0.939269 0.943862
0.862318 0.947662 0.951217
0.995743 0.956115 0.958236
0.964691 0.964691 0.964691
