media_library/luts/baidu-pack/人像cold.cube
TITLE "Generated by Resolve"
LUT_3D_SIZE 33
0.00357061 0.00357061 0.00357061
0.000595102 0.00387579 0.00350958
0 0.00289921 0.00216678
0 0.00122072 0.000122072
0.00408942 0.00062562 0
0.0293889 0.000427253 0
0.0721294 0.00112917 0
0.139193 0.00660716 0.00169375
0.218158 0.0133669 0.00416571
0.295262 0.0195926 0.00675975
0.372 0.0260929 0.00935378
0.446586 0.0363928 0.0119631
0.515328 0.0461891 0.0136263
0.579446 0.0547036 0.0146792
0.640574 0.0624094 0.0162814
0.699977 0.0715038 0.0161288
0.762905 0.0793011 0.0175937
0.830793 0.0875868 0.0191043
0.898344 0.0965896 0.0205844
0.943999 0.102266 0.0220188
0.959548 0.102358 0.021622
0.959411 0.102434 0.0213169
0.959289 0.102495 0.0210269
0.959152 0.102571 0.0207218
0.95903 0.102632 0.0204318
0.958892 0.102708 0.0201267
0.95877 0.10277 0.0198367
0.958648 0.102846 0.0195315
0.958511 0.102907 0.0192416
0.958389 0.102983 0.0189364
0.958251 0.103044 0.0186465
0.958129 0.10312 0.0183413
0.957992 0.103182 0.0180514
0.0109407 0 0.0190433
0 0.00138857 0
0 0.000106813 0
0 0.00015259 0
0.000488289 0.000213626 0
0.0225071 0.00030518 0
0.0617838 0.000488289 0.000320439
0.123476 0.00540169 0.00204471
0.203021 0.012192 0.00480659
0.279744 0.0179904 0.00730907
0.356313 0.0240787 0.010132
0.431968 0.0338903 0.0127565
0.501656 0.043946 0.0145418
0.566064 0.0529946 0.0160525
0.627573 0.0602579 0.017792
0.686885 0.0692149 0.0175326
0.749187 0.0779126 0.0191043
0.815869 0.0852522 0.0207523
0.88513 0.094377 0.0223697
0.9393 0.101869 0.0239567
0.960052 0.101991 0.0236362
0.960037 0.102037 0.0234226
0.959945 0.102083 0.0232242
0.959854 0.102129 0.0230106
0.959762 0.102174 0.022797
0.95967 0.10222 0.0225986
0.959579 0.102281 0.0224002
0.959487 0.102327 0.0221866
0.959381 0.102373 0.021973
0.959289 0.102419 0.0217594
0.959197 0.102464 0.021561
0.959106 0.102525 0.0213474
0.95903 0.102571 0.021149
0.0218967 0 0.0381018
0 0.000274662 0.0377661
0 0.00276188 0
0 0.00015259 0
0 0.000213626 0
0.0165103 0.00030518 0
0.051545 0.000350958 9.15541e-05
0.107012 0.00401312 0.00148013
0.184756 0.0105745 0.0043183
0.26186 0.0165408 0.00677501
0.338781 0.0227054 0.0096437
0.415244 0.0315557 0.0122377
0.486259 0.0418708 0.0142977
0.551568 0.051194 0.0159915
0.613886 0.0585031 0.0175021
0.673442 0.067216 0.0176699
0.734676 0.0763104 0.0188907
0.800259 0.0832532 0.0205539
0.86981 0.0923629 0.0221866
0.930724 0.101061 0.0238346
0.957641 0.102007 0.0238651
0.959899 0.102052 0.0236362
0.959808 0.102098 0.0234379
0.959716 0.102144 0.0232242
0.959625 0.102205 0.0230259
0.959533 0.102251 0.0228122
0.959442 0.102296 0.0226139
0.95935 0.102342 0.0224002
0.959243 0.102388 0.0221866
0.959167 0.102434 0.0219883
0.959075 0.102495 0.0217746
0.958984 0.102541 0.0215763
0.958877 0.102586 0.0213626
0.0328374 0 0.0571603
0 0 0.0628061
0 0.00729381 0.0408637
0 0.00415045 0
0 0.000198367 0
0.011429 0.000289921 0
0.0419471 0.000335698 0
0.0915694 0.00263981 0.000885023
0.165896 0.0087129 0.00367742
0.24361 0.0151064 0.00611887
0.320928 0.0215763 0.00898756
0.397604 0.0292668 0.0115663
0.469978 0.039704 0.0140536
0.536767 0.049134 0.0157931
0.600168 0.0568551 0.0168765
0.660487 0.0652323 0.0178836
0.720714 0.0743267 0.0185397
0.785077 0.0812848 0.0200809
0.854185 0.0903639 0.0216678
0.918669 0.0992905 0.02327
0.952422 0.102022 0.0241093
0.959777 0.102068 0.0238499
0.95967 0.102113 0.0236515
0.959579 0.102174 0.0234379
0.959487 0.10222 0.0232395
0.959396 0.102266 0.0230259
0.959304 0.102312 0.0228122
0.959213 0.102358 0.0226139
0.959121 0.102419 0.0224002
0.95903 0.102464 0.0221866
0.958938 0.10251 0.021973
0.958846 0.102556 0.0217746
0.958083 0.102846 0.0219272
0.0445716 0 0.0770123
0.0148775 0 0.0874037
0 0.00161746 0.0827039
0 0.0139773 0.0415503
0 0.00581369 0
0.00668345 0.000396735 0.000289921
0.0329595 0.000381476 0
0.0775616 0.00148013 0.0009308
0.147951 0.00706493 0.00332647
0.226123 0.0137789 0.00567636
0.303685 0.0203555 0.00848402
0.380377 0.0271153 0.0110628
0.453849 0.0374609 0.0138094
0.521996 0.0470741 0.0155795
0.586145 0.0552224 0.016434
0.647211 0.0632639 0.0180819
0.706569 0.0722972 0.018265
0.769909 0.0794842 0.0197147
0.838102 0.0883192 0.0212558
0.906172 0.0974594 0.0228275
0.947005 0.102022 0.0243534
0.95964 0.102083 0.0240787
0.959548 0.102129 0.0238651
0.959457 0.102174 0.0236667
0.959365 0.102235 0.0234531
0.959274 0.102281 0.0232395
0.959182 0.102327 0.0230411
0.959091 0.102373 0.0228275
0.958984 0.102434 0.0226291
0.958892 0.10248 0.0224155
0.958801 0.102525 0.0222019
0.958709 0.102571 0.0219883
0.957137 0.103166 0.0226291
0.0567178 0 0.097261
0.0300908 0 0.111864
0 0 0.116869
0 0.0106203 0.0981765
0 0.0189975 0.0398871
0 0.00781262 0.00077821
0.0243839 0.000991836 0.000411994
0.0664836 0.0009308 0.00115969
0.130739 0.00587472 0.0030518
0.2094 0.012665 0.00560006
0.286595 0.0188144 0.00823987
0.36321 0.0251774 0.0109407
0.438239 0.0350805 0.0136263
0.507515 0.0449989 0.0154269
0.571954 0.0537118 0.0166781
0.633371 0.061326 0.0183413
0.692561 0.0702373 0.0183261
0.755093 0.0783398 0.0197757
0.822324 0.0863203 0.0213779
0.891356 0.0954299 0.0229801
0.941421 0.102022 0.0246281
0.959518 0.102098 0.0242924
0.959426 0.102144 0.024094
0.959335 0.102205 0.0238804
0.959243 0.102251 0.023682
0.959136 0.102296 0.0234684
0.959045 0.102342 0.0232547
0.958953 0.102388 0.0230411
0.958862 0.102449 0.0228428
0.95877 0.102495 0.0226444
0.958679 0.102541 0.0224155
0.958587 0.102586 0.0222171
0.958495 0.102632 0.0220035
0.0677043 0 0.116167
0.0369573 0 0.125628
0.00881971 0.002121 0.137865
0 0.0138857 0.124041
0 0.0257267 0.0882734
0 0.0284581 0.026154
0 0.0155795 0
0.0528572 0.00842298 0.00030518
0.116487 0.0122072 0.00280766
0.195895 0.0193637 0.00543221
0.272923 0.0253605 0.00794995
0.348058 0.0312505 0.0105287
0.422538 0.0396582 0.0131685
0.492027 0.0484627 0.0150301
0.556924 0.056672 0.0166171
0.618875 0.0632639 0.018204
0.678584 0.071107 0.0184176
0.740551 0.078996 0.019852
0.806714 0.0857252 0.0214542
0.876356 0.0940566 0.0230716
0.934569 0.101717 0.0247807
0.958694 0.102113 0.0245365
0.959304 0.102159 0.0243229
0.959213 0.102205 0.0241093
0.959121 0.102266 0.0238956
0.959014 0.102312 0.023682
0.958938 0.102358 0.0234836
0.958831 0.102403 0.02327
0.95874 0.102464 0.0230564
0.958648 0.10251 0.022858
0.958556 0.102556 0.0226444
0.958465 0.102602 0.022446
0.958358 0.102647 0.0222324
0.089128 0.0242008 0.145052
0.0576181 0.0289158 0.15407
0.0229801 0.0351873 0.157107
0 0.0444648 0.149142
0 0.0554971 0.128573
0 0.0655222 0.0848707
0 0.0624247 0.0252079
0.0155795 0.0482032 0.00221256
0.0955215 0.0432136 0.00177005
0.184024 0.0491951 0.00482185
0.264454 0.0559701 0.0071107
0.337362 0.0618296 0.00943008
0.408072 0.0671855 0.0118715
0.475364 0.0721752 0.0140383
0.54023 0.0776684 0.0157626
0.602335 0.0823529 0.0172274
0.662654 0.08748 0.0185397
0.724483 0.0931411 0.0197757
0.789746 0.0988327 0.0213169
0.859556 0.10547 0.0232853
0.923888 0.112383 0.024979
0.955154 0.112856 0.0248417
0.959167 0.1122 0.0246128
0.959075 0.111406 0.0243992
0.958984 0.110597 0.0241855
0.958892 0.109773 0.0239567
0.958785 0.108965 0.023743
0.958709 0.108232 0.0235294
0.958602 0.107515 0.0233158
0.958511 0.106722 0.0230869
0.958419 0.105913 0.0228885
0.958328 0.105333 0.0226749
0.958236 0.105409 0.0224613
0.115587 0.0713359 0.178973
0.0840925 0.0757458 0.188098
0.0505226 0.0813001 0.192767
0.0113222 0.0897841 0.188739
0 0.100145 0.173709
0 0.110826 0.145357
0 0.117144 0.0911116
0 0.107454 0.0315404
0.0415045 0.0894789 0.00740063
0.138933 0.0848402 0.00445563
0.237308 0.0898299 0.00610361
0.319829 0.0963912 0.00766003
0.393072 0.101793 0.010132
0.460822 0.106828 0.0127108
0.524178 0.11165 0.0145266
0.585855 0.116228 0.0162356
0.645502 0.120821 0.0180056
0.706966 0.125002 0.0193332
0.771634 0.130892 0.0209201
0.840879 0.137133 0.0234989
0.910613 0.143893 0.0256046
0.949157 0.144335 0.0252842
0.958968 0.14229 0.0249943
0.958892 0.1402 0.0247654
0.958785 0.138064 0.0245518
0.958694 0.135882 0.0243229
0.958602 0.133867 0.024094
0.958526 0.131838 0.0238804
0.958419 0.129809 0.0236515
0.958328 0.127779 0.0234226
0.958251 0.125734 0.023209
0.95816 0.124376 0.0229953
0.958053 0.124544 0.0227817
0.146059 0.124392 0.216861
0.11458 0.128435 0.226062
0.0815137 0.133272 0.231662
0.0434424 0.140398 0.23003
0.00131228 0.149691 0.218967
0 0.15996 0.198108
0 0.170047 0.160616
0 0.172854 0.0974289
0 0.157595 0.0368658
0.0778973 0.135851 0.0142824
0.182513 0.128435 0.00981155
0.287053 0.131594 0.0075227
0.372305 0.136751 0.00735485
0.445151 0.141527 0.00999466
0.510048 0.14612 0.0123903
0.571878 0.150301 0.0144198
0.630793 0.154971 0.0161135
0.691447 0.158831 0.0179294
0.755199 0.164034 0.0198978
0.823514 0.170077 0.0222324
0.895811 0.176165 0.0246433
0.942687 0.17879 0.0256504
0.958709 0.176776 0.0254215
0.958679 0.174716 0.0251926
0.958572 0.172488 0.0249638
0.958495 0.170184 0.0247349
0.958404 0.16788 0.0245212
0.958297 0.165576 0.0242771
0.958206 0.163272 0.0240482
0.958129 0.161105 0.0238499
0.958022 0.158938 0.0236057
0.957946 0.157397 0.0233921
0.957839 0.15758 0.0231785
0.179904 0.184771 0.258076
0.148287 0.188174 0.26714
0.11574 0.192233 0.273854
0.0793469 0.198169 0.275059
0.0382544 0.206561 0.267948
0 0.216159 0.250858
0 0.2262 0.223301
0 0.234012 0.174655
0 0.232776 0.104723
0.0313268 0.212039 0.0465858
0.122942 0.182589 0.0259709
0.232609 0.172396 0.0181582
0.340749 0.177981 0.0103914
0.426368 0.181659 0.00665293
0.495476 0.183795 0.00856031
0.557916 0.186603 0.0113222
0.617517 0.19057 0.0133669
0.677501 0.194217 0.015259
0.740185 0.199207 0.0177768
0.807523 0.204913 0.019852
0.878355 0.210285 0.0221714
0.935943 0.214969 0.024094
0.95816 0.213184 0.0239872
0.95845 0.21088 0.0238499
0.958358 0.208576 0.023743
0.958267 0.206287 0.023621
0.958175 0.204105 0.0234989
0.958083 0.201801 0.0233768
0.957992 0.199405 0.0233005
0.9579 0.196979 0.0232242
0.957809 0.194644 0.0231632
0.957717 0.192935 0.0230564
0.95761 0.193271 0.0228275
0.216785 0.250492 0.302251
0.185519 0.253758 0.311696
0.153887 0.257343 0.319951
0.119982 0.262272 0.324788
0.0820478 0.269291 0.324193
0.0390478 0.278233 0.312413
0 0.288029 0.286549
0 0.297353 0.248753
0 0.302754 0.1897
0.00285344 0.297078 0.117205
0.0793011 0.270024 0.0600137
0.180484 0.233066 0.037995
0.2925 0.22269 0.0274662
0.398718 0.229328 0.0158694
0.481514 0.232517 0.00750744
0.547051 0.232227 0.00598154
0.605737 0.231678 0.00852979
0.66392 0.232792 0.0111086
0.72517 0.236652 0.0138247
0.791379 0.241672 0.0162814
0.861555 0.247135 0.019028
0.926787 0.252293 0.0215152
0.955901 0.251087 0.0214389
0.958236 0.248615 0.0215305
0.958144 0.246265 0.0216526
0.958053 0.243778 0.0217899
0.957961 0.241428 0.0216831
0.95787 0.239094 0.0215763
0.957763 0.236698 0.0214542
0.957687 0.234287 0.0213626
0.957595 0.232013 0.0212558
0.957504 0.230106 0.0211337
0.957397 0.230289 0.0209049
0.255604 0.319326 0.348363
0.223911 0.322301 0.357305
0.190936 0.325887 0.364233
0.156054 0.330449 0.367163
0.121126 0.336675 0.370703
0.0775616 0.345006 0.359213
0.0328679 0.35436 0.339467
0.000442512 0.363638 0.31165
0 0.371679 0.267536
0.00241093 0.37464 0.204685
0.0402228 0.365957 0.130968
0.138476 0.333288 0.0703746
0.24683 0.288823 0.0480964
0.355413 0.275349 0.0385443
0.457618 0.284916 0.0250553
0.536446 0.290578 0.0107271
0.597604 0.288334 0.00326543
0.654231 0.283986 0.00404364
0.7122 0.282078 0.00735485
0.775952 0.283619 0.010605
0.845655 0.287846 0.0141604
0.915007 0.292546 0.0172732
0.9505 0.292073 0.0176547
0.957839 0.289342 0.0177462
0.957931 0.286671 0.0178378
0.957824 0.284001 0.0179141
0.957717 0.281392 0.0178683
0.957641 0.278935 0.0178225
0.957534 0.276356 0.0177615
0.957443 0.273732 0.0177157
0.957351 0.271122 0.0176852
0.957259 0.268971 0.0176242
0.957153 0.269169 0.01738
0.293706 0.387564 0.393774
0.262425 0.391043 0.403082
0.229908 0.395392 0.410742
0.196109 0.400153 0.414984
0.158251 0.406699 0.413886
0.116869 0.414542 0.406271
0.0735485 0.423224 0.391546
0.0369879 0.431495 0.369619
0.0185702 0.439902 0.337224
0.0193484 0.446998 0.287205
0.0281376 0.447639 0.220874
0.0895552 0.433326 0.140368
0.211124 0.396262 0.0785534
0.314061 0.34522 0.0585946
0.415488 0.329137 0.0507057
0.514046 0.341772 0.0368658
0.589746 0.351843 0.0200504
0.648188 0.350912 0.00486763
0.703883 0.344244 0.00137331
0.763592 0.338888 0.00254826
0.829267 0.336599 0.00657664
0.901671 0.337789 0.0106661
0.944015 0.337362 0.0124208
0.957275 0.334997 0.0126192
0.957702 0.332067 0.0127565
0.95758 0.329274 0.0128786
0.957488 0.326345 0.0130159
0.957397 0.323354 0.0131685
0.95729 0.320394 0.0133211
0.957198 0.317449 0.0134432
0.957107 0.314702 0.0135348
0.957015 0.312215 0.0135958
0.956909 0.312428 0.0133516
0.329885 0.452171 0.437263
0.29868 0.455726 0.446632
0.266087 0.459815 0.454566
0.232761 0.464317 0.459403
0.195773 0.470283 0.459632
0.155383 0.477928 0.4542
0.112596 0.486442 0.442298
0.0727855 0.495506 0.423819
0.0487678 0.504677 0.39852
0.0416724 0.513497 0.359762
0.0433051 0.519188 0.304723
0.0429847 0.518364 0.235264
0.145998 0.499886 0.144244
0.283711 0.457862 0.0886244
0.378576 0.403922 0.0719158
0.473945 0.385046 0.0637522
0.566278 0.397726 0.0513619
0.639155 0.411582 0.0323949
0.698039 0.415671 0.0124666
0.754971 0.409979 0.0012665
0.817411 0.40206 0.000411994
0.885618 0.395315 0.00122072
0.936767 0.391196 0.00442512
0.956436 0.388464 0.0047303
0.957427 0.384405 0.00527962
0.957336 0.38024 0.00587472
0.957229 0.376059 0.00645457
0.957122 0.37232 0.00689708
0.957031 0.369284 0.00712596
0.956939 0.366033 0.00738537
0.956847 0.362753 0.00766003
0.956756 0.360006 0.00782788
0.956649 0.360235 0.00758373
0.363363 0.511223 0.478111
0.332418 0.515053 0.487694
0.299977 0.519341 0.495949
0.267247 0.524193 0.501625
0.231327 0.530114 0.503258
0.192035 0.53756 0.499779
0.150256 0.546319 0.490623
0.108217 0.556054 0.475425
0.0802777 0.56582 0.453834
0.0680705 0.574762 0.423499
0.0640574 0.582742 0.378927
0.0556039 0.588113 0.32015
0.0743725 0.58204 0.238651
0.210285 0.562707 0.134676
0.351415 0.519295 0.0953841
0.436851 0.459556 0.0853742
0.525765 0.437583 0.0775769
0.614252 0.450721 0.0670634
0.686366 0.468299 0.0487068
0.747768 0.476722 0.0234073
0.807492 0.474174 0.00329595
0.872099 0.466484 0
0.929656 0.457862 0
0.955383 0.453895 0
0.957153 0.4495 0
0.957046 0.445411 0
0.956939 0.441123 0
0.956817 0.436942 0
0.95671 0.432837 0
0.956634 0.428687 0
0.956542 0.42443 0
0.956451 0.421088 0
0.956344 0.421378 0
0.393317 0.563684 0.515496
0.362432 0.567727 0.525109
0.330098 0.57229 0.533562
0.297627 0.577127 0.539834
0.262852 0.583032 0.542901
0.224842 0.590372 0.541558
0.1841 0.599268 0.53492
0.141543 0.609094 0.522255
0.109773 0.619577 0.503655
0.0937057 0.629358 0.478813
0.085008 0.638437 0.443061
0.0787213 0.646372 0.393835
0.0449836 0.650492 0.331731
0.138674 0.63743 0.228779
0.299062 0.618006 0.130831
0.411887 0.573571 0.106645
0.489723 0.514488 0.0985428
0.573816 0.491341 0.0910811
0.658534 0.502144 0.0811933
0.732189 0.521843 0.063035
0.797208 0.535271 0.0349126
0.859876 0.535561 0.00790417
0.919905 0.529717 0
0.951934 0.52491 0
0.956741 0.520485 0
0.956786 0.515908 0
0.95668 0.511315 0
0.956573 0.506737 0
0.956466 0.502144 0
0.956359 0.497658 0
0.956252 0.49305 0
0.956146 0.489082 0
0.956039 0.489387 0
0.421256 0.613428 0.550881
0.390631 0.617578 0.560723
0.358587 0.622248 0.569543
0.326665 0.627329 0.576684
0.293263 0.63299 0.581476
0.25716 0.639902 0.582956
0.218067 0.648173 0.57966
0.176104 0.657755 0.569772
0.140459 0.668254 0.552865
0.119509 0.679026 0.529717
0.107164 0.689052 0.499641
0.0988785 0.698207 0.458244
0.0757153 0.705806 0.40621
0.0616159 0.704952 0.330037
0.196201 0.692653 0.209369
0.362631 0.673289 0.141558
0.465965 0.627207 0.126268
0.538247 0.56846 0.112871
0.618036 0.543374 0.104631
0.701213 0.552285 0.0960403
0.77731 0.573816 0.0779126
0.844984 0.589624 0.046891
0.906706 0.592554 0.0157778
0.944244 0.589792 0.00553903
0.954971 0.586145 0.00329595
0.955795 0.582177 0.00169375
0.955932 0.578439 7.62951e-05
0.956085 0.574456 0
0.956222 0.570489 0
0.956115 0.566232 0
0.956008 0.562112 0
0.955901 0.558434 0
0.955795 0.559014 0
0.449714 0.663966 0.586648
0.419364 0.668513 0.596811
0.387488 0.673274 0.60589
0.355032 0.67805 0.612848
0.321492 0.683375 0.617258
0.284855 0.690013 0.617853
0.24744 0.697475 0.617273
0.205478 0.706813 0.608148
0.167605 0.717113 0.593973
0.143145 0.727459 0.574258
0.128908 0.737163 0.548989
0.118929 0.74699 0.516167
0.104494 0.756176 0.472236
0.041474 0.76202 0.415747
0.12958 0.751537 0.315541
0.289097 0.741405 0.183108
0.419684 0.726268 0.149233
0.51397 0.679164 0.14493
0.580453 0.618692 0.127489
0.659449 0.593194 0.119692
0.743511 0.601862 0.110277
0.822751 0.622721 0.0914015
0.892073 0.639811 0.0581979
0.936706 0.64303 0.0396124
0.953033 0.64097 0.0341955
0.95433 0.638209 0.0311131
0.954192 0.635325 0.0282444
0.95407 0.631998 0.0258335
0.953948 0.628641 0.0234531
0.953811 0.625345 0.021149
0.953704 0.622003 0.0187381
0.953597 0.618952 0.0165103
0.953475 0.619181 0.0164187
0.477775 0.714015 0.622232
0.447089 0.717952 0.631907
0.41503 0.722362 0.640711
0.382574 0.727047 0.647852
0.349523 0.732357 0.652827
0.313558 0.738659 0.654292
0.274907 0.746181 0.651759
0.234028 0.754788 0.644816
0.194247 0.764431 0.633356
0.167102 0.775235 0.617548
0.152651 0.785962 0.596307
0.140795 0.795941 0.569131
0.127428 0.805051 0.532235
0.0886702 0.812345 0.484993
0.0670634 0.813184 0.410559
0.199252 0.801556 0.29218
0.351919 0.792401 0.182986
0.468849 0.774502 0.16556
0.557549 0.727459 0.160128
0.625315 0.672175 0.142855
0.703395 0.645991 0.134173
0.787778 0.651164 0.124544
0.86659 0.669932 0.104204
0.924239 0.681224 0.08365
0.949905 0.680278 0.0785534
0.952392 0.677974 0.0754101
0.952499 0.675654 0.0722667
0.95259 0.673442 0.0693065
0.952712 0.671077 0.0661021
0.952789 0.668788 0.0629435
0.952911 0.666468 0.0598001
0.953048 0.664302 0.0568093
0.952911 0.664485 0.0567636
0.506569 0.76466 0.658488
0.475837 0.768261 0.668162
0.443839 0.772519 0.677134
0.411307 0.776913 0.684504
0.378485 0.781582 0.689952
0.34316 0.787366 0.692302
0.305272 0.794629 0.691051
0.265248 0.803357 0.685863
0.22385 0.81326 0.676371
0.193118 0.823224 0.662257
0.177676 0.833585 0.643275
0.164401 0.844114 0.619669
0.150668 0.854261 0.588754
0.1252 0.862928 0.548211
0.0556954 0.868864 0.494972
0.125521 0.86186 0.399191
0.276234 0.853422 0.266331
0.399695 0.845747 0.184726
0.51632 0.826123 0.184176
0.603235 0.779293 0.179416
0.668559 0.722637 0.16083
0.747387 0.695659 0.150393
0.831113 0.698344 0.140078
0.903151 0.71104 0.124514
0.941482 0.709895 0.12192
0.949004 0.707012 0.120912
0.949371 0.705211 0.118181
0.949325 0.703517 0.115221
0.949264 0.701823 0.112184
0.949203 0.700191 0.109194
0.949248 0.698558 0.106233
0.949355 0.696864 0.103105
0.949218 0.697017 0.103029
0.5355 0.807614 0.695003
0.504921 0.812909 0.704768
0.472984 0.818662 0.713771
0.440543 0.824613 0.721614
0.408118 0.830365 0.727443
0.373648 0.836881 0.73077
0.336553 0.844388 0.730648
0.297154 0.852979 0.726726
0.255955 0.862531 0.71873
0.222416 0.872114 0.706386
0.20351 0.88188 0.689387
0.189364 0.892607 0.667628
0.175616 0.903212 0.641367
0.155459 0.912627 0.606775
0.103502 0.921035 0.5635
0.0675212 0.924208 0.494347
0.193591 0.913161 0.386053
0.335744 0.907012 0.241123
0.447974 0.899809 0.189136
0.560861 0.876875 0.202808
0.647684 0.830167 0.198062
0.713603 0.774273 0.179889
0.790341 0.745541 0.169528
0.870375 0.743358 0.159243
0.921889 0.739986 0.156497
0.939971 0.735027 0.157855
0.945388 0.731594 0.157595
0.946471 0.729412 0.155459
0.946563 0.727871 0.15288
0.94667 0.726284 0.150134
0.946777 0.724697 0.147402
0.946883 0.72314 0.144732
0.946731 0.723308 0.144625
0.560098 0.829496 0.727474
0.530632 0.835645 0.738323
0.499306 0.842222 0.747936
0.467231 0.84918 0.756313
0.435203 0.856245 0.762737
0.401434 0.864073 0.766827
0.365179 0.872938 0.767803
0.326665 0.882841 0.765286
0.28629 0.893782 0.758968
0.250568 0.905272 0.748455
0.22829 0.91693 0.733486
0.213306 0.92842 0.713832
0.19971 0.93962 0.690227
0.181598 0.951019 0.661051
0.145602 0.962585 0.624506
0.0712749 0.97229 0.574472
0.11632 0.970596 0.485283
0.268666 0.963088 0.370794
0.38352 0.960815 0.242771
0.492805 0.952758 0.20087
0.605631 0.93051 0.219501
0.692348 0.884062 0.218616
0.7579 0.826658 0.200671
0.829938 0.792935 0.188602
0.891539 0.780896 0.18584
0.922942 0.773037 0.186236
0.935363 0.766903 0.188312
0.941238 0.762509 0.188693
0.943038 0.759533 0.18732
0.943053 0.757198 0.185046
0.943099 0.754833 0.182773
0.943114 0.752605 0.180606
0.942962 0.752804 0.180484
0.571191 0.843366 0.746334
0.541878 0.849729 0.757336
0.511315 0.856535 0.767697
0.48011 0.86363 0.777081
0.449088 0.870878 0.784695
0.416587 0.878798 0.790234
0.381903 0.887709 0.793057
0.345098 0.897566 0.792859
0.30634 0.90837 0.78912
0.269551 0.920073 0.78114
0.244556 0.932387 0.768551
0.229618 0.945006 0.751263
0.216678 0.957595 0.729671
0.20116 0.969924 0.705013
0.172274 0.982345 0.674342
0.10454 0.995132 0.63476
0.0640269 1 0.569223
0.187137 1 0.467979
0.330648 1 0.347402
0.427665 1 0.220401
0.539117 0.998245 0.21883
0.649744 0.974945 0.24712
0.731273 0.923705 0.236576
0.792966 0.864057 0.214603
0.856229 0.833234 0.205722
0.899931 0.820706 0.205127
0.920684 0.812375 0.206348
0.932403 0.80592 0.209461
0.939055 0.801114 0.211292
0.941543 0.797757 0.211368
0.941436 0.79472 0.209873
0.941222 0.791699 0.208286
0.941085 0.791913 0.208103
0.582147 0.839597 0.765377
0.552865 0.847196 0.776379
0.522377 0.855207 0.786786
0.491218 0.863508 0.796277
0.459998 0.871992 0.804105
0.428092 0.880873 0.810132
0.393805 0.89073 0.813413
0.35729 0.901564 0.813626
0.319142 0.913222 0.811017
0.280476 0.925841 0.80415
0.252094 0.939055 0.793362
0.237308 0.952605 0.778363
0.223407 0.966278 0.759014
0.208621 0.979385 0.736309
0.182834 0.992248 0.710018
0.125063 1 0.676707
0.0438849 1 0.624491
0.132052 1 0.533394
0.292027 1 0.422858
0.379629 1 0.280217
0.474464 1 0.242969
0.58555 1 0.266865
0.678782 0.982635 0.259419
0.751492 0.925353 0.235111
0.815503 0.880751 0.215518
0.870268 0.864027 0.211261
0.900008 0.855314 0.212543
0.918959 0.848295 0.214847
0.931579 0.842695 0.218891
0.939101 0.838361 0.221912
0.942306 0.834699 0.222827
0.942473 0.832029 0.222217
0.942321 0.832227 0.221988
0.593088 0.834409 0.784436
0.563836 0.841993 0.795438
0.53341 0.849989 0.80589
0.502281 0.858274 0.815488
0.471092 0.866728 0.82356
0.439475 0.875486 0.830014
0.405692 0.88513 0.833921
0.369741 0.895705 0.834974
0.331823 0.907195 0.832853
0.292317 0.919509 0.82739
0.260884 0.932479 0.818296
0.245106 0.945861 0.805158
0.231067 0.959442 0.787732
0.216938 0.972946 0.766339
0.194034 0.986664 0.742977
0.14757 1 0.714992
0.043534 1 0.672496
0.0900893 1 0.592752
0.254063 1 0.489189
0.342199 1 0.353353
0.420874 1 0.284108
0.52221 1 0.294102
0.616938 1 0.28658
0.694469 0.961181 0.254643
0.764584 0.908888 0.224216
0.829435 0.887785 0.212619
0.869444 0.877577 0.210742
0.896132 0.869184 0.211948
0.915709 0.862318 0.214206
0.929168 0.857069 0.218067
0.937591 0.853361 0.221546
0.941711 0.851102 0.223407
0.942611 0.850782 0.223728
0.604044 0.829236 0.803494
0.574823 0.836805 0.814511
0.544427 0.844785 0.824994
0.513359 0.85304 0.834699
0.482124 0.861494 0.842954
0.450767 0.87013 0.84979
0.417456 0.879576 0.854276
0.382025 0.889921 0.856062
0.34464 0.901152 0.854887
0.305577 0.913207 0.850553
0.272068 0.925948 0.842786
0.253025 0.939162 0.83125
0.238682 0.952651 0.815534
0.224338 0.966217 0.795789
0.204211 0.979782 0.774182
0.16434 0.994034 0.749905
0.0668193 1 0.714824
0.0707561 1 0.647578
0.215869 1 0.552056
0.313542 1 0.428443
0.379126 1 0.32755
0.466651 1 0.324529
0.557931 1 0.32314
0.634928 0.985016 0.284566
0.706584 0.929259 0.242374
0.779263 0.901549 0.220066
0.830076 0.888914 0.211978
0.865339 0.87892 0.210208
0.892164 0.870832 0.211292
0.912398 0.864607 0.213519
0.926665 0.859998 0.217151
0.935897 0.85687 0.220905
0.94081 0.855192 0.223087
0.614984 0.824063 0.822568
0.585794 0.831632 0.83357
0.555444 0.839582 0.844099
0.524422 0.847822 0.853895
0.493187 0.856245 0.862348
0.461982 0.864805 0.86949
0.429114 0.874067 0.874495
0.394171 0.884199 0.876951
