media_library/luts/baidu-pack/人像2.cube
TITLE "Generated by Resolve"
LUT_3D_SIZE 5
0.0278325 0.0285801 0.0311894
0.129931 0.0466468 0.0276341
0.608698 0 0
0.686656 0 0
0.687663 0 0
0 0.0983902 0.0521401
0.079408 0.090074 0.045655
0.585519 0.0243076 0
0.678401 0 0
0.687099 0 0
0 0.40853 0
0 0.375998 0
0.744747 0.644144 0
0.976837 0.619684 0
0.939452 0.505547 0
0 0.47509 0
0 0.463874 0
0.571786 0.754788 0
1 0.864149 0
1 0.858625 0
0.554864 0.759579 0
0.502022 0.742901 0
0.841184 0.842924 0
1 0.878462 0
1 0.875593 0
0.0171206 0.0282444 0.0935988
0.126085 0.0409857 0.121447
0.628412 0 0.147097
0.705409 0 0.135668
0.698619 0 0.0327001
0 0.0928969 0.116075
0.058854 0.0776226 0.087953
0.54873 0.000885023 0.03122
0.68864 0 0.00613413
0.691356 0 4.57771e-05
0 0.428336 0.127398
0 0.376562 0.0746929
0.692607 0.613062 0
0.965713 0.592523 0
0.914061 0.444373 0
0 0.476844 0.0397498
0 0.459617 0
0.466529 0.720958 0
1 0.860716 0
1 0.853284 0
0.466529 0.731319 0
0.374289 0.701686 0
0.772839 0.823758 0
1 0.879057 0
1 0.875242 0
0 0 0.380377
0.0577554 0 0.409857
0.668849 0 0.516136
0.755993 0 0.549004
0.756374 0 0.550591
0 0 0.370275
0.000167849 0 0.339864
0.546777 0 0.422644
0.731929 0 0.454765
0.740642 0 0.451423
0 0.498604 0.613519
0 0.43444 0.53959
0.575326 0.582147 0.573571
0.902586 0.501137 0.550393
0.858351 0.312428 0.48513
0 0.58996 0.659556
0 0.571801 0.58677
0.12694 0.756069 0.593652
0.970413 0.896635 0.567452
1 0.881407 0.466728
0.0116884 0.768505 0.697902
1.5259e-05 0.732982 0.617563
0.609598 0.846738 0.584375
0.962371 0.90457 0.539727
1 0.893965 0.427756
0 0 0.480171
0.000274662 0 0.483787
0.686534 0 0.619013
0.786526 0 0.646418
0.788296 0 0.649439
0 0 0.472877
0 0 0.464836
0.542916 0 0.575555
0.764111 0 0.615442
0.775036 0 0.621515
0 0.413977 0.704021
0 0.305257 0.658015
0.448753 0.375158 0.718563
0.823941 0.176028 0.703365
0.799802 0.00698863 0.650752
0 0.598276 0.765255
0 0.593057 0.758297
0 0.723125 0.802701
0.940291 0.914351 0.849958
0.996017 0.910475 0.847654
0 0.710521 0.813916
0 0.701595 0.805768
0.341009 0.845579 0.827192
0.923095 0.939971 0.85658
0.996353 0.949874 0.855756
0 0 0.509361
0 0 0.509926
0.681468 0 0.644663
0.799329 0 0.670848
0.80029 0 0.671824
0 0 0.507057
0 0 0.50309
0.486778 0 0.608087
0.784009 0 0.656382
0.795163 0 0.663096
0 0.222049 0.636713
0 0.016022 0.556527
0.367407 0.084184 0.626368
0.779934 0.000122072 0.662531
0.793256 0 0.659419
0 0.598001 0.772045
0 0.587869 0.768368
0 0.659998 0.8009
0.924804 0.892851 0.86978
0.98999 0.880003 0.869932
0 0.687861 0.811902
0 0.632532 0.788266
0.0590219 0.804883 0.833539
0.899626 0.938018 0.87628
0.993408 0.950851 0.879927
