media_library/luts/baidu-pack/人像1.cube
TITLE "Generated by Resolve"
LUT_3D_SIZE 33
0 0 0
0 0 0
0 0 0
0 0 0
0.00140383 0 0
0.0150607 3.0518e-05 0
0.0530251 0.000335698 0.000595102
0.109911 0.00329595 0.00282292
0.188602 0.0103151 0.00544747
0.268772 0.0168002 0.00839246
0.347173 0.023209 0.0113527
0.424216 0.0321355 0.0142977
0.496635 0.0425269 0.0166629
0.563348 0.0514992 0.0181888
0.626764 0.0595102 0.0199435
0.687831 0.0683299 0.0205844
0.751461 0.0765698 0.021973
0.819699 0.0848096 0.0238193
0.890089 0.0939803 0.0256352
0.941604 0.100526 0.0275425
0.961715 0.100999 0.0275731
0.962112 0.100999 0.0275731
0.962112 0.100999 0.0275731
0.962112 0.100999 0.0275731
0.962112 0.100999 0.0275731
0.962112 0.100999 0.0275731
0.962112 0.100999 0.0275731
0.962112 0.100999 0.0275731
0.962112 0.100999 0.0275731
0.962112 0.100999 0.0275731
0.962112 0.100999 0.0275731
0.962112 0.100999 0.0275731
0.962112 0.100999 0.0275731
0 0 0
0 0 0
0 0 0
0 0 0
0.000244144 0 0
0.00869764 1.5259e-05 0
0.044419 0.000106813 0.000549325
0.0961776 0.00236515 0.00248722
0.171771 0.00917067 0.00495918
0.253498 0.0155489 0.0080415
0.330953 0.0214542 0.0109102
0.409232 0.0300298 0.0139467
0.482582 0.0404212 0.0162509
0.550011 0.0499428 0.0180819
0.613565 0.0577859 0.0199893
0.674907 0.0664073 0.0204623
0.737789 0.0753338 0.0218204
0.805219 0.0830396 0.0237278
0.875853 0.0920272 0.0255894
0.935317 0.100313 0.0275425
0.961288 0.100999 0.0275731
0.962112 0.100999 0.0275731
0.962112 0.100999 0.0275731
0.962112 0.100999 0.0275731
0.962112 0.100999 0.0275731
0.962112 0.100999 0.0275731
0.962112 0.100999 0.0275731
0.962112 0.100999 0.0275731
0.962112 0.100999 0.0275731
0.962112 0.100999 0.0275731
0.962112 0.100999 0.0275731
0.962112 0.100999 0.0275731
0.962112 0.100999 0.0275731
0 0 0
0 0 0
0 0 0
0 0 0
0 0 0
0.00595102 1.5259e-05 0
0.0361181 4.57771e-05 0.000350958
0.0835431 0.00164797 0.00178531
0.154788 0.00753796 0.00421149
0.236789 0.0141146 0.00735485
0.314549 0.0201419 0.0102083
0.393317 0.0281376 0.0132601
0.46772 0.0382849 0.0157321
0.536233 0.0481575 0.017792
0.600549 0.0560922 0.0195621
0.662425 0.0645762 0.0202945
0.724575 0.0737469 0.0215
0.790997 0.081239 0.0233463
0.861479 0.0901045 0.0252232
0.926375 0.0993057 0.0271763
0.958526 0.100969 0.0275883
0.962112 0.100999 0.0275731
0.962112 0.100999 0.0275731
0.962112 0.100999 0.0275731
0.962112 0.100999 0.0275731
0.962112 0.100999 0.0275731
0.962112 0.100999 0.0275731
0.962112 0.100999 0.0275731
0.962112 0.100999 0.0275731
0.962112 0.100999 0.0275731
0.962112 0.100999 0.0275731
0.962112 0.100999 0.0275731
0.962112 0.100999 0.0275731
0 0 0
0 0 0
0 0 0
0 0 0
0 0 0
0.00415045 1.5259e-05 0
0.0281682 3.0518e-05 0.000122072
0.0712596 0.00102235 0.000991836
0.137819 0.00572213 0.00343328
0.219287 0.012604 0.00653086
0.298054 0.019028 0.00936904
0.37673 0.0263676 0.0124056
0.452338 0.0361486 0.0151675
0.521965 0.0462043 0.0173953
0.587686 0.0544442 0.0188296
0.650004 0.0627298 0.0200961
0.711681 0.0718547 0.0210574
0.776638 0.0793164 0.0226749
0.846723 0.0881819 0.024506
0.914092 0.0974289 0.0263676
0.952865 0.100893 0.0275731
0.962112 0.100999 0.0275731
0.962112 0.100999 0.0275731
0.962112 0.100999 0.0275731
0.962112 0.100999 0.0275731
0.962112 0.100999 0.0275731
0.962112 0.100999 0.0275731
0.962112 0.100999 0.0275731
0.962112 0.100999 0.0275731
0.962112 0.100999 0.0275731
0.962112 0.100999 0.0275731
0.962112 0.100999 0.0275731
0.962112 0.100999 0.0275731
0 0 0
0 0 0
0 0 0
0 0 0
0 0 0
0.00257877 0 0
0.0207065 4.57771e-05 0
0.060441 0.000549325 0.000671397
0.122026 0.00416571 0.00311284
0.202304 0.0112459 0.00582895
0.28191 0.0178531 0.0087129
0.360494 0.0246281 0.0117037
0.437034 0.0339971 0.0146487
0.508141 0.0442512 0.0169833
0.574701 0.052842 0.0182803
0.637644 0.0609598 0.0199588
0.698787 0.0699474 0.0206607
0.762753 0.0775921 0.0221256
0.832029 0.086305 0.0239109
0.901778 0.0955825 0.0257267
0.94696 0.100771 0.0275578
0.962112 0.100999 0.0275731
0.962112 0.100999 0.0275731
0.962112 0.100999 0.0275731
0.962112 0.100999 0.0275731
0.962112 0.100999 0.0275731
0.962112 0.100999 0.0275731
0.962112 0.100999 0.0275731
0.962112 0.100999 0.0275731
0.962112 0.100999 0.0275731
0.962112 0.100999 0.0275731
0.962112 0.100999 0.0275731
0.962112 0.100999 0.0275731
1.5259e-05 0.00267033 0
1.5259e-05 0.00225834 0
1.5259e-05 0.00183108 0
1.5259e-05 0.00141909 0
0 0.000976577 0
0.0011902 0.000564584 0
0.0139925 0.000213626 0
0.0516976 0.000289921 0.00062562
0.107805 0.00318914 0.0027924
0.185885 0.0101625 0.00538643
0.266316 0.0165866 0.00836194
0.344533 0.0228733 0.0113069
0.421775 0.0317998 0.0142824
0.494331 0.0421759 0.0166018
0.561074 0.0512703 0.0181888
0.624567 0.059205 0.0200198
0.685618 0.0679942 0.0205386
0.749187 0.0764324 0.021973
0.817243 0.0845045 0.0238346
0.887846 0.0936599 0.0256809
0.9411 0.100633 0.0275883
0.962112 0.100999 0.0275731
0.962112 0.100999 0.0275731
0.962112 0.100999 0.0275731
0.962112 0.100999 0.0275731
0.962112 0.100999 0.0275731
0.962112 0.100999 0.0275731
0.962112 0.100999 0.0275731
0.962112 0.100999 0.0275731
0.962112 0.100999 0.0275731
0.962112 0.100999 0.0275731
0.962112 0.100999 0.0275731
0.962112 0.100999 0.0275731
0.00294499 0.0221866 0.00267033
0.00259403 0.0200504 0.00234989
0.00224308 0.0178683 0.00201419
0.00187686 0.0156252 0.00167849
0.00154116 0.0134432 0.00135805
0.00144961 0.0114443 0.00114443
0.00924697 0.00950637 0.00106813
0.0427253 0.00834669 0.00140383
0.0955825 0.0111391 0.00247196
0.173556 0.0181277 0.00485237
0.254887 0.0246433 0.00793469
0.331365 0.0302892 0.0106661
0.407523 0.0378576 0.0135958
0.479973 0.0465705 0.0159457
0.547097 0.0548257 0.0178073
0.611032 0.0617685 0.0196384
0.672374 0.0693217 0.0203403
0.735286 0.0772412 0.0218204
0.802609 0.0841688 0.023682
0.873472 0.0923934 0.0255436
0.934279 0.100282 0.0274968
0.961212 0.100999 0.0275731
0.962112 0.100999 0.0275731
0.962112 0.100999 0.0275731
0.962112 0.100999 0.0275731
0.962112 0.100999 0.0275731
0.962112 0.100999 0.0275731
0.962112 0.100999 0.0275731
0.962112 0.100999 0.0275731
0.962112 0.100999 0.0275731
0.962112 0.100999 0.0275731
0.962112 0.100999 0.0275731
0.962112 0.100999 0.0275731
0.0140993 0.0659037 0.0131838
0.0129549 0.0624399 0.0120699
0.0117647 0.0588388 0.0109255
0.0107118 0.0552377 0.00991836
0.00973526 0.0517739 0.00898756
0.00901808 0.0488289 0.00831617
0.0133974 0.0453651 0.00755322
0.0367285 0.0412451 0.00639353
0.0810254 0.0412757 0.00486763
0.158984 0.0475929 0.00436408
0.24622 0.0554208 0.00672923
0.321965 0.0611124 0.00941482
0.394812 0.0665446 0.0121004
0.464515 0.0714885 0.0146334
0.531395 0.0767681 0.0167239
0.595285 0.081529 0.0184787
0.657359 0.0864729 0.0200809
0.720363 0.0918898 0.0215763
0.786923 0.0975204 0.023331
0.857862 0.104021 0.0255283
0.924193 0.110933 0.0274815
0.957626 0.111513 0.0276341
0.962081 0.110719 0.0276188
0.962081 0.109789 0.0276188
0.962097 0.108873 0.0276188
0.962097 0.107958 0.0276036
0.962097 0.107073 0.0276036
0.962097 0.106264 0.0276036
0.962097 0.105455 0.0275883
0.962097 0.104646 0.0275883
0.962112 0.103838 0.0275883
0.962112 0.103395 0.0275883
0.962112 0.103395 0.0275883
0.0299382 0.118547 0.0283513
0.0287022 0.11487 0.0271763
0.0274205 0.110994 0.0259251
0.0263676 0.107256 0.0249332
0.0253605 0.103563 0.0239872
0.0243687 0.0999008 0.0230411
0.0270848 0.0958419 0.0216068
0.0432593 0.0896925 0.0182498
0.0681926 0.0819409 0.0132601
0.123552 0.0810712 0.00854505
0.216297 0.0886244 0.00656138
0.303563 0.0956283 0.00727855
0.380423 0.101152 0.0100862
0.450813 0.106157 0.0129397
0.516335 0.110826 0.0152132
0.579721 0.115328 0.0171969
0.640925 0.119814 0.0192264
0.703883 0.123964 0.0208896
0.769696 0.129625 0.0227054
0.840375 0.135821 0.0254826
0.911635 0.142397 0.0278935
0.95198 0.142824 0.0278325
0.96199 0.140551 0.0277714
0.962005 0.138231 0.0277562
0.962005 0.135866 0.0277562
0.96202 0.133455 0.0277409
0.96202 0.131106 0.0277256
0.962036 0.128847 0.0277104
0.962036 0.126726 0.0276951
0.962051 0.124468 0.0276951
0.962051 0.122225 0.0276799
0.962051 0.120989 0.0276646
0.962051 0.120989 0.0276646
0.0496834 0.177249 0.047425
0.0483253 0.173236 0.0461128
0.0468605 0.168902 0.0446937
0.0454261 0.164691 0.0433204
0.044007 0.16051 0.0419471
0.0425879 0.156298 0.0405737
0.0434882 0.152178 0.0392615
0.0575113 0.147448 0.0360876
0.080827 0.138933 0.0274815
0.106706 0.127611 0.0200504
0.173281 0.124239 0.0153353
0.269276 0.130404 0.00946059
0.358938 0.136141 0.00723278
0.435676 0.140749 0.00991836
0.503136 0.145281 0.0127565
0.566812 0.149401 0.0151064
0.627359 0.153887 0.0171206
0.689296 0.157778 0.0191958
0.754208 0.162737 0.0214084
0.824002 0.168704 0.024033
0.897704 0.174731 0.0267185
0.946273 0.177279 0.0279698
0.961898 0.17499 0.0279393
0.961898 0.17258 0.027924
0.961913 0.170123 0.027924
0.961913 0.167605 0.0279088
0.961929 0.165072 0.0278935
0.961929 0.16257 0.0278782
0.961929 0.160037 0.027863
0.961944 0.157565 0.0278477
0.961944 0.155184 0.0278325
0.961959 0.153918 0.0278325
0.961959 0.153918 0.0278325
0.0728466 0.243137 0.0698253
0.0710613 0.238529 0.0680858
0.0691997 0.233722 0.0662852
0.0673533 0.228962 0.0644999
0.0656138 0.224231 0.0628061
0.0639658 0.219516 0.0612192
0.0632334 0.214893 0.0597391
0.0726329 0.210376 0.0576791
0.0998703 0.204013 0.0508431
0.120333 0.192645 0.0395666
0.153887 0.174273 0.0318151
0.230915 0.166812 0.0252995
0.327153 0.175662 0.0137942
0.416281 0.181598 0.00715648
0.489143 0.183398 0.00849927
0.553674 0.185809 0.0116884
0.615015 0.189487 0.0141146
0.676219 0.193072 0.0162814
0.740337 0.197864 0.0190585
0.808942 0.203479 0.0214389
0.881498 0.208804 0.024033
0.94023 0.213214 0.0262608
0.961776 0.211048 0.0263371
0.961776 0.208499 0.0264439
0.961791 0.206073 0.0265354
0.961807 0.203525 0.0266423
0.961807 0.200961 0.0267491
0.961822 0.198383 0.0268559
0.961822 0.195712 0.026978
0.961837 0.193072 0.0271305
0.961837 0.190539 0.0272679
0.961837 0.189166 0.0273289
0.961837 0.189166 0.0273289
0.0989853 0.314382 0.0951705
0.0970779 0.309453 0.0933089
0.09514 0.304356 0.0914321
0.0932479 0.29929 0.0895857
0.0914015 0.294224 0.0878004
0.0896468 0.289189 0.0861067
0.087953 0.284138 0.0843977
0.0932174 0.27892 0.0823224
0.118669 0.272923 0.0778973
0.141009 0.265187 0.0689708
0.165637 0.249561 0.0552682
0.219059 0.224125 0.044358
0.297688 0.215228 0.0351263
0.391714 0.226398 0.0201724
0.475151 0.232227 0.00865187
0.54345 0.231922 0.00628672
0.604105 0.231022 0.00894179
0.663493 0.2318 0.0118563
0.726436 0.235279 0.0148928
0.793957 0.240177 0.0176699
0.865888 0.245548 0.0207065
0.932342 0.250614 0.0234379
0.960281 0.24892 0.0235142
0.961654 0.246174 0.0238499
0.961669 0.243458 0.0242161
0.961669 0.240742 0.0245518
0.961685 0.238178 0.0246738
0.9617 0.235584 0.0247959
0.9617 0.232944 0.024918
0.961715 0.230274 0.0250706
0.961715 0.227756 0.0251926
0.96173 0.226246 0.0252689
0.96173 0.226246 0.0252689
0.12665 0.387854 0.122026
0.124788 0.38291 0.120211
0.122957 0.377997 0.118425
0.121019 0.372824 0.116564
0.119097 0.36762 0.114702
0.117174 0.362448 0.112825
0.115251 0.357275 0.110964
0.118441 0.35198 0.108934
0.139101 0.346319 0.105699
0.165087 0.339773 0.0999771
0.18349 0.330999 0.0887617
0.225559 0.311299 0.0678416
0.292409 0.278294 0.0542458
0.368353 0.266941 0.0462348
0.456809 0.280797 0.0298161
0.533593 0.289616 0.0123445
0.596658 0.287541 0.00395209
0.654871 0.282811 0.00463874
0.714076 0.280583 0.00822461
0.779339 0.282094 0.0117647
0.850599 0.286229 0.0156405
0.92166 0.290654 0.019089
0.955947 0.289662 0.0195773
0.961517 0.286564 0.019913
0.961532 0.283619 0.0202487
0.961532 0.28069 0.0205692
0.961547 0.277852 0.0207523
0.961563 0.274983 0.0209506
0.961563 0.272145 0.0211337
0.961578 0.269291 0.0213169
0.961593 0.266423 0.0215152
0.961593 0.264759 0.021622
0.961593 0.264759 0.021622
0.153552 0.460883 0.148104
0.152087 0.456565 0.14667
0.1505 0.451972 0.145159
0.148928 0.447349 0.143648
0.147356 0.442756 0.142123
0.145708 0.43801 0.14052
0.143694 0.432685 0.138567
0.1449 0.426795 0.136294
0.160296 0.420066 0.133104
0.188052 0.414557 0.128954
0.206775 0.407736 0.122545
0.232837 0.396292 0.104265
0.302968 0.372076 0.0764019
0.367544 0.33257 0.0648661
0.435706 0.319509 0.0582589
0.519371 0.336828 0.0416571
0.590356 0.350057 0.0214237
0.649714 0.349569 0.00547799
0.70663 0.342535 0.00201419
0.767971 0.336645 0.00355535
0.835309 0.334279 0.00798047
0.909453 0.3355 0.0123598
0.950515 0.334691 0.0142061
0.961349 0.331884 0.0145571
0.961379 0.328634 0.0149538
0.961379 0.325399 0.0153353
0.961395 0.322332 0.0157015
0.96141 0.319081 0.016083
0.96141 0.315847 0.0164645
0.961425 0.312642 0.0168307
0.96144 0.309438 0.0171664
0.961456 0.307561 0.0173648
0.961456 0.307561 0.0173648
0.178546 0.530007 0.172305
0.17702 0.525734 0.17084
0.175418 0.521187 0.169284
0.173785 0.516579 0.167697
0.172045 0.511803 0.166018
0.170306 0.507012 0.16434
0.168414 0.501961 0.162509
0.168368 0.496818 0.160601
0.180056 0.491432 0.158267
0.207202 0.486168 0.155093
0.232349 0.480217 0.15082
0.234516 0.473411 0.143664
0.287205 0.460105 0.113222
0.383917 0.430564 0.0850538
0.438254 0.38793 0.0788434
0.501503 0.374533 0.0713664
0.577081 0.392355 0.0563211
0.642985 0.409216 0.0333715
0.701473 0.413642 0.0123445
0.75993 0.407324 0.00151064
0.824216 0.398962 0.00135805
0.894362 0.392111 0.00256352
0.944976 0.387732 0.00630198
0.961166 0.384756 0.00657664
0.961181 0.380285 0.00741588
0.961212 0.37583 0.00827039
0.961212 0.371466 0.00906386
0.961227 0.367559 0.00972
0.961242 0.364019 0.0102388
0.961257 0.360479 0.0107424
0.961273 0.356909 0.0112459
0.961288 0.354864 0.0115206
0.961288 0.355047 0.0115053
0.200732 0.593515 0.193759
0.199481 0.58967 0.192569
0.198032 0.585382 0.19115
0.196551 0.581079 0.189731
0.195148 0.576974 0.188357
0.193637 0.572625 0.186923
0.192142 0.568292 0.185473
0.191104 0.563958 0.184039
0.199084 0.559228 0.182101
0.225345 0.553643 0.179049
0.252552 0.548028 0.17554
0.264485 0.542779 0.171679
0.270115 0.533806 0.155169
0.35874 0.519738 0.106432
0.458625 0.488731 0.0906996
0.502785 0.44036 0.0926528
0.560494 0.425666 0.0851301
0.63064 0.444877 0.071931
0.693812 0.465766 0.0490425
0.753475 0.47454 0.0219272
0.814679 0.470634 0.00254826
0.881315 0.462455 4.57771e-05
0.939193 0.453437 0.000823987
0.960952 0.449577 0.000869764
0.960967 0.444724 0.00105287
0.960983 0.439979 0.00125124
0.960998 0.435309 0.00143435
0.960998 0.430762 0.00157168
0.961013 0.426322 0.00167849
0.961044 0.42182 0.00178531
0.961059 0.417288 0.00189212
0.961074 0.414679 0.00195315
0.961074 0.414679 0.00195315
0.219455 0.650431 0.21181
0.218173 0.646799 0.210575
0.21677 0.642863 0.209216
0.215366 0.638895 0.207843
0.213947 0.634943 0.206485
0.212543 0.630991 0.205127
0.211154 0.627039 0.203769
0.209903 0.623102 0.202548
0.215732 0.619196 0.201419
0.239643 0.614725 0.199603
0.26714 0.60943 0.196536
0.289693 0.60473 0.193393
0.271519 0.599725 0.189563
0.332753 0.585901 0.15285
0.459113 0.572045 0.102419
0.525505 0.540124 0.103365
0.561257 0.49189 0.105928
0.614984 0.477958 0.0988785
0.680354 0.495933 0.0861219
0.743832 0.519509 0.0627451
0.805676 0.533272 0.0318151
0.869886 0.531899 0.00552377
0.930831 0.525048 3.0518e-05
0.958679 0.519783 0
0.960784 0.514977 0
0.960784 0.509957 0
0.9608 0.504982 0
0.960815 0.499977 0
0.96083 0.495216 0
0.96083 0.49012 0
0.960845 0.485145 0
0.960861 0.482277 0
0.960861 0.482277 0
0.236286 0.705196 0.227985
0.235233 0.701686 0.226963
0.234073 0.697887 0.225849
0.232929 0.694072 0.22475
0.231769 0.690272 0.223636
0.230625 0.686442 0.222538
0.22948 0.682643 0.221424
0.228321 0.678843 0.22034
0.232242 0.675029 0.219242
0.252094 0.670985 0.2177
0.279484 0.666499 0.214984
0.305592 0.661692 0.211612
0.30808 0.657298 0.209705
0.29633 0.649409 0.195224
0.40209 0.637003 0.137392
0.530373 0.624643 0.113619
0.584985 0.589761 0.124422
0.615091 0.542519 0.120256
0.664973 0.528405 0.112703
0.728252 0.545632 0.101183
0.7935 0.571878 0.0773327
0.856641 0.587869 0.0420386
0.918898 0.588907 0.0115358
0.95256 0.585122 0.005066
0.959686 0.580972 0.00367742
0.959945 0.576562 0.00234989
0.960204 0.572122 0.0010071
0.960464 0.567712 0
0.960647 0.56321 0
0.960662 0.558572 0
0.960678 0.554009 0
0.960678 0.551324 0
0.960678 0.551324 0
0.253742 0.760662 0.244617
0.252827 0.757382 0.243809
0.25182 0.753765 0.242924
0.250507 0.749783 0.241657
0.24918 0.745769 0.240375
0.247868 0.741787 0.239109
0.246601 0.737987 0.237888
0.245289 0.733989 0.236622
0.247517 0.73019 0.235569
0.263294 0.726329 0.234272
0.289677 0.721431 0.231312
0.317296 0.716915 0.228916
0.334569 0.712428 0.227115
0.293034 0.707469 0.224613
0.370626 0.691554 0.187182
0.507713 0.682536 0.114031
0.594675 0.675395 0.125338
0.637949 0.638483 0.143771
0.662654 0.588846 0.134539
0.712627 0.576486 0.127977
0.776593 0.594736 0.115099
0.843565 0.6206 0.0903334
0.906935 0.63859 0.0516365
0.946441 0.639643 0.0361028
0.958511 0.636561 0.0322271
0.958511 0.633463 0.0293431
0.958511 0.630137 0.0266423
0.958526 0.626444 0.0243534
0.958526 0.62269 0.0220798
0.958511 0.618906 0.0197757
0.958511 0.615198 0.0175326
0.958511 0.61297 0.0161746
0.958511 0.61297 0.0161746
0.270817 0.815671 0.261143
0.269596 0.812009 0.259922
0.268269 0.80798 0.258534
0.266926 0.803952 0.257176
0.265583 0.799924 0.255818
0.264256 0.795911 0.254459
0.262913 0.791867 0.253101
0.261585 0.787854 0.251743
0.261952 0.783902 0.250492
0.273884 0.780453 0.249638
0.300816 0.776745 0.248096
0.328557 0.772183 0.245655
0.351171 0.767468 0.243809
0.34052 0.761913 0.242802
0.330022 0.753155 0.225772
0.456535 0.737026 0.168521
0.578988 0.731014 0.116808
0.650462 0.721645 0.146395
0.686625 0.683574 0.159823
0.712108 0.63859 0.149645
0.761959 0.626368 0.142687
0.826505 0.642664 0.129686
0.892012 0.667933 0.102831
0.938979 0.679271 0.0791028
0.956497 0.676951 0.0756542
0.956741 0.674357 0.0724804
0.957015 0.671763 0.069337
0.957305 0.669154 0.0661631
0.957565 0.666514 0.0629435
0.957824 0.663905 0.0597848
0.958083 0.661433 0.0567941
0.958267 0.659876 0.054902
0.958267 0.659876 0.054902
0.288624 0.871031 0.278294
0.287343 0.867185 0.277058
0.286 0.863127 0.275776
0.284596 0.858869 0.274403
0.283192 0.854612 0.27306
0.281804 0.850309 0.271733
0.280522 0.846281 0.270497
0.279377 0.84271 0.269398
0.278401 0.839139 0.268315
0.286351 0.835279 0.267216
0.312749 0.831113 0.265721
0.340307 0.827268 0.263676
0.365026 0.82298 0.261494
0.372412 0.81767 0.260014
0.324575 0.811551 0.256825
0.407904 0.795529 0.21857
0.545861 0.784985 0.145571
0.634638 0.781811 0.125338
0.703868 0.770932 0.169268
0.737133 0.731929 0.179614
0.759976 0.685359 0.167147
0.812497 0.673976 0.158724
0.875349 0.688731 0.145113
0.930953 0.707179 0.12462
0.953567 0.705455 0.121096
0.953811 0.703578 0.11812
0.953887 0.701732 0.115175
0.953964 0.69984 0.1122
0.954025 0.697948 0.109163
0.954131 0.696086 0.106142
0.95433 0.694102 0.102937
0.954498 0.692882 0.100923
0.954498 0.692882 0.100923
0.306401 0.9178 0.295552
0.305287 0.915587 0.294469
0.303975 0.91313 0.293172
0.302632 0.910643 0.291859
0.301396 0.907744 0.290639
0.300237 0.904463 0.28954
0.299107 0.901183 0.288426
0.297948 0.897887 0.287312
0.296864 0.894743 0.286275
0.302495 0.890898 0.2851
0.325139 0.886336 0.283589
0.352239 0.882536 0.2813
0.378698 0.87866 0.279088
0.394965 0.873838 0.277333
0.371084 0.868864 0.277119
0.355093 0.860594 0.259983
0.497444 0.841077 0.209308
0.613703 0.83563 0.12163
0.690288 0.833402 0.139437
0.753948 0.818753 0.191073
0.786801 0.779355 0.198886
0.810147 0.733242 0.185794
0.860761 0.721141 0.177905
0.918914 0.73138 0.164309
0.947417 0.731182 0.16022
0.950744 0.729305 0.157778
0.951034 0.727337 0.15523
0.951293 0.725353 0.15259
0.951553 0.723583 0.149889
0.951812 0.721843 0.147158
0.952071 0.720119 0.144427
0.952224 0.719051 0.142748
0.952224 0.719051 0.142748
0.31928 0.944503 0.308186
0.319265 0.943084 0.308186
0.318639 0.941482 0.307591
0.317784 0.939895 0.306752
0.316899 0.938308 0.305882
0.316045 0.936721 0.305028
0.31516 0.935134 0.304173
0.314305 0.933547 0.303319
0.313436 0.93196 0.302464
0.317388 0.930205 0.301534
0.336355 0.928008 0.300267
0.363287 0.925261 0.298329
0.39057 0.922133 0.296056
0.411124 0.919188 0.294255
0.408026 0.916869 0.294514
0.356451 0.913832 0.290639
0.432181 0.900725 0.253681
0.585016 0.887648 0.199435
0.670024 0.886915 0.128573
0.742596 0.88423 0.157855
0.804913 0.870283 0.212192
0.836591 0.829831 0.220157
0.859586 0.781552 0.206043
0.904967 0.765789 0.196963
0.939025 0.764797 0.193835
0.947326 0.761868 0.191531
0.94754 0.759304 0.189258
0.947753 0.756725 0.186923
0.947951 0.754208 0.184665
0.948165 0.751675 0.182391
0.948379 0.749157 0.180117
0.948516 0.7476 0.178698
0.948501 0.747723 0.17882
0.319402 0.962676 0.308003
0.319402 0.961578 0.308019
0.319387 0.960342 0.308019
0.319387 0.959106 0.308034
0.319371 0.9579 0.308049
0.319371 0.95668 0.308064
0.319356 0.955459 0.30808
0.319341 0.954223 0.30808
0.319341 0.953002 0.308095
0.322393 0.951751 0.308095
0.338415 0.950408 0.307912
0.366125 0.948837 0.307088
0.394797 0.947051 0.30544
0.419593 0.945006 0.304494
0.42681 0.943267 0.305089
0.386267 0.942626 0.305913
0.374975 0.940734 0.28777
0.529 0.929244 0.241443
0.653773 0.927413 0.180819
0.722423 0.931533 0.112795
0.795605 0.928283 0.188373
0.854032 0.913741 0.239887
0.880659 0.867216 0.23769
0.900175 0.817563 0.220371
0.933211 0.805844 0.216388
0.94638 0.802701 0.214817
0.946349 0.799725 0.213519
0.946334 0.796826 0.212253
0.946303 0.793881 0.210956
0.946258 0.790768 0.209567
0.946181 0.787457 0.208057
0.946136 0.785412 0.207111
0.946136 0.785412 0.207111
0.319417 0.963867 0.307988
0.319417 0.963867 0.307988
0.319417 0.963867 0.307988
0.319417 0.963867 0.307988
0.319417 0.963867 0.307988
0.319417 0.963867 0.307988
0.319417 0.963867 0.307988
0.319417 0.963867 0.307988
0.319417 0.963867 0.307988
0.320699 0.963867 0.307988
0.332921 0.963775 0.307866
0.360433 0.9635 0.30721
0.388556 0.963027 0.305776
0.414572 0.961929 0.304326
0.426886 0.960555 0.304601
0.399817 0.960113 0.306096
0.3467 0.959716 0.295811
0.487434 0.950729 0.252552
0.641932 0.945525 0.201831
0.709117 0.954162 0.11252
0.780056 0.955245 0.166384
0.846845 0.950652 0.234424
0.884474 0.915511 0.247028
0.905486 0.86746 0.235615
0.929671 0.840055 0.224292
0.947921 0.838926 0.22417
0.947936 0.83772 0.22417
0.947936 0.836378 0.224155
0.947921 0.834699 0.224094
0.947845 0.832456 0.223713
0.947662 0.829541 0.22295
0.94754 0.827726 0.222477
0.94754 0.827726 0.222477
0.319417 0.963867 0.307988
0.319417 0.963867 0.307988
0.319417 0.963867 0.307988
0.319417 0.963867 0.307988
0.319417 0.963867 0.307988
0.319417 0.963867 0.307988
0.319417 0.963867 0.307988
0.319417 0.963867 0.307988
0.319417 0.963867 0.307988
0.319478 0.963867 0.307988
0.328389 0.963806 0.307912
0.35462 0.963577 0.307393
0.382879 0.963149 0.306127
0.410025 0.962493 0.304295
0.42649 0.962036 0.30428
0.414389 0.962417 0.306127
0.333425 0.9635 0.300526
0.446296 0.957763 0.262119
0.6215 0.950881 0.21323
0.696956 0.959503 0.128588
0.765164 0.963302 0.14905
0.834669 0.96286 0.224079
0.87924 0.935988 0.248234
0.902083 0.890196 0.239307
0.924437 0.85391 0.224857
0.947036 0.852964 0.224231
0.947906 0.852888 0.224231
0.947906 0.852201 0.224231
0.947906 0.851148 0.224216
0.947906 0.850095 0.224216
0.947906 0.849027 0.224216
0.947906 0.848371 0.224216
0.947906 0.848371 0.224216
0.319417 0.963867 0.307988
0.319417 0.963867 0.307988
0.319417 0.963867 0.307988
0.319417 0.963867 0.307988
0.319417 0.963867 0.307988
0.319417 0.963867 0.307988
0.319417 0.963867 0.307988
0.319417 0.963867 0.307988
0.319417 0.963867 0.307988
0.319417 0.963867 0.307988
0.326192 0.963821 0.307942
0.348943 0.963638 0.307561
0.377005 0.963241 0.306447
0.404562 0.962646 0.304662
0.424308 0.962097 0.304417
0.420615 0.962249 0.305806
0.347036 0.963363 0.302968
0.417899 0.960006 0.271229
0.593256 0.951415 0.223941
0.684733 0.957366 0.150164
0.750149 0.96318 0.125277
0.821103 0.963607 0.209628
0.872969 0.944427 0.247883
0.897795 0.900191 0.24239
0.91899 0.85774 0.226795
0.943511 0.852949 0.224262
0.947906 0.852964 0.224231
0.947906 0.852964 0.224231
0.947906 0.852964 0.224231
0.947906 0.852964 0.224231
0.947906 0.852964 0.224231
0.947906 0.852964 0.224231
0.947906 0.852964 0.224231
