media_library/luts/baidu-pack/人像1.cube
TITLE "Generated by Resolve"
LUT_3D_SIZE 5
0 0 0
0.188602 0.0103151 0.00544747
0.751461 0.0765698 0.021973
0.962112 0.100999 0.0275731
0.962112 0.100999 0.0275731
0.0299382 0.118547 0.0283513
0.0681926 0.0819409 0.0132601
0.640925 0.119814 0.0192264
0.962005 0.135866 0.0277562
0.962051 0.120989 0.0276646
0.219455 0.650431 0.21181
0.215732 0.619196 0.201419
0.561257 0.49189 0.105928
0.960784 0.514977 0
0.960861 0.482277 0
0.319417 0.963867 0.307988
0.319417 0.963867 0.307988
0.3467 0.959716 0.295811
0.929671 0.840055 0.224292
0.94754 0.827726 0.222477
0.319417 0.963867 0.307988
0.319417 0.963867 0.307988
0.418769 0.96231 0.305959
0.899702 0.896132 0.241184
0.947906 0.852964 0.224231
0.0333867 0.0674449 0.214679
0.130495 0.0108339 0.196338
0.755795 0.0304112 0.105882
0.964492 0.068574 0.0990311
0.963531 0.0743877 0.0863203
0.0144503 0.11516 0.125124
0.0594034 0.0855421 0.0968948
0.635889 0.109316 0.0500343
0.962142 0.127657 0.0449989
0.962158 0.110369 0.0390326
0.2121 0.636408 0.219608
0.208179 0.604639 0.204227
0.546471 0.479728 0.105089
0.960815 0.497505 0
0.960906 0.465095 0.000289921
0.319417 0.963867 0.307988
0.319417 0.963867 0.307988
0.335027 0.955718 0.300404
0.924269 0.836454 0.224765
0.946914 0.817487 0.219791
0.319417 0.963867 0.307988
0.319417 0.963867 0.307988
0.423667 0.962158 0.305562
0.894942 0.906371 0.244266
0.947906 0.852964 0.224231
0.134615 0.313359 0.767987
0.193698 0.222354 0.729473
0.745968 0 0.757107
0.962783 0.00408942 0.72517
0.962722 0.0059968 0.698528
0.110353 0.353033 0.683268
0.148501 0.308904 0.648463
0.641886 0.0361639 0.659495
0.962631 0.0260166 0.605982
0.962615 0.0225681 0.573571
0.00515755 0.608469 0.616541
0.00923171 0.575875 0.585824
0.519142 0.550027 0.562737
0.963394 0.526665 0.478676
0.963211 0.502129 0.447654
0.195407 0.964874 0.4766
0.21062 0.962112 0.427283
0.344564 0.951659 0.296971
0.922942 0.874891 0.488716
0.951507 0.849073 0.460487
0.235431 0.964263 0.324056
0.250507 0.963882 0.259495
0.397559 0.963073 0.319051
0.892744 0.948363 0.428077
0.950927 0.882216 0.399298
0.159121 0.367742 0.909117
0.218814 0.295445 0.896162
0.731914 0 0.964324
0.962951 0 0.964096
0.962951 0 0.964096
0.155322 0.442649 0.918914
0.189364 0.413046 0.912337
0.624018 0.0279698 0.963272
0.962951 0.0101472 0.964096
0.962951 0.00407416 0.964096
0.10161 0.694697 0.950469
0.110369 0.678004 0.948455
0.549371 0.674632 0.931212
0.962707 0.487694 0.964401
0.962722 0.457893 0.962966
0 0.965423 0.961151
0 0.958831 0.957382
0.362173 0.949142 0.953536
0.919341 0.930785 0.938582
0.962982 0.907561 0.9243
0 0.965423 0.942367
0.00030518 0.965423 0.923629
0.2392 0.96524 0.90103
0.830976 0.964645 0.866148
0.961242 0.950225 0.855909
0.159121 0.367742 0.909117
0.21593 0.300587 0.896391
0.721981 0 0.96434
0.962951 0 0.964096
0.962951 0 0.964096
0.155596 0.436316 0.9178
0.184787 0.406256 0.911635
0.61117 0.0231937 0.962982
0.962951 0.00741588 0.964096
0.962951 0.00227359 0.964096
0.104173 0.689067 0.949828
0.111147 0.672251 0.947753
0.539956 0.668833 0.931121
0.962722 0.475227 0.964385
0.962737 0.446052 0.96437
0 0.964889 0.961288
0 0.955749 0.961364
0.347616 0.94432 0.962554
0.91162 0.925582 0.962142
0.963012 0.899611 0.96466
0 0.965423 0.961288
0 0.965423 0.961288
0.225925 0.965255 0.962081
0.828733 0.964797 0.964218
0.964691 0.964691 0.964691
