media_library/luts/baidu-pack/繁花夜景1.cube
#TB：甜心酱Presets
TITLE "Generated by Resolve"
LUT_3D_SIZE 9
0.0153964 0.0140688 0.109941
0.03122 0.0171664 0.111208
0.123751 0.039292 0.0943465
0.323613 0.0537728 0.0530404
0.54023 0.0111086 0.0390936
0.623285 0.0166171 0.0327459
0.636973 0.0175479 0.0317082
0.636973 0.0175479 0.0317082
0.636973 0.0175479 0.0317082
0.00367742 0.0282292 0.112306
0.0256352 0.0292058 0.113848
0.101366 0.0476692 0.10724
0.306157 0.0772259 0.0548714
0.544518 0.0113832 0.0387732
0.642267 0.0178836 0.0312963
0.653773 0.0186618 0.0304112
0.647059 0.018204 0.03093
0.64036 0.0177768 0.0314488
0 0.0707408 0.121889
0 0.0685588 0.121675
0.0794842 0.0797589 0.120806
0.29453 0.120577 0.0741894
0.544396 0.135637 0.0346227
0.664256 0.0522927 0.0271763
0.682704 0.0352026 0.0270695
0.677134 0.0204013 0.0286107
0.669139 0.0196689 0.0292363
0 0.164508 0.129946
0 0.158907 0.129519
0 0.165438 0.127138
0.276219 0.210834 0.0919203
0.590005 0.274327 0.0768597
0.733333 0.261448 0.0317998
0.759258 0.257801 0.0241093
0.737316 0.220493 0.0190738
0.719295 0.187533 0.0199435
0 0.302312 0.118746
0 0.297307 0.119677
0 0.300572 0.117174
0.0774701 0.368017 0.0780652
0.619913 0.467201 0.109895
0.886961 0.499367 0.108736
0.927718 0.487556 0.0986343
0.90103 0.449638 0.0874342
0.86659 0.407111 0.0732586
0 0.415564 0.0763561
0 0.413794 0.0763867
0 0.413733 0.0763867
0 0.484306 0.0757763
0.482704 0.636927 0.0841993
0.955337 0.736126 0.126864
0.974807 0.725048 0.137224
0.968582 0.704799 0.136507
0.960357 0.676707 0.134707
0 0.463798 0.0759442
0 0.463355 0.0759442
0 0.462058 0.0759747
0 0.511009 0.0755322
0.220325 0.673136 0.0779278
0.865736 0.842527 0.105379
1 0.874128 0.12961
1 0.863325 0.130739
1 0.848905 0.132174
0 0.496086 0.0756695
0 0.495903 0.0756695
0 0.494469 0.0756847
0 0.519539 0.0754559
0.0174868 0.643671 0.0747387
0.686625 0.826642 0.0882734
1 0.927489 0.12314
1 0.921584 0.124041
1 0.918242 0.124437
0 0.509422 0.0755627
0 0.509422 0.0755627
0 0.509422 0.0755627
0 0.509819 0.0755627
0 0.608164 0.0746777
0.507286 0.778546 0.0821698
0.987976 0.923415 0.11574
1 0.932219 0.122652
1 0.930999 0.12282
0.0125887 0.0154116 0.12195
0.0281529 0.0184634 0.122225
0.124529 0.0400702 0.106935
0.321782 0.0251011 0.0538796
0.543587 0.0113375 0.0388495
0.627283 0.0168917 0.0324407
0.639033 0.0176852 0.0315404
0.636973 0.0175479 0.0317082
0.636973 0.0175479 0.0317082
0 0.0305943 0.122438
0.0239414 0.0308537 0.122591
0.100175 0.0490578 0.114321
0.303883 0.0719158 0.0549172
0.544839 0.0113985 0.0387579
0.643 0.0179294 0.0312352
0.653162 0.018616 0.030457
0.646403 0.0181582 0.0309758
0.639735 0.017731 0.0314946
0 0.0726177 0.126543
0 0.0699779 0.125261
0.0771801 0.079942 0.12372
0.290806 0.11841 0.0746777
0.540444 0.132555 0.0349432
0.662837 0.0471656 0.0276188
0.682063 0.0338445 0.0272068
0.67628 0.0201419 0.028687
0.668544 0.0196231 0.0292973
0 0.163027 0.130877
0 0.157015 0.129931
0 0.162234 0.12726
0.270527 0.206622 0.0926528
0.584176 0.270222 0.0762646
0.730388 0.257801 0.030869
0.757397 0.254841 0.02327
0.735973 0.218097 0.0191348
0.718074 0.185214 0.0200046
0 0.29987 0.119203
0 0.294987 0.120104
0 0.29781 0.118257
0.0757305 0.363653 0.0780804
0.614908 0.463111 0.109667
0.883803 0.495552 0.108064
0.92546 0.484291 0.0978256
0.898878 0.446876 0.0865644
0.865019 0.405234 0.0725872
0 0.41471 0.0763714
0 0.412619 0.0764019
0 0.412345 0.0764019
0 0.481956 0.0757916
0.479423 0.634485 0.0841077
0.953719 0.733989 0.126757
0.97438 0.72369 0.137179
0.968231 0.703761 0.136431
0.960113 0.675792 0.134661
0 0.463478 0.0759442
0 0.463127 0.0759442
0 0.461814 0.0759747
0 0.510246 0.0755474
0.216739 0.67219 0.0778821
0.864073 0.841825 0.105241
1 0.873732 0.129656
1 0.86302 0.13077
1 0.848615 0.132189
0 0.495842 0.0756695
0 0.495674 0.0756695
0 0.494301 0.0756847
0 0.519036 0.0754559
0.0166629 0.643381 0.0747387
0.686473 0.826551 0.0882734
1 0.927443 0.123156
1 0.921553 0.124041
1 0.918273 0.124437
0 0.509422 0.0755627
0 0.509422 0.0755627
0 0.509422 0.0755627
0 0.509789 0.0755627
0 0.60824 0.0746624
0.508247 0.778836 0.0821851
0.988312 0.923613 0.115831
1 0.932204 0.122652
1 0.930999 0.12282
0 0.00390631 0.186038
0.0190585 0.0150759 0.180377
0.126635 0.0327001 0.17882
0.350851 0 0.153017
0.569528 0.000793469 0.0795758
0.643061 0.014435 0.0315557
0.653025 0.0177615 0.0305486
0.648432 0.0182956 0.0308232
0.645899 0.0181277 0.0310216
0 0.0321508 0.17261
0 0.0347601 0.166583
0.100206 0.0484169 0.165301
0.313466 0.0584726 0.115694
0.554467 0.0087892 0.0383001
0.6551 0.0178683 0.030396
0.663828 0.0193332 0.0296483
0.655009 0.0187381 0.0303197
0.646067 0.018143 0.0310063
0 0.0812238 0.16376
0 0.0776989 0.15845
0.0659953 0.0854353 0.1523
0.282536 0.122011 0.112367
0.538231 0.102342 0.0349889
0.672526 0.0336919 0.0279088
0.692409 0.0224918 0.0273594
0.682368 0.0205539 0.0282292
0.672206 0.0198672 0.0290074
0 0.175097 0.153521
0 0.168338 0.151293
0 0.172107 0.147021
0.265705 0.211276 0.124361
0.584802 0.268132 0.0749218
0.733074 0.25304 0.0281529
0.759793 0.251667 0.0213626
0.736645 0.214252 0.018967
0.716976 0.180575 0.0200351
0 0.31046 0.138521
0 0.304601 0.137591
0 0.305821 0.134249
0.0656901 0.365637 0.0789197
0.612284 0.463111 0.109499
0.882795 0.493233 0.107561
0.922576 0.479332 0.0963607
0.894499 0.441245 0.0847486
0.860792 0.4 0.0708171
0 0.415549 0.0767834
0 0.41326 0.0768597
0 0.411597 0.0767376
0 0.478614 0.0758221
0.470771 0.628275 0.0839246
0.949294 0.729107 0.12639
0.97319 0.719814 0.137041
0.967254 0.700557 0.136263
0.959258 0.672572 0.134417
0 0.462882 0.0759594
0 0.462501 0.0759594
0 0.46125 0.0759594
0 0.507988 0.0755627
0.201617 0.668574 0.0776532
0.858595 0.839277 0.104784
1 0.872526 0.129763
1 0.861448 0.130938
1 0.847272 0.132326
0 0.495171 0.0756847
0 0.495003 0.0756847
0 0.493675 0.0757
0 0.517159 0.0754864
0.0117342 0.640848 0.0746624
0.68098 0.824735 0.088014
1 0.927184 0.123156
1 0.921279 0.124086
1 0.917983 0.124468
0 0.509422 0.0755627
0 0.509422 0.0755627
0 0.509422 0.0755627
0 0.509743 0.0755627
0 0.607217 0.0746929
0.503517 0.777401 0.0820935
0.986984 0.923095 0.115602
1 0.932219 0.122652
1 0.930999 0.12282
0 0 0.312383
0 0 0.305333
0.116854 0 0.31017
0.358328 0 0.315114
0.613825 0 0.311727
0.718181 0 0.287358
0.730831 0 0.252064
0.72018 0 0.199878
0.70457 0 0.144244
0 0 0.294942
0 0 0.287114
0.087541 0.0211337 0.289876
0.328557 0.0089723 0.292744
0.612467 0 0.286656
0.729259 0 0.251759
0.736751 0 0.212253
0.71606 0 0.158419
0.692393 0.00140383 0.106874
0 0.0727245 0.283024
0 0.0705425 0.274968
0.00820935 0.092195 0.269337
0.296376 0.111009 0.270191
0.589883 0.0222324 0.235966
0.737957 0 0.186511
0.747951 0 0.144121
0.722728 0.00555428 0.090959
0.697063 0.0135195 0.0422217
0 0.200809 0.268299
0 0.193118 0.260166
0 0.193347 0.251392
0.234958 0.224262 0.240818
0.554452 0.26157 0.169421
0.717327 0.209659 0.0775616
0.7449 0.2056 0.042649
0.728573 0.164935 0.0188907
0.716518 0.129702 0.0201267
0 0.342138 0.234012
0 0.335668 0.229435
0 0.333745 0.221759
0.0294957 0.382666 0.197177
0.588998 0.457755 0.150164
0.879484 0.487312 0.10631
0.925597 0.477653 0.0950484
0.902541 0.444068 0.084184
0.868238 0.402182 0.0699474
0 0.442512 0.180957
0 0.43975 0.178286
0 0.436027 0.171206
0 0.493172 0.117784
0.457664 0.641474 0.0831922
0.954025 0.742748 0.126589
0.976242 0.728145 0.137362
0.969223 0.706661 0.136629
0.960388 0.67686 0.134844
0 0.475151 0.128176
0 0.47451 0.126131
0 0.47219 0.120012
0 0.513283 0.0808423
0.173816 0.673121 0.0771191
0.856596 0.845396 0.103899
1 0.876585 0.129335
1 0.862516 0.130831
1 0.846632 0.132403
0 0.498787 0.119966
0 0.49868 0.119478
0 0.496376 0.110796
0 0.515419 0.0859236
0.00263981 0.636957 0.0745251
0.67068 0.821866 0.0874952
1 0.926818 0.123156
1 0.920729 0.124147
1 0.917449 0.124544
0 0.509422 0.0755627
0 0.509422 0.0755627
0 0.509422 0.0755627
0 0.509667 0.0755627
0 0.605142 0.0746929
0.495537 0.775006 0.0819562
0.983886 0.921767 0.115053
1 0.93225 0.122652
1 0.930983 0.12282
0 0 0.452873
0 0 0.450065
0.0800946 0 0.460975
0.359243 0 0.488258
0.623148 0 0.501289
0.736996 0 0.494545
0.754131 0 0.47393
0.750484 0 0.438575
0.747158 0 0.401083
0 0 0.451545
0 0 0.445335
0.0350042 0 0.449958
0.330388 0 0.478996
0.620523 0 0.49099
0.748653 0 0.479637
0.763912 0 0.455894
0.75378 0 0.415381
0.744976 0 0.376303
0 0 0.44654
0 0 0.43801
0 0.0246586 0.44126
0.283406 0.0780499 0.467674
0.594842 0 0.472648
0.765164 0 0.45919
0.788632 0 0.433951
0.779004 0 0.390997
0.769406 0 0.352056
0 0.197879 0.465614
0 0.188739 0.455146
0 0.191272 0.451942
0.183062 0.240101 0.456168
0.580697 0.234195 0.456489
0.790707 0.164263 0.418967
0.825803 0.158511 0.379477
0.809445 0.0958114 0.333944
0.794934 0.0313878 0.294591
0 0.384314 0.454917
0 0.377661 0.447059
0 0.374273 0.438666
0 0.420371 0.434943
0.522148 0.471717 0.419821
0.818402 0.490272 0.338872
0.86891 0.472953 0.290776
0.852781 0.437217 0.245426
0.828611 0.388159 0.196597
0 0.498924 0.394888
0 0.496101 0.389899
0 0.490776 0.376989
0 0.542214 0.368673
0.36054 0.654414 0.329183
0.903197 0.735317 0.293523
0.966461 0.72517 0.237034
0.963195 0.702586 0.195499
0.956756 0.669444 0.164996
0 0.527108 0.321584
0 0.526162 0.318898
0 0.522438 0.308919
0 0.556008 0.295644
0.0711986 0.682063 0.234028
0.80354 0.831159 0.131594
1 0.877867 0.129519
1 0.868269 0.13022
1 0.857069 0.13138
0 0.541054 0.292775
0 0.540871 0.292302
0 0.537606 0.283589
0 0.54992 0.267338
0 0.647761 0.212451
0.626337 0.812787 0.0946975
1 0.928252 0.122377
1 0.924102 0.123644
1 0.922896 0.123888
0 0.540978 0.244495
0 0.541207 0.245258
0 0.540246 0.241871
0 0.538384 0.234958
0 0.616281 0.202594
0.449699 0.765011 0.0932784
0.972274 0.913191 0.113207
1 0.929351 0.123033
1 0.928069 0.123201
0 0 0.538216
0 0 0.538796
0.00596628 0 0.554238
0.349401 0 0.599008
0.628473 0 0.6336
0.753384 0 0.645563
0.772824 0 0.638666
0.770306 0 0.619715
0.767956 0 0.598047
0 0 0.555825
0 0 0.553964
0 0 0.5673
0.320943 0 0.613062
0.62356 0 0.645365
0.763912 0 0.64918
0.782208 0 0.637293
0.772229 0 0.608606
0.766186 0 0.582559
0 0 0.57557
0 0 0.570825
0 0 0.581689
0.266285 0.00436408 0.622278
0.595483 0 0.656535
0.778637 0 0.659648
0.806043 0 0.646998
0.797406 0 0.615183
0.788708 0 0.581582
0 0.114687 0.609384
0 0.0973831 0.601923
0 0.120684 0.608576
0.10399 0.23064 0.643687
0.561791 0.220249 0.676509
0.787106 0.115633 0.664988
0.829038 0.114626 0.646647
0.817121 0.0321813 0.608911
0.809659 0 0.573175
0 0.38883 0.668498
0 0.381949 0.662654
0 0.376913 0.658045
0 0.428641 0.678523
0.480568 0.481056 0.690623
0.834562 0.456992 0.683009
0.908171 0.436255 0.65687
0.902281 0.402945 0.618647
0.887343 0.35346 0.572839
0 0.539208 0.658015
0 0.536995 0.6542
0 0.532723 0.645548
0 0.58056 0.658305
0.171878 0.694133 0.654673
0.827619 0.755627 0.662699
0.970321 0.761669 0.619257
0.976242 0.739315 0.582223
0.96347 0.697414 0.53077
0 0.583307 0.60415
0 0.582742 0.601938
0 0.58024 0.592325
0 0.612116 0.591241
0 0.739025 0.587015
0.713924 0.86099 0.564065
0.999054 0.917357 0.567468
0.997772 0.901884 0.523919
0.995575 0.881727 0.475959
0 0.595773 0.557397
0 0.597711 0.557015
0 0.595163 0.548531
0 0.605783 0.538125
0 0.704356 0.535241
0.523751 0.84358 0.497276
0.990967 0.940032 0.470192
1 0.933394 0.404761
1 0.920668 0.326696
0 0.597757 0.486061
0 0.598306 0.487739
0 0.597269 0.482628
0 0.595087 0.472251
0 0.670268 0.472724
0.296712 0.798901 0.438697
0.897307 0.912077 0.408865
1 0.935256 0.365332
1 0.925566 0.321584
0 0 0.597101
0 0 0.599481
0 0 0.616114
0.353429 0 0.668925
0.650111 0 0.71133
0.778943 0 0.724819
0.796231 0 0.723659
0.792523 0 0.713252
0.788998 0 0.703258
0 0 0.614282
0 0 0.615228
0 0 0.631907
0.314961 0 0.683864
0.628153 0 0.723339
0.781552 0 0.733425
0.800504 0 0.727184
0.791257 0 0.708049
0.786587 0 0.696681
0 0 0.631037
0 0 0.628061
0 0 0.643946
0.247944 0.0747539 0.69308
0.590066 0 0.740047
0.788724 0 0.756542
0.821714 0 0.756451
0.815106 0 0.738567
0.807324 0 0.719097
0 0.0935836 0.669963
0 0.0714275 0.664408
0 0.0972305 0.673716
0.0542458 0.231693 0.722911
0.543664 0.226413 0.775326
0.788006 0.113329 0.785245
0.836301 0.0872053 0.78204
0.827268 0 0.762173
0.824308 0 0.743404
0 0.37499 0.757961
0 0.366934 0.754086
0 0.358434 0.754116
0 0.411673 0.78819
0.438605 0.4748 0.825101
0.81857 0.45098 0.846357
0.900847 0.423301 0.835828
0.896757 0.392264 0.814817
0.883375 0.340276 0.786923
0 0.54406 0.800458
0 0.541711 0.798642
0 0.536339 0.79498
0 0.581338 0.82031
0.0816358 0.699428 0.845502
0.785626 0.748318 0.876692
0.95787 0.725948 0.867262
0.968597 0.707393 0.848188
0.960998 0.664088 0.821561
0 0.607691 0.794736
0 0.607446 0.793912
0 0.606043 0.790204
0 0.635813 0.800702
0 0.764645 0.831785
0.647532 0.889708 0.849042
0.972854 0.928344 0.852354
0.990143 0.928481 0.837705
0.988479 0.913893 0.81326
0 0.628977 0.774411
0 0.628977 0.774502
0 0.62739 0.769619
0 0.636164 0.766674
0 0.737392 0.793011
0.393439 0.881529 0.79585
0.927504 0.95996 0.795712
1 0.974945 0.783093
1 0.970947 0.75462
0 0.638407 0.730556
0 0.638468 0.731426
0 0.638193 0.728557
0 0.637613 0.722423
0 0.712627 0.740749
0.128801 0.842283 0.737713
0.829145 0.942458 0.743038
1 0.981674 0.741009
1 0.978775 0.716777
0 0 0.59382
0 0 0.59765
0 0 0.61799
0.337209 0 0.679866
0.646555 0 0.733089
0.793774 0 0.758312
0.817441 0 0.770672
0.817441 0 0.770672
0.817441 0 0.770672
0 0 0.619715
0 0 0.62182
0 0 0.641962
0.299992 0.0690013 0.700374
0.620005 0 0.748531
0.79234 0 0.769451
0.819013 0 0.775967
0.817441 0 0.770672
0.817441 0 0.770672
0 0 0.643656
0 0 0.64242
0 0 0.661601
0.216907 0.184817 0.721706
0.58854 0.163424 0.776379
0.790906 0 0.795209
0.834287 0.0901045 0.805356
0.828641 0.0255741 0.798489
0.824155 0 0.789975
0 0.174594 0.698024
0 0.165118 0.694636
0 0.180896 0.709331
0.0112612 0.288579 0.757321
0.532647 0.323079 0.815595
0.807568 0.279973 0.838865
0.868193 0.283497 0.845899
0.859083 0.237186 0.832105
0.844404 0.151934 0.814267
0 0.393683 0.781918
0 0.388602 0.780056
0 0.380713 0.780682
0 0.436591 0.818433
0.401144 0.510323 0.859785
0.811292 0.496101 0.894072
0.908156 0.46363 0.893339
0.906035 0.430198 0.882872
0.892699 0.373678 0.865721
0 0.542641 0.83212
0 0.54078 0.831449
0 0.536187 0.830076
0 0.578271 0.858503
0.0476234 0.692027 0.89247
0.756802 0.743481 0.939269
0.94931 0.719249 0.94638
0.96286 0.699382 0.939727
0.955032 0.655802 0.92723
0 0.609796 0.849378
0 0.609659 0.849317
0 0.609018 0.848936
0 0.637613 0.865766
0 0.761517 0.909636
0.597604 0.890181 0.946883
0.950851 0.922683 0.967544
0.994675 0.917983 0.963241
0.992554 0.899748 0.954528
0 0.635935 0.85597
0 0.635981 0.856031
0 0.634852 0.854612
0 0.641398 0.856199
0 0.740719 0.897536
0.264714 0.88983 0.923766
0.897322 0.973449 0.958709
0.997803 0.984924 0.956313
0.997391 0.981414 0.946578
0 0.655024 0.852369
0 0.654978 0.852567
0 0.655085 0.852018
0 0.655283 0.850828
0 0.725261 0.877638
0.0432136 0.857755 0.898436
0.787625 0.962463 0.934234
0.992462 0.992294 0.936919
1 0.992248 0.927687
0 0 0.590021
0 0 0.59234
0 0 0.613336
0.314717 0 0.675349
0.628153 0 0.730495
0.790219 0 0.757427
0.817441 0 0.770672
0.817441 0 0.770672
0.817441 0 0.770672
0 0 0.616587
0 0 0.61735
0 0 0.636698
0.27512 0.040589 0.691112
0.599817 0 0.742214
0.786038 0 0.765072
0.818158 0 0.773159
0.817441 0 0.770672
0.817441 0 0.770672
0 0 0.640757
0 0 0.639567
0 0 0.65626
0.188861 0.171649 0.712459
0.567468 0.153735 0.770169
0.783749 0 0.791669
0.830304 0.0568551 0.801526
0.826749 0 0.795941
0.823972 0 0.789868
0 0.154345 0.691035
0 0.145159 0.687953
0 0.155047 0.699153
0 0.267094 0.748287
0.505974 0.308339 0.807355
0.796002 0.265782 0.833539
0.863554 0.266087 0.841077
0.860914 0.244373 0.835447
0.85362 0.208713 0.827115
0 0.378408 0.77644
0 0.372457 0.774289
0 0.36289 0.773877
0 0.415641 0.810468
0.370672 0.49424 0.852522
0.796796 0.490196 0.892668
0.907347 0.467353 0.896773
0.911116 0.453376 0.892989
0.902632 0.418143 0.883391
0 0.538979 0.832914
0 0.537163 0.832364
0 0.532097 0.830808
0 0.566461 0.855207
0.0277714 0.681147 0.893324
0.73434 0.738293 0.941588
0.945373 0.7196 0.953506
0.962936 0.705211 0.9514
0.95671 0.669673 0.944366
0 0.60856 0.852705
0 0.608362 0.852613
0 0.607309 0.852323
0 0.636118 0.871305
0 0.753979 0.916518
0.562036 0.882322 0.955901
0.939864 0.918212 0.983932
0.992676 0.913741 0.986053
0.990692 0.896559 0.983444
0 0.638437 0.868391
0 0.638483 0.868406
0 0.637629 0.868101
0 0.64239 0.870268
0 0.737118 0.91136
0.188632 0.884657 0.942092
0.877562 0.97258 0.988571
0.995331 0.985107 0.994583
0.998886 0.982315 0.99263
0 0.661768 0.879423
0 0.66183 0.87953
0 0.661677 0.879362
0 0.661357 0.878904
0 0.726726 0.906584
0 0.855161 0.933013
0.755917 0.963272 0.979019
0.982559 0.996796 0.993759
0.999542 0.998413 0.992599
