media_library/luts/baidu-pack/繁花白天.cube
#TB：甜心酱Presets
TITLE "Generated by Resolve"
LUT_3D_SIZE 33
0.0250553 0.0361944 0.0395972
0.0268254 0.0364996 0.0402075
0.0292515 0.0368505 0.0407568
0.0358587 0.037583 0.0409094
0.039765 0.0390478 0.0410315
0.0548257 0.0416876 0.0393072
0.0762646 0.0464942 0.0374914
0.096788 0.0518044 0.0352941
0.133745 0.0559854 0.0287327
0.177066 0.0593118 0.0187076
0.224964 0.0606394 0
0.276493 0.0623178 0
0.33579 0.0605936 0
0.395438 0.0480659 0
0.450645 0.0171664 0
0.510277 0.0133669 0
0.557961 0.0144808 0
0.593072 0.0153964 0
0.619257 0.0160678 0
0.637613 0.0165408 0
0.650614 0.0168765 0
0.660395 0.0171359 0
0.666941 0.0173037 0
0.66775 0.0173342 0
0.66775 0.0173342 0
0.66775 0.0173342 0
0.66775 0.0173342 0
0.66775 0.0173342 0
0.66775 0.0173342 0
0.66775 0.0173342 0
0.66775 0.0173342 0
0.66775 0.0173342 0
0.66775 0.0173342 0
0.0215915 0.0392767 0.0397955
0.0248875 0.0396429 0.0404517
0.0272831 0.0397955 0.0409857
0.0333715 0.0402228 0.0411383
0.0377661 0.0413214 0.0411994
0.0495003 0.0432898 0.04065
0.072694 0.0476387 0.0385595
0.0922408 0.0532082 0.0372473
0.126726 0.0577249 0.0317082
0.171954 0.0612497 0.0212863
0.219699 0.0628061 0
0.271702 0.0646677 0
0.330266 0.063386 0
0.392432 0.0553597 0
0.4486 0.0248112 0
0.508873 0.0140993 0
0.558877 0.0145113 0
0.595865 0.0154574 0
0.623301 0.0161746 0
0.642084 0.0166629 0
0.6551 0.0169985 0
0.663722 0.0172274 0
0.669383 0.01738 0
0.668666 0.0173495 0
0.667903 0.0173342 0
0.667781 0.0173342 0
0.667765 0.0173342 0
0.66775 0.0173342 0
0.66775 0.0173342 0
0.66775 0.0173342 0
0.66775 0.0173342 0
0.66775 0.0173342 0
0.66775 0.0173342 0
0.0196689 0.0421912 0.0404059
0.0223545 0.0425116 0.0407568
0.0248875 0.0428931 0.0413825
0.0307012 0.0433814 0.0415961
0.0366064 0.0445106 0.0416876
0.0449683 0.0464942 0.0419776
0.0690471 0.0502022 0.0411994
0.0897841 0.055436 0.0396277
0.119081 0.0603647 0.0354467
0.165805 0.0640574 0.0250858
0.214389 0.0664836 0.0033875
0.265843 0.0684672 0
0.324697 0.0677958 0
0.388128 0.0628367 0
0.445808 0.04094 0
0.505531 0.016022 0
0.559106 0.0145113 0
0.598184 0.0155184 0
0.626642 0.0162661 0
0.646342 0.0167697 0
0.659861 0.0171206 0
0.668925 0.0173648 0
0.675425 0.0175326 0
0.674907 0.0175174 0
0.673213 0.0174716 0
0.671473 0.0174258 0
0.669688 0.01738 0
0.668116 0.0173342 0
0.667811 0.0173342 0
0.667796 0.0173342 0
0.667765 0.0173342 0
0.66775 0.0173342 0
0.66775 0.0173342 0
0.019028 0.0446326 0.0412909
0.0205234 0.0446479 0.041474
0.0241245 0.0451209 0.042298
0.0288243 0.0455787 0.0428931
0.0361486 0.0465858 0.0431067
0.0424506 0.0488594 0.0435492
0.0644694 0.0519112 0.0440223
0.0867628 0.057145 0.0420539
0.113741 0.0627604 0.0387274
0.158587 0.0673381 0.0299535
0.208591 0.0712902 0.0116884
0.261524 0.0744945 0
0.319524 0.075288 0
0.383795 0.0718547 0
0.443748 0.0598459 0
0.501015 0.0226139 0
0.558907 0.0149691 0
0.599695 0.0155642 0
0.629587 0.0163424 0
0.650736 0.0168917 0
0.664729 0.0172427 0
0.674174 0.0174868 0
0.680644 0.0176547 0
0.681132 0.0176699 0
0.679652 0.0176394 0
0.677958 0.0175937 0
0.676234 0.0175479 0
0.674479 0.0175021 0
0.672663 0.0174563 0
0.670802 0.0174105 0
0.668925 0.0173648 0
0.667994 0.0173342 0
0.667826 0.0173342 0
0.0136263 0.049485 0.0432136
0.0140383 0.0491035 0.043061
0.0185092 0.0494087 0.0438087
0.0245518 0.0495613 0.0444495
0.0339208 0.050248 0.0448005
0.0392615 0.051957 0.0452277
0.057084 0.0545205 0.0455482
0.0831006 0.0587472 0.0448005
0.107301 0.0644236 0.0424353
0.150164 0.0697642 0.0344244
0.200732 0.0747997 0.0211337
0.256001 0.0783551 0
0.313695 0.0811017 0
0.379156 0.0805066 0
0.441321 0.0740063 0
0.498466 0.0474403 0
0.554116 0.0197757 0
0.600992 0.01561 0
0.632883 0.0164187 0
0.655314 0.0170138 0
0.669703 0.01738 0
0.679561 0.0176394 0
0.686046 0.0178073 0
0.687541 0.0178378 0
0.686305 0.0178073 0
0.684611 0.0177615 0
0.682887 0.017731 0
0.681163 0.0176852 0
0.679408 0.0176394 0
0.677623 0.0175937 0
0.675792 0.0175326 0
0.673899 0.0174868 0
0.671977 0.0174411 0
0.00549325 0.057969 0.0458534
0.00616464 0.0572518 0.0456397
0.00846876 0.0568093 0.0458381
0.0130617 0.0564279 0.0464332
0.025742 0.0565042 0.0466773
0.0366674 0.057557 0.0471046
0.0475166 0.0592813 0.0474098
0.077821 0.0623484 0.0480354
0.101884 0.0680705 0.0472114
0.141176 0.0740978 0.0401923
0.192721 0.079408 0.0287327
0.249866 0.0829938 0.00270085
0.307622 0.0866102 0
0.372915 0.0877394 0
0.438529 0.0841382 0
0.496681 0.0696117 0
0.553384 0.030808 0
0.60235 0.0170901 0
0.636027 0.0165255 0
0.659648 0.0171206 0
0.675166 0.0175174 0
0.685618 0.017792 0
0.692134 0.0179599 0
0.69453 0.0180209 0
0.69337 0.0179904 0
0.691569 0.0179446 0
0.689845 0.0178988 0
0.688106 0.0178531 0
0.686366 0.0178073 0
0.684565 0.0177615 0
0.682734 0.0177157 0
0.680903 0.0176699 0
0.679057 0.0176242 0
0 0.0682536 0.0492714
0 0.0675975 0.049012
4.57771e-05 0.0669261 0.0487984
0.000946059 0.0665751 0.0490578
0.00662242 0.0663615 0.049073
0.0282902 0.0672007 0.0492256
0.0387732 0.0690623 0.0496223
0.067155 0.0720378 0.0490425
0.0974441 0.0763104 0.0498512
0.132952 0.0814832 0.0478828
0.185519 0.0869764 0.0358587
0.242771 0.0906386 0.0115816
0.301198 0.0946822 0
0.365728 0.0965591 0
0.435157 0.0964065 0
0.495888 0.0890059 0
0.552773 0.0621805 0
0.601816 0.0287175 0
0.639521 0.0185855 0
0.664576 0.0174411 0
0.681422 0.0176852 0
0.692439 0.0179904 0
0.699077 0.0181888 0
0.702358 0.018265 0
0.701244 0.018204 0
0.699382 0.018143 0
0.697536 0.0180972 0
0.695659 0.0180514 0
0.693767 0.0180056 0
0.691829 0.0179599 0
0.689998 0.0179141 0
0.688136 0.0178531 0
0.68629 0.0178073 0
0 0.0788434 0.0532998
0 0.0782635 0.0531014
0 0.0775158 0.052842
0 0.0772259 0.0527047
0.000396735 0.0768902 0.0528572
0.00613413 0.0772412 0.0524147
0.0177768 0.0787976 0.0523537
0.0522774 0.0818647 0.0519722
0.0878004 0.0865644 0.0510719
0.124788 0.0917678 0.0513466
0.178653 0.0970169 0.0452125
0.237064 0.102373 0.0252384
0.297856 0.108064 0.00598154
0.361715 0.112581 0
0.432181 0.11429 0
0.496681 0.111345 0
0.554086 0.0974746 0
0.603967 0.063035 0
0.641093 0.03682 0
0.669398 0.0209506 0
0.687343 0.0186007 0
0.699763 0.0197757 0
0.70753 0.0216068 0
0.711803 0.0206607 0
0.710369 0.0190433 0
0.708232 0.018616 0
0.706203 0.0184939 0
0.704189 0.0183871 0
0.702052 0.0182498 0
0.700023 0.0181582 0
0.698009 0.0181125 0
0.69601 0.0180667 0
0.693965 0.0180056 0
0 0.0893873 0.0568246
0 0.088777 0.0566415
0 0.0881208 0.0564279
0 0.087541 0.0562905
1.5259e-05 0.0873426 0.0565347
0.000259403 0.0874495 0.0562753
0.00280766 0.0887617 0.0557565
0.0261234 0.0914168 0.0552834
0.0749981 0.0964981 0.0540169
0.111391 0.102892 0.0528878
0.167514 0.108019 0.0515755
0.229862 0.113893 0.0386053
0.295369 0.120638 0.0151827
0.35935 0.12726 0.00349432
0.430091 0.131975 0
0.497841 0.132876 0
0.557702 0.127184 0
0.611734 0.11516 0
0.649256 0.0966506 0
0.674662 0.0677348 0
0.693523 0.0513771 0
0.706004 0.0463111 0
0.714214 0.0473182 0
0.719173 0.0420081 0
0.718547 0.0353399 0
0.716518 0.0312963 0
0.713848 0.0280919 0
0.714504 0.023209 0
0.711772 0.0198672 0
0.709285 0.0187991 0
0.707088 0.0185855 0
0.70489 0.0184329 0
0.702678 0.0182956 0
3.0518e-05 0.105928 0.0603189
3.0518e-05 0.10518 0.0601663
3.0518e-05 0.104189 0.0599527
3.0518e-05 0.103029 0.0597086
1.5259e-05 0.102449 0.0598611
1.5259e-05 0.101991 0.0598917
3.0518e-05 0.102464 0.0592508
0.00527962 0.104356 0.058732
0.0580148 0.108141 0.0575418
0.0987564 0.114717 0.0551003
0.151202 0.1205 0.05449
0.220569 0.125826 0.0466926
0.290654 0.132998 0.0222477
0.356924 0.141009 0.0122072
0.427802 0.148058 0.002121
0.49929 0.152346 0
0.56199 0.151537 0
0.618357 0.145083 0
0.661311 0.135683 0
0.688884 0.121538 0
0.707469 0.107256 0
0.719707 0.100023 0
0.728496 0.103441 0
0.734173 0.107988 0
0.733883 0.100175 0
0.730571 0.0864118 0
0.72694 0.0714275 0
0.723629 0.0563821 0
0.720439 0.0406195 0
0.717952 0.0338445 0
0.715679 0.0301213 0
0.712276 0.0268254 0
0.713069 0.0213931 0
4.57771e-05 0.127977 0.063035
4.57771e-05 0.127001 0.0629282
4.57771e-05 0.125765 0.0627756
4.57771e-05 0.124422 0.062623
3.0518e-05 0.123339 0.0626841
4.57771e-05 0.122637 0.0629892
3.0518e-05 0.122637 0.0626535
0.000274662 0.123964 0.062211
0.0248264 0.12665 0.0604562
0.0813153 0.132418 0.0576486
0.130419 0.139803 0.0536202
0.204837 0.145647 0.0483558
0.283192 0.153201 0.0287175
0.35555 0.161379 0.0215
0.427634 0.168078 0.0141604
0.501884 0.1738 0.00267033
0.567056 0.175341 0
0.626261 0.17116 0
0.673518 0.164965 0
0.704753 0.157733 0
0.725567 0.151949 0
0.739559 0.149981 0
0.748959 0.150561 0
0.754925 0.152697 0
0.755932 0.149859 0
0.752285 0.141863 0
0.747539 0.132509 0
0.74287 0.122988 0
0.738262 0.112932 0
0.733867 0.0987564 0
0.729747 0.0829633 0
0.725948 0.066804 0
0.722332 0.0500343 0
0.000106813 0.152117 0.0657054
9.15541e-05 0.151293 0.0656138
9.15541e-05 0.150118 0.0654917
9.15541e-05 0.148638 0.0653239
9.15541e-05 0.147204 0.0652171
9.15541e-05 0.146746 0.0655222
9.15541e-05 0.146654 0.0655375
9.15541e-05 0.148501 0.0650187
0.000747692 0.151476 0.0637369
0.0452125 0.156863 0.0592203
0.104128 0.16556 0.0537423
0.178622 0.174395 0.0415656
0.26714 0.182818 0.0239719
0.351843 0.192264 0.0243992
0.430518 0.19855 0.026627
0.50869 0.203662 0.0192721
0.577432 0.206958 0.00733959
0.636927 0.205051 0
0.688197 0.200214 0
0.723354 0.193973 0
0.745937 0.187915 0
0.760693 0.184649 0
0.770489 0.183917 0
0.777035 0.185718 0
0.780163 0.186496 0
0.77702 0.181399 0
0.772244 0.174685 0
0.767285 0.16762 0
0.762249 0.16025 0
0.757137 0.151141 0
0.75198 0.141222 0
0.746868 0.131106 0
0.741848 0.120836 0
0.00015259 0.177768 0.0687419
0.00015259 0.176928 0.0686503
0.00015259 0.175921 0.068513
0.00015259 0.174502 0.0683452
0.00015259 0.172869 0.0681468
0.000137331 0.172396 0.0681926
0.000137331 0.172366 0.0682841
0.00015259 0.1738 0.0674449
0.000167849 0.177172 0.0661631
0.00355535 0.182208 0.0616312
0.0680552 0.19147 0.0539406
0.145312 0.202823 0.0358282
0.241245 0.215656 0.0158541
0.338537 0.228824 0.019791
0.42829 0.237827 0.0301976
0.51667 0.243503 0.0342107
0.593378 0.24712 0.027863
0.65568 0.247593 0.0162356
0.709117 0.244221 0.00306706
0.746838 0.238712 0
0.770932 0.232105 0
0.786801 0.227588 0
0.796857 0.22536 0
0.803784 0.22565 0
0.808576 0.227008 0
0.805478 0.221622 0
0.799817 0.213687 0
0.794141 0.205615 0
0.788388 0.197345 0
0.782956 0.1897 0
0.777768 0.182483 0
0.772366 0.174868 0
0.766964 0.167178 0
0.000228885 0.206287 0.0692454
0.000228885 0.205478 0.0692607
0.000228885 0.204349 0.0692912
0.000213626 0.202914 0.069337
0.000213626 0.201221 0.0693675
0.000213626 0.199939 0.0694896
0.000213626 0.199908 0.0699168
0.000213626 0.201312 0.0695048
0.000228885 0.204623 0.0680247
0.000259403 0.209995 0.0636759
0.00662242 0.21857 0.0541238
0.101534 0.231373 0.0295872
0.207462 0.247349 0.00691234
0.314275 0.2654 0.0119631
0.415244 0.279011 0.0256809
0.513878 0.287221 0.037995
0.60647 0.29189 0.0421607
0.676844 0.292424 0.0368353
0.734173 0.289799 0.0256962
0.776593 0.285695 0.0144198
0.802731 0.280095 0.00564584
0.819425 0.275639 0
0.829816 0.273533 0
0.837064 0.27361 0
0.842268 0.274815 0
0.840116 0.270039 0
0.833814 0.261311 0
0.826886 0.251698 0
0.820081 0.241993 0
0.813504 0.232746 0
0.807218 0.224033 0
0.801038 0.215412 0
0.794797 0.206592 0
0.000320439 0.23888 0.0677195
0.000320439 0.238102 0.0677653
0.000320439 0.236988 0.0678111
0.00030518 0.235492 0.0678874
0.00030518 0.233707 0.0679942
0.00030518 0.231556 0.0681163
0.00030518 0.23154 0.0683146
0.00030518 0.232334 0.0682689
0.000320439 0.235569 0.0664988
0.000350958 0.241276 0.063447
0.000411994 0.250019 0.0516518
0.0384222 0.263218 0.0164187
0.160403 0.281498 0.00268559
0.279652 0.303151 0.00477607
0.392142 0.322606 0.0176394
0.500359 0.334874 0.0332952
0.606561 0.341909 0.0458991
0.69308 0.343603 0.0502327
0.759609 0.340429 0.046067
0.809354 0.335607 0.0373388
0.839643 0.330159 0.0286412
0.857954 0.325124 0.021912
0.86923 0.322576 0.0178988
0.876982 0.322454 0.0162051
0.882567 0.3243 0.0161898
0.882216 0.321828 0.014725
0.875792 0.313909 0.0111849
0.867826 0.304479 0.0071107
0.859709 0.294713 0.00294499
0.851743 0.284886 0
0.844144 0.27509 0
0.8365 0.264927 0
0.828779 0.254398 0
0.000427253 0.274281 0.0627298
0.000427253 0.273594 0.0628519
0.000427253 0.27245 0.0630503
0.000427253 0.271015 0.0633097
0.000411994 0.269215 0.0636149
0.000411994 0.267109 0.0639963
0.000411994 0.266392 0.0641642
0.000411994 0.267185 0.0644846
0.000427253 0.270222 0.0626841
0.000457771 0.276402 0.0578775
0.000549325 0.285542 0.0424048
0.00102235 0.300587 0.0096437
0.100801 0.3205 0.000946059
0.234928 0.343404 0.0009308
0.357885 0.36878 0.0083772
0.475685 0.387594 0.0238804
0.594125 0.398688 0.0407721
0.696986 0.403677 0.0527504
0.778485 0.401999 0.0584268
0.840803 0.396338 0.0568704
0.879622 0.389075 0.051606
0.900908 0.381674 0.0456092
0.913832 0.377325 0.0413214
0.921767 0.37557 0.0389715
0.927718 0.376791 0.0385595
0.929992 0.376791 0.0381323
0.924239 0.369589 0.0351263
0.915694 0.359792 0.0310521
0.906828 0.349676 0.0267796
0.898009 0.339529 0.0224918
0.889052 0.329351 0.0179446
0.880217 0.319097 0.0134585
0.871382 0.308705 0.00892653
0.000549325 0.308171 0.0548257
0.000549325 0.307774 0.054902
0.000549325 0.306844 0.0551308
0.000549325 0.305638 0.055436
0.000534066 0.304097 0.0558328
0.000534066 0.302312 0.0563058
0.000518807 0.30045 0.0567636
0.000534066 0.30164 0.0566262
0.000549325 0.304479 0.0551614
0.000595102 0.31107 0.0468299
0.000701915 0.321782 0.0271458
0.000839246 0.338659 0.00540169
0.0236973 0.361288 0.000686656
0.175341 0.386267 0.000808728
0.31458 0.413687 0.00221256
0.436973 0.44007 0.0121462
0.565499 0.458579 0.0297551
0.687495 0.469352 0.0466926
0.784329 0.472541 0.0585794
0.861616 0.468681 0.0659342
0.914183 0.46154 0.067628
0.943252 0.451865 0.0656291
0.959747 0.444465 0.0628977
0.968811 0.44036 0.0609751
0.974701 0.439551 0.0601816
0.978714 0.440238 0.0600595
0.974227 0.432853 0.0578775
0.966079 0.421668 0.05449
0.957641 0.410483 0.0507362
0.94902 0.399344 0.0467384
0.939834 0.387884 0.0424048
0.930434 0.376761 0.0380255
0.920974 0.365835 0.0335851
0.000701915 0.338521 0.0393683
0.000701915 0.33817 0.0395666
0.000686656 0.337469 0.0399786
0.000686656 0.336446 0.0405737
0.000686656 0.335195 0.0413062
0.000671397 0.333852 0.0420386
0.000671397 0.332174 0.0430304
0.000671397 0.33283 0.0428016
0.000686656 0.335744 0.0404364
0.000747692 0.342168 0.0290379
0.000854505 0.353765 0.0106203
0.0009308 0.371893 0.00195315
0.0010071 0.396796 0.000762951
0.09337 0.424567 0.0009308
0.258625 0.45481 0.00112917
0.395727 0.485344 0.00424201
0.524193 0.512093 0.0167086
0.661082 0.53167 0.0354772
0.775952 0.541878 0.051545
0.868406 0.543725 0.0635691
0.936538 0.539528 0.0712902
0.977035 0.5299 0.0749676
0.996399 0.520638 0.0758373
1 0.515084 0.076051
1 0.512764 0.0762798
1 0.512444 0.0765087
0.999466 0.505852 0.0755779
0.998367 0.494408 0.0735332
0.996933 0.481956 0.0708934
0.995178 0.469261 0.0677195
0.989654 0.456275 0.0643473
0.981414 0.443351 0.0608835
0.972503 0.43064 0.0572671
0.000915541 0.367422 0.00418097
0.000915541 0.367086 0.00462348
0.000915541 0.366506 0.00541695
0.000900282 0.365652 0.00660716
0.000885023 0.364553 0.00807202
0.000885023 0.36318 0.00993362
0.000869764 0.361654 0.0119936
0.000854505 0.3608 0.0141909
0.000854505 0.363989 0.0156558
0.000900282 0.370245 0.00955215
0.000961318 0.381857 0.00239567
0.0010071 0.39971 0.000793469
0.00108339 0.425086 0.000854505
0.014313 0.455146 0.000976577
0.186191 0.48835 0.00125124
0.3514 0.523033 0.00167849
0.481468 0.553704 0.00720226
0.621851 0.582071 0.0228428
0.753262 0.601328 0.0410315
0.859495 0.61001 0.0560922
0.943587 0.610849 0.0675212
0.991653 0.605219 0.0745098
1 0.596475 0.0782483
1 0.590646 0.0801709
1 0.588022 0.0811475
1 0.587594 0.0816358
1 0.583825 0.0817578
1 0.573632 0.081529
1 0.561059 0.0810712
1 0.547829 0.0803235
1 0.53431 0.0792554
1 0.520653 0.0777295
0.999527 0.506691 0.0757
0.0010071 0.395361 0.000747692
0.000991836 0.395132 0.000747692
0.000991836 0.394659 0.000747692
0.000991836 0.393927 0.000747692
0.000991836 0.392966 0.000747692
0.000991836 0.391836 0.000732433
0.000991836 0.390463 0.000717174
0.000976577 0.38883 0.000732433
0.000991836 0.391485 0.000732433
0.0010071 0.397238 0.000747692
0.00103761 0.408392 0.000793469
0.00106813 0.425223 0.000854505
0.00114443 0.450172 0.0009308
0.0030518 0.481849 0.00103761
0.0998703 0.516808 0.0012665
0.286473 0.555184 0.0015259
0.436622 0.590143 0.00276188
0.572931 0.622065 0.0115511
0.716472 0.650492 0.0287633
0.838178 0.667155 0.0459297
0.937118 0.673091 0.0602884
0.991043 0.671565 0.0700847
1 0.664988 0.0759136
1 0.659785 0.0791485
1 0.656764 0.0807355
1 0.655283 0.0813306
1 0.654017 0.0816815
1 0.647593 0.0820478
1 0.637491 0.0822919
1 0.625681 0.0823224
1 0.613321 0.0822614
1 0.600717 0.0821088
1 0.587747 0.0818799
0.00105287 0.418235 0.000839246
0.00105287 0.418143 0.000823987
0.00105287 0.417884 0.000823987
0.00105287 0.417487 0.000823987
0.00105287 0.416876 0.000823987
0.00105287 0.415991 0.000823987
0.00105287 0.414939 0.000823987
0.00103761 0.413703 0.000808728
0.00105287 0.414343 0.000808728
0.00106813 0.420066 0.000839246
0.00108339 0.430549 0.000869764
0.00112917 0.44683 0.0009308
0.0011902 0.470283 0.0010071
0.0012665 0.502571 0.00108339
0.0244907 0.539773 0.00120546
0.214237 0.580758 0.00154116
0.388373 0.621241 0.00172427
0.5243 0.65594 0.00479133
0.66894 0.690166 0.0169375
0.803418 0.716655 0.0338293
0.916701 0.730465 0.0501411
0.986343 0.734722 0.0627909
1 0.731167 0.0707256
1 0.725383 0.0752728
1 0.719127 0.0770428
1 0.714229 0.0776226
1 0.711772 0.0778668
1 0.705882 0.0784009
1 0.697673 0.079118
1 0.688624 0.0798047
1 0.679271 0.080415
1 0.669566 0.0809796
1 0.659724 0.0814984
0.00109865 0.43473 0.000885023
0.00109865 0.434699 0.000885023
0.00109865 0.434546 0.000885023
0.00109865 0.434256 0.000885023
0.00109865 0.433921 0.000885023
0.00109865 0.433448 0.000885023
0.00109865 0.432898 0.000869764
0.00108339 0.432151 0.000885023
0.00108339 0.431189 0.000869764
0.00109865 0.436561 0.000900282
0.00112917 0.445869 0.0009308
0.00115969 0.461418 0.000976577
0.00122072 0.483558 0.00103761
0.00129702 0.514763 0.00111391
0.00140383 0.553017 0.0011902
0.119799 0.595575 0.00148013
0.319921 0.641306 0.00175479
0.477409 0.681086 0.00238041
0.619959 0.718029 0.0087129
0.761257 0.752255 0.0227054
0.884565 0.77528 0.0390631
0.976959 0.786801 0.0537423
1 0.789029 0.0637522
1 0.784115 0.0689555
1 0.776638 0.0708171
1 0.770474 0.0715648
1 0.766461 0.0720531
1 0.761334 0.0726635
1 0.753918 0.073518
1 0.745739 0.0744335
1 0.737148 0.0753643
1 0.728176 0.0762646
1 0.719097 0.0771801
0.00112917 0.447105 0.0009308
0.00112917 0.447074 0.0009308
0.00112917 0.446983 0.0009308
0.00112917 0.446784 0.0009308
0.00112917 0.446525 0.0009308
0.00112917 0.446189 0.0009308
0.00112917 0.445747 0.0009308
0.00112917 0.445243 0.0009308
0.00112917 0.444709 0.000915541
0.00112917 0.447517 0.0009308
0.00115969 0.456321 0.000961318
0.0011902 0.470497 0.0010071
0.00123598 0.490761 0.00105287
0.00131228 0.519677 0.00111391
0.00140383 0.557305 0.00120546
0.0415045 0.599786 0.00137331
0.242069 0.647471 0.00172427
0.424887 0.69247 0.00192264
0.568536 0.732433 0.00436408
0.714488 0.771832 0.014313
0.846906 0.803616 0.0292973
0.959838 0.823194 0.0448005
1 0.832212 0.056611
1 0.829847 0.0625315
1 0.822965 0.0645457
1 0.817777 0.0653086
1 0.813931 0.0658579
1 0.810071 0.0664073
1 0.804273 0.0672007
1 0.797604 0.0681163
1 0.790738 0.0690318
1 0.78349 0.0699626
1 0.775341 0.0709697
0.00115969 0.457145 0.000961318
0.00115969 0.457145 0.000961318
0.00115969 0.457084 0.000961318
0.00115969 0.456962 0.000961318
0.00115969 0.456748 0.000961318
0.00114443 0.456474 0.000961318
0.00114443 0.456123 0.000961318
0.00114443 0.455726 0.000961318
0.00114443 0.455253 0.000961318
0.00114443 0.454704 0.000961318
0.00117494 0.462989 0.000991836
0.00120546 0.476387 0.00102235
0.00125124 0.494987 0.00105287
0.00131228 0.520714 0.00111391
0.00140383 0.556374 0.00120546
0.0116884 0.598733 0.00131228
0.172274 0.646067 0.00164797
0.364996 0.694881 0.00192264
0.517418 0.737728 0.00257877
0.663951 0.779309 0.00848402
0.802502 0.817319 0.0209201
0.92546 0.844755 0.0363928
0.989929 0.8607 0.0496986
1 0.86302 0.0569772
1 0.857435 0.0593423
1 0.852338 0.0601358
1 0.849271 0.0606088
1 0.846967 0.0609598
1 0.843091 0.0615549
1 0.838056 0.0623178
1 0.832929 0.0630808
1 0.827756 0.063859
1 0.822278 0.0646525
0.00117494 0.465476 0.000976577
0.00117494 0.465476 0.000976577
0.00117494 0.465446 0.000976577
0.00117494 0.465354 0.000976577
0.00117494 0.465187 0.000976577
0.00117494 0.464973 0.000976577
0.00117494 0.464714 0.000991836
0.00117494 0.464408 0.000991836
0.00117494 0.464088 0.000991836
0.00117494 0.463676 0.000991836
0.0011902 0.46862 0.0010071
0.00122072 0.48072 0.00102235
0.0012665 0.49839 0.00106813
0.00132753 0.521416 0.00111391
0.00138857 0.553567 0.0011902
0.00149538 0.594629 0.00128176
0.0819104 0.640574 0.00151064
0.288151 0.6916 0.0018616
0.465278 0.737545 0.00204471
0.612604 0.780453 0.00497444
0.75555 0.82182 0.014374
0.884535 0.855512 0.0284581
0.976379 0.878019 0.0427558
1 0.886976 0.0519875
1 0.883925 0.0551003
1 0.878874 0.0559243
1 0.875853 0.0564126
1 0.874006 0.0567178
1 0.871778 0.057084
1 0.86836 0.0576181
1 0.864363 0.0582589
1 0.860304 0.0588846
1 0.856107 0.059556
0.0011902 0.471931 0.0010071
0.0011902 0.471962 0.0010071
0.0011902 0.471962 0.0010071
0.0011902 0.471916 0.0010071
0.0011902 0.471809 0.0010071
0.0011902 0.471656 0.0010071
0.0011902 0.471458 0.0010071
0.0011902 0.471214 0.0010071
0.0011902 0.470954 0.0010071
0.0011902 0.470634 0.0010071
0.0011902 0.471244 0.0010071
0.00122072 0.482597 0.00103761
0.0012665 0.500069 0.00108339
0.00131228 0.521889 0.00112917
0.00138857 0.550332 0.0011902
0.00148013 0.588663 0.0012665
0.0285039 0.633265 0.00141909
0.215122 0.683391 0.00178531
0.409506 0.732967 0.00204471
0.558877 0.776745 0.00303655
0.706661 0.820386 0.00949111
0.841169 0.858839 0.0215763
0.959304 0.887236 0.0361486
1 0.903151 0.0472267
1 0.904143 0.0514839
1 0.899763 0.052491
1 0.896468 0.0530251
1 0.894408 0.0533608
1 0.892699 0.0536507
1 0.890455 0.0540322
1 0.887709 0.05449
1 0.884749 0.0549783
1 0.881575 0.0554971
0.00120546 0.47866 0.00103761
0.00120546 0.478706 0.00103761
0.00120546 0.478721 0.00103761
0.00120546 0.47866 0.00103761
0.00120546 0.478508 0.00103761
0.00120546 0.47834 0.00102235
0.00120546 0.478126 0.00102235
0.00120546 0.477913 0.00102235
0.00120546 0.477623 0.00102235
0.00120546 0.477302 0.00102235
0.00120546 0.476936 0.00102235
0.00122072 0.484627 0.00103761
0.0012665 0.500847 0.00106813
0.00132753 0.522042 0.00111391
0.00138857 0.547799 0.00117494
0.00146487 0.582116 0.00125124
0.00157168 0.62446 0.00134279
0.137591 0.672389 0.00167849
0.344564 0.723842 0.00198367
0.508385 0.769604 0.00227359
0.65507 0.813611 0.00602731
0.794812 0.855375 0.0158236
0.92079 0.888945 0.0298161
0.988937 0.911879 0.0429541
1 0.917708 0.0488136
1 0.914687 0.0499886
1 0.911788 0.0504768
1 0.909834 0.0508125
1 0.908583 0.0510109
1 0.907118 0.0512551
1 0.905364 0.051545
1 0.903487 0.0518807
1 0.901167 0.0522621
0.00123598 0.487739 0.00103761
0.00123598 0.487816 0.00103761
0.00123598 0.487877 0.00103761
0.00123598 0.487831 0.00103761
0.00123598 0.487694 0.00105287
0.00123598 0.487495 0.00105287
0.00123598 0.487221 0.00105287
0.00123598 0.48687 0.00105287
0.00123598 0.486442 0.00105287
