media_library/luts/baidu-pack/繁花夜景2.cube
#TB：甜心酱Presets
TITLE "Generated by Resolve"
LUT_3D_SIZE 33
0.0250248 0.0362097 0.0396277
0.0268254 0.0365148 0.040238
0.0293736 0.0368658 0.0407874
0.0360571 0.0376287 0.0409247
0.0403143 0.0391394 0.0410468
0.0557259 0.0420233 0.039353
0.0770581 0.0471504 0.0379187
0.0982986 0.0527047 0.0359503
0.135897 0.0573434 0.0298619
0.179782 0.0614176 0.0199893
0.228229 0.0640726 0
0.281239 0.0671092 0
0.34168 0.0659648 0
0.401129 0.0519722 0
0.458015 0.0211032 0
0.514534 0.0223087 0
0.55996 0.0242771 0
0.592767 0.0256962 0
0.617166 0.0267491 0
0.633921 0.0274815 0
0.645975 0.0280003 0
0.654917 0.028397 0
0.660136 0.0286259 0
0.660136 0.0286259 0
0.660136 0.0286259 0
0.660136 0.0286259 0
0.660136 0.0286259 0
0.660136 0.0286259 0
0.660136 0.0286259 0
0.660136 0.0286259 0
0.660136 0.0286259 0
0.660136 0.0286259 0
0.660136 0.0286259 0
0.0215915 0.0392767 0.0398108
0.0249638 0.0396277 0.0404822
0.027451 0.0397955 0.041001
0.0336767 0.0402533 0.0411383
0.0384222 0.0413977 0.0411994
0.0508888 0.0436255 0.0406653
0.074052 0.0483406 0.0389563
0.0941634 0.054139 0.0378424
0.130053 0.0590677 0.0325017
0.17583 0.0633097 0.0220188
0.224277 0.0661784 0.000228885
0.27744 0.0693675 0
0.337667 0.0690013 0
0.399741 0.0593118 0
0.455329 0.0289006 0
0.514565 0.0223087 0
0.562051 0.0243687 0
0.596277 0.0258488 0
0.621607 0.0269474 0
0.63859 0.0276799 0
0.650339 0.0281987 0
0.658 0.0285344 0
0.662104 0.0287022 0
0.660609 0.0286412 0
0.660136 0.0286259 0
0.660136 0.0286259 0
0.660136 0.0286259 0
0.660136 0.0286259 0
0.660136 0.0286259 0
0.660136 0.0286259 0
0.660136 0.0286259 0
0.660136 0.0286259 0
0.660136 0.0286259 0
0.0196689 0.0421912 0.0404059
0.022446 0.0425116 0.0407721
0.0251621 0.0429084 0.0413825
0.0311742 0.0434272 0.0415808
0.0372625 0.0446174 0.0416724
0.0468757 0.0467231 0.0420539
0.0710918 0.0508888 0.0415045
0.0920577 0.0564126 0.0401923
0.123232 0.061677 0.035996
0.171008 0.0661021 0.0255131
0.219974 0.069749 0.00587472
0.272999 0.0730907 0
0.333684 0.0735943 0
0.397452 0.0678111 0
0.454185 0.0440986 0
0.51281 0.0222324 0
0.563607 0.0244297 0
0.599619 0.0260014 0
0.625528 0.0271153 0
0.64329 0.0278935 0
0.655299 0.0284123 0
0.663417 0.0287633 0
0.668177 0.0289616 0
0.666468 0.0289006 0
0.664775 0.0288243 0
0.66302 0.028748 0
0.661311 0.0286717 0
0.660136 0.0286259 0
0.660136 0.0286259 0
0.660136 0.0286259 0
0.660136 0.0286259 0
0.660136 0.0286259 0
0.660136 0.0286259 0
0.0190433 0.0446174 0.0412604
0.020737 0.0446326 0.0414893
0.0244602 0.0451362 0.0423285
0.0294347 0.0456092 0.0428931
0.0368963 0.0467384 0.0431067
0.0444495 0.049134 0.043595
0.0670939 0.0526284 0.0441596
0.089662 0.0582589 0.0425269
0.118334 0.0641794 0.0392462
0.164981 0.0694896 0.0303197
0.215671 0.0746624 0.0133516
0.269993 0.0793317 0
0.330037 0.0813153 0
0.394903 0.0782025 0
0.453742 0.0623484 0
0.511421 0.0252842 0
0.564858 0.0244907 0
0.602121 0.0261082 0
0.629297 0.0272831 0
0.648096 0.0280919 0
0.660426 0.0286259 0
0.668727 0.0289921 0
0.673548 0.0291905 0
0.672724 0.02916 0
0.671061 0.029099 0
0.669352 0.0290227 0
0.667597 0.0289464 0
0.665827 0.0288701 0
0.664027 0.0287785 0
0.662165 0.0287022 0
0.660609 0.0286412 0
0.660136 0.0286259 0
0.660136 0.0286259 0
0.0136568 0.0493782 0.0431525
0.0143282 0.049012 0.0430304
0.0191348 0.0493477 0.0438392
0.0255589 0.0495308 0.0444648
0.0348821 0.0503395 0.0448005
0.0411383 0.0521859 0.0452277
0.0607919 0.054963 0.0458839
0.0865339 0.0598459 0.0451667
0.112535 0.065919 0.0427405
0.157733 0.0719615 0.0348363
0.209583 0.0781415 0.0216526
0.265721 0.08336 0.00233463
0.32575 0.0876478 0
0.39237 0.0879835 0
0.45359 0.0788128 0
0.508965 0.0488746 0
0.564401 0.0244602 0
0.604654 0.026215 0
0.633417 0.027451 0
0.653101 0.0283207 0
0.665629 0.0288548 0
0.67422 0.029221 0
0.679133 0.0294347 0
0.67924 0.0294499 0
0.677546 0.0293736 0
0.675822 0.0292973 0
0.674098 0.029221 0
0.672358 0.0291447 0
0.670588 0.0290684 0
0.668772 0.0289921 0
0.666941 0.0289158 0
0.665049 0.0288396 0
0.663645 0.0287785 0
0.00556954 0.0577401 0.0457618
0.00637827 0.0570077 0.0455787
0.00903334 0.0565957 0.0458381
0.0145266 0.05626 0.0464332
0.0278019 0.0564126 0.0466621
0.0384985 0.0576181 0.0470893
0.0516976 0.0595407 0.0474556
0.0825055 0.0632486 0.0486305
0.107515 0.0695811 0.0474556
0.149569 0.076173 0.0403906
0.203006 0.0825208 0.0283818
0.261097 0.0879683 0.00587472
0.321111 0.09337 0
0.388296 0.0957809 0
0.453147 0.091371 0
0.509178 0.0709544 0
0.5626 0.0329595 0
0.607538 0.0263371 0
0.637385 0.0276341 0
0.658106 0.0285344 0
0.671382 0.0291142 0
0.680339 0.0294957 0
0.685328 0.0297093 0
0.686213 0.0297551 0
0.684413 0.0296635 0
0.682643 0.0296025 0
0.680919 0.0295262 0
0.679133 0.0294499 0
0.677363 0.0293736 0
0.675547 0.0292821 0
0.673701 0.0292058 0
0.67187 0.0291295 0
0.670527 0.0290684 0
0 0.0679789 0.0491493
0 0.067277 0.0488899
0.000106813 0.0666361 0.0487221
0.00158694 0.0663005 0.0489967
0.00947585 0.0661631 0.0489815
0.0316014 0.0671855 0.0491798
0.0432441 0.069276 0.0495003
0.0738537 0.0724804 0.049134
0.104417 0.0772259 0.0510414
0.142306 0.0833448 0.0478981
0.197406 0.0898451 0.0350195
0.25568 0.0953841 0.0135958
0.316121 0.101396 0.00373846
0.383337 0.105135 0
0.452354 0.10547 0
0.510765 0.0936904 0
0.564248 0.061677 0
0.610529 0.0315099 0
0.64181 0.0285496 0
0.663706 0.0287785 0
0.678065 0.0293889 0
0.687282 0.0298009 0
0.692439 0.0300145 0
0.69398 0.0300908 0
0.692027 0.0299992 0
0.690196 0.0299229 0
0.688334 0.0298466 0
0.686458 0.0297551 0
0.68455 0.0296788 0
0.682643 0.0296025 0
0.680797 0.0295109 0
0.67892 0.0294347 0
0.677592 0.0293736 0
0 0.0785229 0.0531472
0 0.0778821 0.0529335
0 0.0771191 0.0526589
0 0.0768597 0.0525673
0.00108339 0.0766003 0.0526741
0.00843824 0.0771649 0.0522316
0.023743 0.0790265 0.0521706
0.0611582 0.0824598 0.0517128
0.0967727 0.0874189 0.0513161
0.136507 0.0930495 0.0527962
0.192126 0.0999008 0.0445563
0.251881 0.107195 0.026215
0.314443 0.115328 0.0119783
0.381399 0.121798 0.00523384
0.45272 0.124804 0
0.51458 0.120027 0
0.568185 0.0995193 0
0.612512 0.0624552 0
0.644526 0.0400854 0
0.669154 0.0291752 0
0.684627 0.0299535 0
0.695155 0.0318151 0
0.701335 0.0330968 0
0.703365 0.0316014 0
0.700755 0.0303807 0
0.698756 0.0302892 0
0.696681 0.0302129 0
0.694606 0.0301213 0
0.692515 0.0300298 0
0.690517 0.0299382 0
0.688533 0.0298466 0
0.686503 0.0297704 0
0.685084 0.0296941 0
0 0.0889448 0.0566567
0 0.0882734 0.0564584
0 0.0876173 0.0562448
0 0.0870985 0.0561532
0 0.0869154 0.0563516
0.000579843 0.0872358 0.0560006
0.00671397 0.0888533 0.0554665
0.0369421 0.0920272 0.0548562
0.086717 0.097612 0.053666
0.124636 0.103975 0.0533761
0.183978 0.11043 0.0525673
0.247379 0.118776 0.0386511
0.314305 0.12845 0.0204318
0.38085 0.137545 0.0139925
0.453422 0.14406 0.00688182
0.518959 0.144701 0
0.575784 0.13669 0
0.623911 0.121492 0
0.654749 0.0983597 0
0.675883 0.0701305 0
0.691722 0.0593881 0
0.701991 0.0573892 0
0.708598 0.057023 0
0.711162 0.0495918 0
0.708965 0.0437934 0
0.706371 0.0408484 0
0.707012 0.0361028 0
0.704585 0.0328679 0
0.701747 0.0305943 0
0.699397 0.0303197 0
0.697246 0.0302281 0
0.695018 0.0301366 0
0.693462 0.0300603 0
0 0.10518 0.0601205
0 0.104295 0.0599374
0 0.103258 0.0597086
0 0.102174 0.0595254
0 0.101671 0.0597086
0 0.101366 0.0596017
0.00077821 0.102205 0.0588998
0.0149691 0.10457 0.0582742
0.0725261 0.109026 0.0568399
0.113268 0.115801 0.0548257
0.170916 0.121874 0.0556191
0.241947 0.130129 0.0463264
0.312169 0.140627 0.0273747
0.380468 0.152041 0.0231022
0.454108 0.161654 0.0164034
0.524376 0.166659 0.00862135
0.58349 0.164431 0
0.634897 0.156359 0
0.670405 0.144915 0
0.69247 0.128847 0
0.707454 0.116152 0
0.717632 0.113268 0
0.725246 0.11902 0
0.728496 0.119158 0
0.725536 0.106081 0
0.721279 0.0907301 0
0.71722 0.074815 0
0.713481 0.0585794 0
0.710231 0.0457008 0
0.707927 0.0422827 0
0.704479 0.039353 0
0.70547 0.0340429 0
0.703578 0.031693 0
0 0.12697 0.0628214
0 0.125872 0.0626993
0 0.124575 0.0625467
0 0.123171 0.0624094
0 0.122103 0.0625315
0 0.121538 0.0627451
0 0.121859 0.0623026
0.00480659 0.123598 0.0616007
0.0400702 0.127031 0.0594797
0.0993668 0.133547 0.0565194
0.152209 0.140734 0.0526436
0.231312 0.148333 0.0486305
0.309056 0.15967 0.0343633
0.382147 0.171649 0.0335699
0.456657 0.181994 0.0286259
0.530465 0.18941 0.0202945
0.592035 0.189868 0.0107118
0.646525 0.184848 0.000228885
0.68658 0.178317 0
0.71162 0.171115 0
0.728634 0.166415 0
0.740017 0.165957 0
0.747692 0.167605 0
0.751446 0.168338 0
0.749569 0.161913 0
0.744381 0.151812 0
0.739193 0.14139 0
0.734127 0.130739 0
0.729015 0.117693 0
0.724178 0.10135 0
0.719615 0.0844587 0
0.715358 0.0669871 0
0.712688 0.0552071 0
0 0.150866 0.0654307
0 0.149905 0.0653239
0 0.148623 0.0651865
0 0.147112 0.0650492
0 0.145846 0.0650187
0 0.145541 0.0653239
0 0.14583 0.0651865
0.000106813 0.147951 0.0644388
0.010605 0.151537 0.0623941
0.0661479 0.157961 0.0573129
0.129763 0.167086 0.0506752
0.210163 0.175769 0.0375982
0.299947 0.187137 0.0294957
0.384176 0.201083 0.0399786
0.463859 0.21178 0.0442817
0.540932 0.220172 0.0379492
0.605615 0.223209 0.0275425
0.660792 0.220111 0.0163272
0.705364 0.214984 0.00697337
0.733104 0.208759 0
0.751202 0.203754 0
0.763073 0.202045 0
0.771038 0.202777 0
0.77586 0.204623 0
0.77586 0.202579 0
0.770611 0.195224 0
0.765332 0.187716 0
0.759915 0.179919 0
0.754406 0.171038 0
0.74873 0.16022 0
0.743114 0.149172 0
0.737469 0.137606 0
0.733867 0.130083 0
0 0.176394 0.0684825
0 0.175433 0.0683604
0 0.174228 0.0682078
0 0.172625 0.0680247
0 0.17116 0.0678569
0 0.170947 0.0679484
0 0.171221 0.0678569
0 0.173281 0.0667887
0.000915541 0.177279 0.064744
0.020325 0.18352 0.0589914
0.0989853 0.193896 0.0487068
0.181231 0.20557 0.0292821
0.280766 0.218814 0.0174258
0.377142 0.235157 0.0347143
0.468849 0.249393 0.0522774
0.55613 0.26006 0.0575265
0.626398 0.265156 0.0506905
0.683436 0.265126 0.0395666
0.730037 0.260868 0.0281987
0.759915 0.254948 0.0197452
0.778744 0.248875 0.0136873
0.79115 0.245548 0.010132
0.799146 0.244755 0.00854505
0.804883 0.246021 0.00836194
0.806119 0.244755 0.0075227
0.800061 0.236469 0.00418097
0.793851 0.227832 0.000762951
0.787701 0.219181 0
0.781689 0.210681 0
0.775967 0.202731 0
0.770214 0.194629 0
0.764385 0.186328 0
0.760616 0.180911 0
0 0.204517 0.0690776
0 0.203555 0.0690929
0 0.20235 0.0691386
0 0.200809 0.0691691
0 0.199161 0.0692149
0 0.198215 0.0694133
0 0.19852 0.069688
0 0.200443 0.0688792
0 0.204532 0.0665904
0.00218204 0.211002 0.0604715
0.0341192 0.221118 0.0466773
0.148058 0.235325 0.0208591
0.252918 0.252186 0.00677501
0.359228 0.270146 0.0223087
0.461219 0.287266 0.0460517
0.562371 0.302052 0.0658732
0.647517 0.30988 0.0700999
0.709773 0.310994 0.0637369
0.760052 0.308614 0.0532082
0.793713 0.304311 0.0436408
0.813413 0.298985 0.0365454
0.826246 0.295811 0.0322881
0.834272 0.29482 0.0302892
0.84036 0.295827 0.0298466
0.842039 0.29453 0.0287938
0.836057 0.286061 0.0249027
0.828702 0.276097 0.0205539
0.821317 0.265797 0.0162051
0.814145 0.255756 0.0119936
0.807172 0.246204 0.00810254
0.800549 0.23714 0.00445563
0.793912 0.227939 0.000793469
0.789609 0.221897 0
0 0.236927 0.0676738
0 0.235828 0.0677348
0 0.23447 0.0678111
0 0.232868 0.0678874
0 0.230961 0.0679942
0 0.229221 0.0681315
0 0.229725 0.0682841
0 0.231189 0.0677806
0 0.235416 0.0654307
7.62951e-05 0.242161 0.0599832
0.01149 0.252567 0.04065
0.0832532 0.267659 0.00766003
0.218357 0.287678 0.00306706
0.33167 0.308995 0.0112917
0.443671 0.327428 0.0317235
0.554818 0.344945 0.0588235
0.658625 0.358053 0.0784161
0.734768 0.361471 0.082536
0.79237 0.359426 0.0776532
0.831403 0.355428 0.0694438
0.853483 0.350317 0.0620584
0.867231 0.346731 0.0570077
0.876051 0.345769 0.0546578
0.882506 0.347051 0.0542153
0.885145 0.347295 0.0538491
0.880293 0.340673 0.0504768
0.871794 0.330709 0.045655
0.863218 0.32047 0.0407721
0.854612 0.310002 0.0358282
0.846281 0.299489 0.0309758
0.838117 0.288808 0.0261234
0.829923 0.277821 0.0212406
0.824811 0.270649 0.0182803
3.0518e-05 0.272007 0.0628977
3.0518e-05 0.271138 0.0630503
3.0518e-05 0.269856 0.0632486
3.0518e-05 0.268284 0.0635233
1.5259e-05 0.266331 0.063859
1.5259e-05 0.264332 0.0642252
1.5259e-05 0.264103 0.0644083
1.5259e-05 0.265675 0.0642252
4.57771e-05 0.269902 0.0612955
0.000106813 0.277348 0.0533608
0.00077821 0.288609 0.0311284
0.0327153 0.305913 0.00198367
0.165011 0.327245 0.0010071
0.296681 0.351354 0.00469978
0.416464 0.374838 0.0176699
0.53576 0.392035 0.0415351
0.65391 0.408942 0.0701762
0.749249 0.418494 0.0889143
0.82092 0.419242 0.0955825
0.871153 0.415122 0.0937057
0.898222 0.408576 0.0885939
0.91342 0.403113 0.08365
0.923018 0.4009 0.0808576
0.929412 0.401053 0.079881
0.93341 0.402243 0.0798962
0.930739 0.397971 0.0777905
0.921767 0.387839 0.0731212
0.912459 0.377371 0.0681926
0.902922 0.366476 0.0631266
0.8934 0.355825 0.0578164
0.883986 0.344976 0.0525521
0.874571 0.333974 0.0472114
0.868742 0.327062 0.0439002
0.000137331 0.305959 0.0552987
0.000137331 0.305272 0.0554665
0.000137331 0.304204 0.0557259
0.000137331 0.302861 0.0560616
0.000122072 0.301183 0.0564736
0.000122072 0.299306 0.0569314
0.000122072 0.298238 0.0572366
0.000122072 0.300374 0.056672
0.00015259 0.304311 0.053193
0.000244144 0.312688 0.0406806
0.000411994 0.325689 0.0182498
0.00894179 0.345434 0.000503548
0.0821241 0.369604 0.000564584
0.254765 0.395666 0.00202945
0.379049 0.423117 0.0078584
0.503532 0.446113 0.0238651
0.632929 0.463142 0.0500343
0.747799 0.478325 0.0776989
0.836133 0.485435 0.097322
0.902373 0.484581 0.107485
0.940612 0.478584 0.109285
0.960769 0.471 0.107576
0.972534 0.466484 0.105699
0.979217 0.464576 0.104616
0.984207 0.465263 0.104555
0.983642 0.462058 0.103456
0.974823 0.450828 0.0995804
0.965591 0.439323 0.0952926
0.956085 0.42771 0.0906844
0.946212 0.415869 0.0857099
0.936217 0.404196 0.0805982
0.926024 0.392645 0.075349
0.919829 0.385657 0.0720989
0.000289921 0.336416 0.0409094
0.000289921 0.335912 0.0411841
0.000274662 0.335088 0.0416419
0.000274662 0.333822 0.0423285
0.000259403 0.332464 0.043061
0.000259403 0.330877 0.0439307
0.000244144 0.329793 0.0445411
0.000259403 0.331563 0.0433814
0.00030518 0.33579 0.0379339
0.000411994 0.344442 0.0225376
0.000549325 0.358968 0.00540169
0.000976577 0.380392 0.000366217
0.0354772 0.40737 0.000518807
0.176577 0.43624 0.00117494
0.339818 0.466941 0.00347906
0.46627 0.495781 0.0120851
0.600046 0.518853 0.03093
0.73106 0.536706 0.057496
0.834897 0.549111 0.082826
0.917708 0.554635 0.103136
0.971908 0.552468 0.114794
0.999466 0.545144 0.119432
1 0.539223 0.120729
1 0.536019 0.12108
1 0.535058 0.121324
1 0.532021 0.121065
1 0.521737 0.119478
1 0.509529 0.117021
1 0.4972 0.113954
0.999237 0.484504 0.110323
0.990494 0.471412 0.106355
0.980819 0.458427 0.102251
0.974792 0.450782 0.0995651
0.000549325 0.365164 0.00561532
0.000549325 0.364706 0.00624094
0.000549325 0.364019 0.007187
0.000534066 0.363027 0.00854505
0.000518807 0.361807 0.010193
0.000503548 0.360327 0.0122377
0.000488289 0.358862 0.0145113
0.00047303 0.359426 0.0164645
0.000488289 0.364294 0.0152132
0.000564584 0.372732 0.00665293
0.00062562 0.387427 0.000686656
0.000656138 0.409033 0.000427253
0.00691234 0.437552 0.000518807
0.0861677 0.469413 0.000854505
0.289708 0.503532 0.00209049
0.429129 0.536721 0.00572213
0.561135 0.565499 0.0178073
0.701595 0.589776 0.0391546
0.821027 0.60589 0.0638743
0.916274 0.615641 0.0874342
0.983719 0.61886 0.105455
1 0.614099 0.114611
1 0.607294 0.118242
1 0.604227 0.119951
1 0.603296 0.120714
1 0.601511 0.121202
1 0.593957 0.122072
1 0.582452 0.122972
1 0.570382 0.12343
1 0.557946 0.123323
1 0.544839 0.122499
1 0.53167 0.121019
1 0.523781 0.119829
0.00062562 0.393362 0.000549325
0.00062562 0.392996 0.000579843
0.00062562 0.392309 0.000640879
0.00062562 0.391455 0.000686656
0.00062562 0.390356 0.00077821
0.00062562 0.388998 0.000854505
0.00062562 0.387503 0.000961318
0.00062562 0.387213 0.00106813
0.00062562 0.391836 0.00102235
0.000640879 0.399817 0.000656138
0.000671397 0.414038 0.000442512
0.000701915 0.434958 0.000488289
0.00169375 0.464134 0.000549325
0.0442512 0.498238 0.00077821
0.203326 0.534905 0.0015259
0.385199 0.572351 0.00320439
0.518883 0.605066 0.00917067
0.661601 0.635019 0.0248264
0.796155 0.657481 0.0466468
0.903929 0.670115 0.0696117
0.98024 0.675822 0.0898299
1 0.673426 0.101122
1 0.667613 0.10634
1 0.664561 0.109071
1 0.663111 0.110246
1 0.661906 0.110842
1 0.658 0.111955
1 0.649332 0.113848
1 0.639124 0.115755
1 0.628031 0.117647
1 0.61677 0.119341
1 0.605158 0.120851
1 0.598184 0.121645
0.000671397 0.416571 0.000442512
0.000671397 0.416403 0.000442512
0.000671397 0.416052 0.000442512
0.000671397 0.415564 0.000442512
0.000671397 0.414801 0.000442512
0.000671397 0.413672 0.000427253
0.000671397 0.412497 0.000427253
0.000656138 0.411856 0.000427253
0.000671397 0.41474 0.000442512
0.000686656 0.423072 0.000457771
0.000701915 0.436622 0.000488289
0.000732433 0.456901 0.000534066
0.000823987 0.485405 0.000595102
0.0124208 0.521263 0.000686656
0.115877 0.560708 0.00114443
0.334813 0.602136 0.00233463
0.476143 0.639567 0.00480659
0.616068 0.673121 0.0141756
0.759182 0.703578 0.0319219
0.880003 0.722271 0.05243
0.969406 0.731731 0.0727703
1 0.732128 0.0859846
1 0.726665 0.0923323
1 0.721401 0.0958267
1 0.716503 0.097322
1 0.713787 0.098085
1 0.710018 0.0990921
1 0.702358 0.101091
1 0.693889 0.103197
1 0.685344 0.105333
1 0.6766 0.107469
1 0.667674 0.109636
1 0.662577 0.110872
0.000701915 0.43357 0.000488289
0.000701915 0.433417 0.000488289
0.000701915 0.433204 0.000488289
0.000701915 0.432853 0.000488289
0.000701915 0.432395 0.000488289
0.000701915 0.431861 0.00047303
0.000701915 0.431174 0.00047303
0.000701915 0.430304 0.00047303
0.000701915 0.431632 0.00047303
0.000701915 0.439948 0.000503548
0.000732433 0.452293 0.000518807
0.000762951 0.471885 0.000564584
0.000808728 0.499214 0.00062562
0.00141909 0.535439 0.000671397
0.0579232 0.576913 0.0009308
0.245426 0.621607 0.00183108
0.431693 0.66479 0.00323491
0.571191 0.701732 0.00788891
0.71664 0.737408 0.0207065
0.847868 0.764828 0.0387579
0.951522 0.780026 0.0576944
1 0.785824 0.0724956
1 0.78262 0.0794537
1 0.775601 0.082887
1 0.768933 0.0844282
1 0.764599 0.0854505
1 0.760433 0.0864271
1 0.753719 0.0880446
1 0.745922 0.0899519
1 0.737865 0.0919509
1 0.729442 0.0940719
1 0.720821 0.0962692
1 0.71577 0.0975967
0.000717174 0.446159 0.000518807
0.000717174 0.446113 0.000518807
0.000717174 0.44596 0.000518807
0.000717174 0.445716 0.000518807
0.000717174 0.44535 0.000518807
0.000717174 0.444953 0.000518807
0.000717174 0.444465 0.000518807
0.000717174 0.4439 0.000518807
0.000717174 0.444678 0.000518807
0.000732433 0.450828 0.000518807
0.000747692 0.462928 0.000564584
0.00077821 0.480766 0.000579843
0.000808728 0.506294 0.00062562
0.000869764 0.541161 0.000671397
0.0220645 0.582803 0.000793469
0.152514 0.628641 0.00138857
0.377142 0.676036 0.00260929
0.525292 0.717632 0.00489815
0.670375 0.756771 0.0131075
0.811383 0.792081 0.0285344
0.928862 0.814862 0.046128
0.998184 0.826871 0.0618448
1 0.827558 0.0697032
1 0.820859 0.0729076
1 0.814939 0.0741741
1 0.810987 0.0750134
1 0.80708 0.0758679
1 0.801572 0.0770581
1 0.794873 0.0785382
1 0.788067 0.0800793
1 0.780957 0.0816815
1 0.773114 0.0834821
1 0.768444 0.0845502
0.000732433 0.456367 0.000549325
0.000732433 0.456352 0.000549325
0.000732433 0.456245 0.000549325
0.000732433 0.456046 0.000549325
0.000732433 0.455787 0.000534066
0.000732433 0.455467 0.000534066
0.000732433 0.45507 0.000534066
0.000732433 0.454582 0.000534066
0.000732433 0.454124 0.000534066
0.000732433 0.45742 0.000549325
0.000762951 0.469993 0.000564584
0.00077821 0.486381 0.000595102
0.000823987 0.509544 0.00062562
0.000869764 0.541741 0.000671397
0.00695811 0.58294 0.000747692
0.0988479 0.629084 0.00114443
0.313069 0.678187 0.00224308
0.477638 0.724025 0.00358587
0.622141 0.765011 0.00833143
0.767514 0.805219 0.0203098
0.895262 0.836027 0.0367132
0.98085 0.85452 0.0527504
1 0.860365 0.0624094
1 0.855375 0.0658579
1 0.849546 0.0670024
1 0.846113 0.067689
1 0.843595 0.0682078
1 0.84007 0.0689097
1 0.834943 0.0699626
1 0.829679 0.0710613
1 0.824125 0.072221
1 0.818509 0.0734112
1 0.815396 0.0740673
0.000747692 0.464866 0.000549325
0.000747692 0.464851 0.000549325
0.000747692 0.464744 0.000549325
0.000747692 0.464622 0.000549325
0.000747692 0.464424 0.000549325
0.000747692 0.464164 0.000549325
0.000747692 0.463874 0.000564584
0.000747692 0.463523 0.000564584
0.000747692 0.463127 0.000564584
0.000747692 0.465187 0.000564584
0.000762951 0.47483 0.000579843
0.000793469 0.490761 0.000595102
0.000823987 0.512139 0.00062562
0.000869764 0.541115 0.000671397
0.0012665 0.580163 0.000717174
0.0475624 0.625605 0.000946059
0.218021 0.675105 0.00173953
0.427344 0.724407 0.00294499
0.574868 0.767483 0.0056611
0.721889 0.809857 0.0142367
0.856214 0.846342 0.0287022
0.958877 0.871382 0.0446632
1 0.883452 0.0563211
1 0.882322 0.0606699
1 0.87657 0.0617685
1 0.873121 0.0624094
1 0.870924 0.0628367
1 0.868818 0.0632334
1 0.865385 0.0639048
1 0.86125 0.0646982
1 0.857023 0.0655222
1 0.852705 0.066392
1 0.85037 0.0668498
0.000762951 0.471412 0.000564584
0.000762951 0.471427 0.000564584
0.000762951 0.471397 0.000564584
0.000762951 0.47129 0.000564584
0.000762951 0.471168 0.000564584
0.000762951 0.47097 0.000564584
0.000762951 0.470726 0.000579843
0.000762951 0.470451 0.000579843
0.000762951 0.470161 0.000564584
0.000747692 0.47039 0.000564584
0.000762951 0.476524 0.000579843
0.000793469 0.493294 0.000610361
0.000823987 0.513664 0.000640879
0.000869764 0.540169 0.000671397
0.0009308 0.575616 0.000717174
0.0182345 0.619699 0.000823987
0.144976 0.668635 0.00138857
0.370016 0.719661 0.00259403
0.526375 0.765682 0.00416571
0.672923 0.808682 0.00979629
0.814939 0.849744 0.022034
0.935836 0.88043 0.0375525
1 0.898878 0.0508888
1 0.902678 0.0565194
1 0.897887 0.0577859
1 0.894301 0.0584268
1 0.892012 0.0588388
1 0.890257 0.0591745
1 0.887984 0.0596017
1 0.885008 0.0601663
1 0.881834 0.0607767
1 0.878508 0.0614023
1 0.876768 0.0617227
0.000762951 0.477974 0.000595102
0.000762951 0.478004 0.000595102
0.000762951 0.477974 0.000595102
0.000762951 0.477852 0.000595102
0.00077821 0.477684 0.000579843
0.000762951 0.477501 0.000579843
0.000762951 0.477272 0.000579843
0.000762951 0.476997 0.000579843
0.000762951 0.476692 0.000579843
0.000762951 0.476356 0.000579843
0.00077821 0.480217 0.000579843
0.000793469 0.494484 0.000595102
0.000823987 0.514458 0.00062562
0.000869764 0.539147 0.000656138
0.000915541 0.571069 0.000701915
0.00202945 0.612329 0.000762951
0.0866407 0.659678 0.00114443
0.29865 0.710811 0.0021973
0.478553 0.759441 0.00337224
0.624842 0.80325 0.00688182
0.769802 0.846525 0.016495
0.899367 0.882353 0.0309911
0.983352 0.907195 0.0457008
1 0.916548 0.0535134
1 0.913314 0.0549325
1 0.910094 0.0555276
1 0.907927 0.0559396
1 0.906538 0.0561837
1 0.905058 0.0564584
1 0.903197 0.0567941
1 0.901183 0.0571756
1 0.898772 0.0576181
1 0.897292 0.0578775
0.000793469 0.486809 0.000595102
0.000793469 0.486885 0.000595102
0.000793469 0.486854 0.000595102
0.000793469 0.486763 0.000595102
0.00077821 0.486549 0.000595102
0.00077821 0.48629 0.000595102
0.00077821 0.485985 0.000595102
0.00077821 0.485603 0.000595102
0.00077821 0.48513 0.000595102
