media_library/luts/baidu-pack/繁花夜景2.cube
#TB：甜心酱Presets
TITLE "Generated by Resolve"
LUT_3D_SIZE 9
0.0250248 0.0362097 0.0396277
0.0403143 0.0391394 0.0410468
0.135897 0.0573434 0.0298619
0.34168 0.0659648 0
0.55996 0.0242771 0
0.645975 0.0280003 0
0.660136 0.0286259 0
0.660136 0.0286259 0
0.660136 0.0286259 0
0.0136568 0.0493782 0.0431525
0.0348821 0.0503395 0.0448005
0.112535 0.065919 0.0427405
0.32575 0.0876478 0
0.564401 0.0244602 0
0.665629 0.0288548 0
0.677546 0.0293736 0
0.670588 0.0290684 0
0.663645 0.0287785 0
0 0.0889448 0.0566567
0 0.0869154 0.0563516
0.086717 0.097612 0.053666
0.314305 0.12845 0.0204318
0.575784 0.13669 0
0.691722 0.0593881 0
0.708965 0.0437934 0
0.701747 0.0305943 0
0.693462 0.0300603 0
0 0.176394 0.0684825
0 0.17116 0.0678569
0.000915541 0.177279 0.064744
0.280766 0.218814 0.0174258
0.626398 0.265156 0.0506905
0.778744 0.248875 0.0136873
0.806119 0.244755 0.0075227
0.781689 0.210681 0
0.760616 0.180911 0
0.000137331 0.305959 0.0552987
0.000122072 0.301183 0.0564736
0.00015259 0.304311 0.053193
0.0821241 0.369604 0.000564584
0.632929 0.463142 0.0500343
0.940612 0.478584 0.109285
0.984207 0.465263 0.104555
0.956085 0.42771 0.0906844
0.919829 0.385657 0.0720989
0.000671397 0.416571 0.000442512
0.000671397 0.414801 0.000442512
0.000671397 0.41474 0.000442512
0.000823987 0.485405 0.000595102
0.476143 0.639567 0.00480659
0.969406 0.731731 0.0727703
1 0.716503 0.097322
1 0.693889 0.103197
1 0.662577 0.110872
0.000747692 0.464866 0.000549325
0.000747692 0.464424 0.000549325
0.000747692 0.463127 0.000564584
0.000823987 0.512139 0.00062562
0.218021 0.675105 0.00173953
0.856214 0.846342 0.0287022
1 0.87657 0.0617685
1 0.865385 0.0639048
1 0.85037 0.0668498
0.000793469 0.4972 0.000610361
0.000793469 0.497017 0.000610361
0.000793469 0.495583 0.000610361
0.000839246 0.520684 0.000640879
0.0221408 0.645029 0.000885023
0.677745 0.83006 0.00895705
1 0.931258 0.0515145
1 0.925246 0.0527962
1 0.921843 0.0533913
0.000823987 0.510552 0.000640879
0.000823987 0.510552 0.000640879
0.000823987 0.510552 0.000640879
0.000823987 0.510948 0.000640879
0.000976577 0.609415 0.000762951
0.499519 0.781445 0.00347906
0.978149 0.927382 0.0416571
1 0.936065 0.0508125
1 0.934829 0.0510414
0.0225223 0.0373846 0.0556191
0.0375372 0.0402838 0.0557259
0.134981 0.0586709 0.0449073
0.33724 0.0400702 0
0.563439 0.0244297 0
0.650111 0.0281834 0
0.662272 0.0287175 0
0.660136 0.0286259 0
0.660136 0.0286259 0
0.0059205 0.0514992 0.0567788
0.0333867 0.0518196 0.0564431
0.110536 0.0675059 0.0512703
0.323064 0.082826 0
0.564721 0.0244755 0
0.666377 0.0288853 0
0.676905 0.0293431 0
0.669902 0.0290379 0
0.663005 0.028748 0
0 0.0906691 0.0628519
0 0.0882124 0.0611276
0.084535 0.0977646 0.0575723
0.310369 0.126543 0.0207218
0.57145 0.133944 0
0.689738 0.0548104 0
0.708171 0.0425879 0
0.700847 0.0303807 0
0.692821 0.0300298 0
0 0.175006 0.0697185
0 0.169406 0.0683757
0.000579843 0.174289 0.0648814
0.27509 0.214939 0.0182956
0.620218 0.261418 0.049485
0.775601 0.245502 0.0123903
0.804105 0.242023 0.00642405
0.780133 0.208515 0
0.759182 0.17882 0
0.000137331 0.303624 0.0558785
0.000122072 0.29897 0.0570077
0.000137331 0.301671 0.054612
0.0804761 0.365377 0.000564584
0.627955 0.459052 0.0497597
0.937301 0.4748 0.108507
0.981826 0.462028 0.103563
0.953811 0.424979 0.0895552
0.918181 0.38381 0.0712291
0.000671397 0.415717 0.000442512
0.000671397 0.413626 0.000427253
0.000671397 0.413352 0.000427253
0.000808728 0.483055 0.000595102
0.472908 0.63711 0.0047303
0.968078 0.729488 0.0728923
1 0.714992 0.0977035
1 0.692714 0.103487
1 0.66157 0.111116
0.000747692 0.464546 0.000549325
0.000747692 0.464195 0.000549325
0.000747692 0.462882 0.000564584
0.000823987 0.511376 0.000640879
0.214557 0.674144 0.00172427
0.854551 0.84564 0.0285344
1 0.876173 0.0618448
1 0.865064 0.0639658
1 0.850065 0.0668956
0.000793469 0.496956 0.000610361
0.000793469 0.496788 0.000610361
0.000793469 0.495415 0.000610361
0.000839246 0.52018 0.000640879
0.0213474 0.644739 0.000885023
0.677592 0.829969 0.00895705
1 0.931212 0.0515297
1 0.925216 0.0528115
1 0.921874 0.0533913
0.000823987 0.510552 0.000640879
0.000823987 0.510552 0.000640879
0.000823987 0.510552 0.000640879
0.000823987 0.510918 0.000640879
0.000976577 0.609491 0.000747692
0.500465 0.781735 0.00347906
0.9785 0.927581 0.0417792
1 0.936049 0.0508125
1 0.934829 0.0510414
0 0.0262303 0.140917
0.0297551 0.0367742 0.132967
0.133455 0.0535592 0.12929
0.352499 0.0170291 0.101823
0.581949 0.0176699 0.0400854
0.666087 0.0257572 0
0.676677 0.0285801 0
0.672007 0.0291295 0
0.669383 0.0290227 0
0 0.0526589 0.123461
0.00650034 0.0551461 0.115373
0.107622 0.0682078 0.11194
0.322637 0.0737926 0.0705119
0.574365 0.0220035 0
0.678828 0.0286564 0
0.687953 0.0298314 0
0.678813 0.0294347 0
0.669566 0.0290227 0
0 0.098497 0.112352
0 0.0952316 0.105257
0.0741588 0.102708 0.0957504
0.297581 0.131502 0.0663462
0.56669 0.106493 0
0.698329 0.0425879 0
0.717678 0.0322423 0
0.707149 0.0306554 0
0.696635 0.0301976 0
0 0.186145 0.0999008
0 0.179843 0.0968643
0.000259403 0.183383 0.0912337
0.270314 0.219287 0.0600748
0.620905 0.259388 0.0480659
0.778393 0.240955 0.00962844
0.806592 0.238972 0.00451667
0.780545 0.205005 0
0.757687 0.174609 0
3.0518e-05 0.313634 0.081651
1.5259e-05 0.308049 0.080354
3.0518e-05 0.309224 0.0759289
0.0707713 0.367269 0.00187686
0.624521 0.459342 0.0487526
0.936263 0.47248 0.108034
0.97879 0.457099 0.101869
0.949203 0.419409 0.0872053
0.913725 0.37879 0.068864
0.000671397 0.416556 0.00105287
0.000671397 0.414267 0.00111391
0.000656138 0.412604 0.000946059
0.000793469 0.479713 0.000579843
0.464332 0.630869 0.00456245
0.96408 0.724453 0.0728161
1 0.710658 0.0987869
1 0.689143 0.104402
1 0.658015 0.11194
0.000747692 0.463951 0.000564584
0.000747692 0.463569 0.000564584
0.000747692 0.462318 0.000549325
0.000823987 0.509117 0.00062562
0.199985 0.670481 0.00164797
0.849088 0.843091 0.027985
1 0.874922 0.0620584
1 0.863432 0.0642863
1 0.848661 0.0671855
0.000793469 0.496284 0.000610361
0.000793469 0.496117 0.000610361
0.000793469 0.494789 0.000610361
0.000839246 0.518303 0.000640879
0.0166018 0.642191 0.000854505
0.672114 0.828138 0.00868238
1 0.930953 0.051545
1 0.924941 0.0528572
1 0.921569 0.0534371
0.000823987 0.510552 0.000640879
0.000823987 0.510552 0.000640879
0.000823987 0.510552 0.000640879
0.000823987 0.510872 0.000640879
0.000976577 0.608469 0.000762951
0.495766 0.780285 0.00343328
0.977157 0.927062 0.0414893
1 0.936065 0.0508125
1 0.934829 0.0510414
0 0.000534066 0.304021
0 0.000518807 0.295354
0.126528 0.000457771 0.299077
0.360678 0 0.301854
0.614557 0.000320439 0.296635
0.718624 0.00273136 0.270497
0.731731 0.00526436 0.231876
0.723049 0.00958267 0.173465
0.711666 0.0148928 0.114855
0 0.000961318 0.28249
0 0.00184634 0.272755
0.0976577 0.0420691 0.274937
0.331014 0.0314031 0.274968
0.612985 0.000961318 0.266972
0.730159 0.00523384 0.231449
0.739147 0.00888075 0.187732
0.721981 0.0137179 0.130037
0.703624 0.0185397 0.0764782
0 0.0899214 0.268803
0 0.0879225 0.258747
0.0202945 0.108217 0.251637
0.298695 0.126604 0.248493
0.590768 0.0434577 0.209888
0.741939 0.0114595 0.160464
0.755886 0.0162356 0.117815
0.736721 0.021149 0.0625162
0.719341 0.0250248 0.0157931
0 0.209476 0.252003
0 0.20235 0.24184
0 0.202609 0.230518
0.238529 0.231983 0.212467
0.57705 0.257801 0.161471
0.752132 0.203861 0.0689097
0.784955 0.198123 0.0301671
0.768414 0.160159 0
0.752941 0.128389 0
0 0.343496 0.208957
0 0.337301 0.202686
0 0.335485 0.192416
0.0376287 0.383032 0.15967
0.600443 0.454276 0.101823
0.932815 0.466575 0.106767
0.98201 0.455314 0.100832
0.957748 0.422019 0.0873579
0.921645 0.380713 0.0685893
0.000289921 0.442954 0.139651
0.000289921 0.440208 0.136065
0.000289921 0.436515 0.126619
0.00062562 0.494041 0.0564584
0.451179 0.644053 0.0039826
0.965591 0.739269 0.070161
1 0.719966 0.0964981
1 0.695994 0.102632
1 0.662745 0.110994
0.000549325 0.475944 0.0700236
0.000549325 0.475303 0.0673075
0.000564584 0.473014 0.0591592
0.000793469 0.514382 0.00770581
0.173068 0.674968 0.0015259
0.847013 0.849226 0.0269169
1 0.879103 0.0612802
1 0.864546 0.0640574
1 0.84799 0.0673228
0.000640879 0.499657 0.0594339
0.000640879 0.49955 0.0587778
0.000656138 0.497292 0.0472419
0.00077821 0.516503 0.0144656
0.00782788 0.63827 0.000808728
0.661891 0.825238 0.00814832
1 0.930571 0.051545
1 0.924376 0.0529488
1 0.921035 0.0535439
0.000823987 0.510552 0.000640879
0.000823987 0.510552 0.000640879
0.000823987 0.510552 0.000640879
0.000823987 0.510796 0.000640879
0.000976577 0.606394 0.000747692
0.487831 0.777859 0.00335698
0.974014 0.92575 0.0407721
1 0.936095 0.0508125
1 0.934813 0.0510414
0 0.000793469 0.455436
0 0.000793469 0.452613
0.0931411 0.000610361 0.462211
0.363958 0.000228885 0.485954
0.626062 0 0.496391
0.739162 0 0.488899
0.755978 0 0.468315
0.751965 0 0.433204
0.748272 0 0.396094
0 0.000793469 0.454108
0 0.00077821 0.447868
0.0494698 0.000686656 0.451774
0.335622 0.000228885 0.476997
0.623316 0 0.486122
0.750591 0 0.474006
0.765515 0 0.450355
0.755016 0 0.410224
0.745861 0.000228885 0.370825
0 0.00112917 0.449073
0 0.000839246 0.440497
0.00163272 0.044358 0.44419
0.289097 0.0949721 0.467094
0.597498 0.00993362 0.468086
0.766796 0 0.45362
0.789883 0 0.42855
0.779889 0.000259403 0.386252
0.769985 0.000946059 0.34464
0 0.205844 0.470359
0 0.197375 0.459754
0 0.199741 0.45655
0.190875 0.245884 0.458427
0.581827 0.24152 0.454215
0.791135 0.176562 0.417914
0.826551 0.170581 0.382269
0.8103 0.112047 0.33196
0.795834 0.051957 0.284764
0 0.3832 0.461433
0 0.376776 0.453468
0 0.373526 0.444999
0.00448615 0.41944 0.441657
0.529137 0.469596 0.427283
0.843671 0.483497 0.376196
0.899687 0.463111 0.330846
0.885786 0.423178 0.279332
0.863523 0.373526 0.221485
0 0.498268 0.402258
0 0.49546 0.397208
0 0.490196 0.384237
0 0.541726 0.375875
0.358679 0.655406 0.325917
0.918547 0.730404 0.291203
1 0.713329 0.239887
1 0.689509 0.188373
1 0.653803 0.156634
6.10361e-05 0.526848 0.32163
6.10361e-05 0.525917 0.318395
9.15541e-05 0.52224 0.306203
0.000213626 0.555932 0.290257
0.0763867 0.682719 0.211963
0.794781 0.834821 0.0643778
1 0.880934 0.0614328
1 0.870512 0.0629129
1 0.858885 0.0651713
0.000198367 0.540978 0.286519
0.000198367 0.540795 0.285939
0.000213626 0.537575 0.275059
0.00030518 0.549996 0.254963
0.000701915 0.648264 0.184115
0.617945 0.815991 0.0183719
1 0.932738 0.0504921
1 0.928405 0.0522316
1 0.926589 0.0525673
0.000366217 0.541161 0.225772
0.000350958 0.54139 0.22681
0.000366217 0.540444 0.222248
0.000381476 0.538628 0.212848
0.000610361 0.616815 0.170626
0.442481 0.767666 0.0190738
0.962417 0.917159 0.0383764
1 0.93315 0.0513466
1 0.931838 0.0515908
0 0.000946059 0.541161
0 0.000946059 0.541756
0.0227817 0.000915541 0.556924
0.355779 0.000396735 0.597192
0.633036 9.15541e-05 0.628687
0.75729 0 0.639506
0.776516 0 0.632456
0.773785 0 0.61355
0.771176 0 0.591913
0 0.000976577 0.558862
0 0.000976577 0.556985
0.00410468 0.000976577 0.570321
0.328161 0.000442512 0.611673
0.628321 0.000122072 0.640513
0.767803 0 0.643046
0.78584 0 0.631006
0.775555 0 0.602426
0.769238 0 0.576471
0 0.0010071 0.578698
0 0.0010071 0.573922
0 0.00149538 0.584833
0.274907 0.0255589 0.621881
0.60058 0.000183108 0.651987
0.782559 0 0.653376
0.809644 0 0.640513
0.800671 0 0.608804
0.791608 0 0.575341
0 0.127642 0.613962
0 0.111528 0.606302
0 0.133242 0.613214
0.116976 0.235996 0.647791
0.565942 0.227588 0.674372
0.790219 0.130724 0.659785
0.831678 0.129931 0.641169
0.819852 0.0531167 0.602899
0.812222 0.0196689 0.566995
0 0.386755 0.676036
0 0.379995 0.670085
0 0.375128 0.665415
0 0.426612 0.686503
0.483833 0.480629 0.692027
0.835599 0.457618 0.680507
0.908766 0.436988 0.654582
0.90277 0.403662 0.616892
0.8878 0.355047 0.571542
0 0.537514 0.667048
0 0.53521 0.663172
0 0.530983 0.654444
0 0.57882 0.66775
0.179385 0.693126 0.662593
0.83856 0.751995 0.673259
0.99144 0.757687 0.645914
0.999924 0.737881 0.61207
0.989059 0.696437 0.56376
0 0.581811 0.613367
0 0.581247 0.611139
0 0.57879 0.601465
0 0.610712 0.600671
0.00062562 0.737804 0.597696
0.711452 0.862272 0.565362
1 0.917678 0.5682
1 0.901762 0.525368
1 0.880812 0.478721
0 0.596506 0.566537
0 0.596445 0.566155
0 0.593927 0.55761
0 0.604608 0.54725
0 0.703319 0.545342
0.521553 0.844556 0.500832
0.986542 0.942199 0.468589
1 0.935531 0.403098
1 0.922957 0.316808
0 0.59704 0.494865
0 0.597375 0.496559
0 0.596338 0.491402
0 0.594202 0.480964
0 0.669474 0.482185
0.296712 0.799374 0.444846
0.891691 0.914565 0.407538
1 0.938552 0.361608
1 0.93048 0.310353
0 0.00105287 0.60032
0 0.00105287 0.602716
0.0124971 0.00105287 0.619242
0.360647 0.000488289 0.667323
0.655558 0.000183108 0.706325
0.783703 1.5259e-05 0.718563
0.80087 0 0.717235
0.79704 0 0.706859
0.793423 0 0.69688
0 0.00108339 0.617578
0 0.00108339 0.618524
0 0.00640879 0.63534
0.32314 0.0180056 0.682994
0.633906 0.000289921 0.718593
0.786404 1.5259e-05 0.727138
0.805158 0 0.720714
0.795727 0 0.701671
0.790936 0 0.690333
0 0.00111391 0.634409
0 0.00111391 0.631418
0 0.00354009 0.64741
0.257618 0.0908675 0.693874
0.596231 0.0121309 0.735866
0.79382 6.10361e-05 0.75021
0.826596 0 0.749813
0.819806 0 0.731975
0.811826 0 0.712566
0 0.107713 0.674617
0 0.087068 0.668818
0 0.111101 0.678416
0.0699626 0.2365 0.728099
0.549218 0.232883 0.7738
0.792676 0.128145 0.780056
0.840757 0.103914 0.776181
0.832135 0.0100862 0.755566
0.829007 0.000503548 0.736736
0 0.372839 0.765743
0 0.365042 0.761776
0 0.356832 0.76173
0 0.40914 0.796506
0.443961 0.47364 0.827634
0.821775 0.45098 0.843717
0.903548 0.423545 0.832166
0.899413 0.392538 0.810925
0.886091 0.341985 0.782712
0 0.541634 0.810193
0 0.539284 0.808331
0 0.533928 0.804593
0 0.578866 0.830503
0.094667 0.697292 0.855619
0.787564 0.748379 0.877195
0.958724 0.726513 0.865904
0.969314 0.708003 0.846754
0.961715 0.664729 0.819913
0 0.605371 0.805081
0 0.605112 0.804257
0 0.603738 0.800519
0 0.633494 0.811368
0 0.762341 0.8439
0.64889 0.889601 0.852903
0.980179 0.926223 0.858564
1 0.925338 0.846647
1 0.910048 0.824155
0 0.626764 0.784878
0 0.626764 0.78497
0 0.625193 0.780056
0 0.633997 0.777173
0 0.735241 0.804669
0.395621 0.880827 0.803113
0.926131 0.961028 0.795972
1 0.976013 0.782818
1 0.972076 0.754253
0 0.636408 0.740917
0 0.636469 0.741787
0 0.63621 0.738903
0 0.635645 0.732738
0 0.710674 0.751904
0.137758 0.840955 0.748119
0.827726 0.943435 0.744274
1 0.983093 0.740383
1 0.980255 0.71606
0 0.00105287 0.597025
0 0.00105287 0.60087
0.00721752 0.00106813 0.621195
0.344915 0.000518807 0.678523
0.652308 0.000213626 0.728161
0.798871 4.57771e-05 0.751934
0.822538 3.0518e-05 0.76408
0.822538 3.0518e-05 0.76408
0.822538 3.0518e-05 0.76408
0 0.00109865 0.623041
0 0.00109865 0.625147
0 0.0083772 0.645472
0.308324 0.0856336 0.700435
0.626139 0.0018616 0.743954
0.797589 6.10361e-05 0.763104
0.82417 3.0518e-05 0.769375
0.822538 3.0518e-05 0.76408
0.822538 3.0518e-05 0.76408
0 0.00112917 0.647089
0 0.00112917 0.645853
0 0.0194553 0.665309
0.227283 0.193332 0.724102
0.594171 0.174319 0.77377
0.796384 0.0175479 0.789044
0.839033 0.106523 0.799558
0.833738 0.0463417 0.792203
0.82945 0.000122072 0.783337
0 0.183169 0.703578
0 0.17435 0.700084
0 0.188998 0.714992
0.0285191 0.289967 0.763821
0.538231 0.3243 0.815244
0.81181 0.283955 0.834897
0.872099 0.287434 0.841367
0.863142 0.243687 0.827268
0.848844 0.164202 0.808865
0 0.39115 0.790005
0 0.386023 0.788083
0 0.378286 0.788632
0 0.433951 0.827131
0.406928 0.508919 0.863386
0.814893 0.495933 0.892012
0.911284 0.463722 0.889982
0.909255 0.430289 0.87924
0.896147 0.373999 0.861708
0 0.540063 0.841978
0 0.538201 0.841291
0 0.533623 0.839857
0 0.575616 0.868849
0.0624857 0.68957 0.903212
0.759793 0.74316 0.940414
0.951232 0.719509 0.944884
0.964736 0.699687 0.937926
0.957076 0.656092 0.925124
0 0.607217 0.859998
0 0.60708 0.859937
0 0.606455 0.859556
0 0.635004 0.876738
0 0.758862 0.922087
0.600565 0.889479 0.951919
0.951736 0.923079 0.967834
0.99527 0.918502 0.963134
0.993164 0.900267 0.954299
0 0.633371 0.866896
0 0.633417 0.866941
0 0.632288 0.865507
0 0.638834 0.86717
0 0.738094 0.909728
0.27126 0.888167 0.933562
0.898054 0.973754 0.96025
0.999954 0.984802 0.958007
1 0.981109 0.948623
0 0.652491 0.863478
0 0.652445 0.863661
0 0.652552 0.863111
0 0.652766 0.861921
0 0.722713 0.88957
0.0570687 0.855467 0.910964
0.788754 0.962509 0.937163
0.992264 0.993011 0.937179
1 0.99295 0.927901
0 0.00103761 0.59321
0 0.00103761 0.595544
0.000228885 0.00106813 0.616617
0.322881 0.000518807 0.674296
0.633997 0.000244144 0.725765
0.795316 6.10361e-05 0.75108
0.822538 3.0518e-05 0.76408
0.822538 3.0518e-05 0.76408
0.822538 3.0518e-05 0.76408
0 0.00108339 0.619898
0 0.00108339 0.620661
0 0.00202945 0.640101
0.284169 0.0590982 0.691218
0.606012 0.000320439 0.737835
0.791272 7.62951e-05 0.75877
0.823285 3.0518e-05 0.766552
0.822538 3.0518e-05 0.76408
0.822538 3.0518e-05 0.76408
0 0.00112917 0.644175
0 0.00112917 0.642985
0 0.0069276 0.6598
0.200198 0.180987 0.715084
0.57322 0.16524 0.767712
0.789319 0.00308232 0.785458
0.835233 0.0755169 0.795483
0.831998 0.0185092 0.789441
0.829282 4.57771e-05 0.78323
0 0.164309 0.696361
0 0.155749 0.693187
0 0.164935 0.704524
0.0154574 0.269581 0.754742
0.511742 0.31014 0.807187
0.800336 0.270481 0.829557
0.867536 0.270939 0.836439
0.864973 0.250446 0.830655
0.857832 0.217105 0.822095
0 0.376074 0.784344
0 0.370306 0.782132
0 0.361059 0.781613
0 0.413016 0.818906
0.37673 0.49276 0.856382
0.800519 0.489982 0.890715
0.910506 0.46743 0.893462
0.91429 0.453468 0.889509
0.905959 0.418204 0.879683
0 0.5364 0.842725
0 0.534585 0.842161
0 0.529519 0.840558
0 0.563806 0.865415
0.0433967 0.678614 0.904234
0.737545 0.737881 0.943008
0.947417 0.719829 0.952056
0.96492 0.705486 0.94966
0.958877 0.669917 0.942367
0 0.605982 0.863325
0 0.605783 0.863233
0 0.604715 0.862943
0 0.633478 0.882292
0 0.751278 0.928923
0.565393 0.881453 0.961425
0.941085 0.918486 0.98439
0.993576 0.914168 0.985855
0.991684 0.896986 0.983124
0 0.635813 0.879393
0 0.635859 0.879408
0 0.635004 0.879088
0 0.639765 0.881315
0 0.734432 0.923568
0.197925 0.882658 0.953002
0.878828 0.972686 0.990524
0.99588 0.985595 0.99498
0.999405 0.982803 0.992981
0 0.659129 0.89073
0 0.65919 0.890822
0 0.659037 0.890639
0 0.658717 0.890196
0 0.724041 0.918669
0.00843824 0.852552 0.94638
0.757839 0.963027 0.982635
0.983093 0.997253 0.994446
1 0.998917 0.993072
