media_library/luts/baidu-pack/繁花夜景2.cube
#TB：甜心酱Presets
TITLE "Generated by Resolve"
LUT_3D_SIZE 5
0.0250248 0.0362097 0.0396277
0.135897 0.0573434 0.0298619
0.55996 0.0242771 0
0.660136 0.0286259 0
0.660136 0.0286259 0
0 0.0889448 0.0566567
0.086717 0.097612 0.053666
0.575784 0.13669 0
0.708965 0.0437934 0
0.693462 0.0300603 0
0.000137331 0.305959 0.0552987
0.00015259 0.304311 0.053193
0.632929 0.463142 0.0500343
0.984207 0.465263 0.104555
0.919829 0.385657 0.0720989
0.000747692 0.464866 0.000549325
0.000747692 0.463127 0.000564584
0.218021 0.675105 0.00173953
1 0.87657 0.0617685
1 0.85037 0.0668498
0.000823987 0.510552 0.000640879
0.000823987 0.510552 0.000640879
0.000976577 0.609415 0.000762951
0.978149 0.927382 0.0416571
1 0.934829 0.0510414
0 0.0262303 0.140917
0.133455 0.0535592 0.12929
0.581949 0.0176699 0.0400854
0.676677 0.0285801 0
0.669383 0.0290227 0
0 0.098497 0.112352
0.0741588 0.102708 0.0957504
0.56669 0.106493 0
0.717678 0.0322423 0
0.696635 0.0301976 0
3.0518e-05 0.313634 0.081651
3.0518e-05 0.309224 0.0759289
0.624521 0.459342 0.0487526
0.97879 0.457099 0.101869
0.913725 0.37879 0.068864
0.000747692 0.463951 0.000564584
0.000747692 0.462318 0.000549325
0.199985 0.670481 0.00164797
1 0.874922 0.0620584
1 0.848661 0.0671855
0.000823987 0.510552 0.000640879
0.000823987 0.510552 0.000640879
0.000976577 0.608469 0.000762951
0.977157 0.927062 0.0414893
1 0.934829 0.0510414
0 0.000793469 0.455436
0.0931411 0.000610361 0.462211
0.626062 0 0.496391
0.755978 0 0.468315
0.748272 0 0.396094
0 0.00112917 0.449073
0.00163272 0.044358 0.44419
0.597498 0.00993362 0.468086
0.789883 0 0.42855
0.769985 0.000946059 0.34464
0 0.3832 0.461433
0 0.373526 0.444999
0.529137 0.469596 0.427283
0.899687 0.463111 0.330846
0.863523 0.373526 0.221485
6.10361e-05 0.526848 0.32163
9.15541e-05 0.52224 0.306203
0.0763867 0.682719 0.211963
1 0.880934 0.0614328
1 0.858885 0.0651713
0.000366217 0.541161 0.225772
0.000366217 0.540444 0.222248
0.000610361 0.616815 0.170626
0.962417 0.917159 0.0383764
1 0.931838 0.0515908
0 0.00105287 0.60032
0.0124971 0.00105287 0.619242
0.655558 0.000183108 0.706325
0.80087 0 0.717235
0.793423 0 0.69688
0 0.00111391 0.634409
0 0.00354009 0.64741
0.596231 0.0121309 0.735866
0.826596 0 0.749813
0.811826 0 0.712566
0 0.372839 0.765743
0 0.356832 0.76173
0.443961 0.47364 0.827634
0.903548 0.423545 0.832166
0.886091 0.341985 0.782712
0 0.605371 0.805081
0 0.603738 0.800519
0 0.762341 0.8439
0.980179 0.926223 0.858564
1 0.910048 0.824155
0 0.636408 0.740917
0 0.63621 0.738903
0 0.710674 0.751904
0.827726 0.943435 0.744274
1 0.980255 0.71606
0 0.00103761 0.59321
0.000228885 0.00106813 0.616617
0.633997 0.000244144 0.725765
0.822538 3.0518e-05 0.76408
0.822538 3.0518e-05 0.76408
0 0.00112917 0.644175
0 0.0069276 0.6598
0.57322 0.16524 0.767712
0.835233 0.0755169 0.795483
0.829282 4.57771e-05 0.78323
0 0.376074 0.784344
0 0.361059 0.781613
0.37673 0.49276 0.856382
0.910506 0.46743 0.893462
0.905959 0.418204 0.879683
0 0.605982 0.863325
0 0.604715 0.862943
0 0.751278 0.928923
0.941085 0.918486 0.98439
0.991684 0.896986 0.983124
0 0.659129 0.89073
0 0.659037 0.890639
0 0.724041 0.918669
0.757839 0.963027 0.982635
1 0.998917 0.993072
