media_library/luts/baidu-pack/繁花白天.cube
#TB：甜心酱Presets
TITLE "Generated by Resolve"
LUT_3D_SIZE 5
0.0250553 0.0361944 0.0395972
0.133745 0.0559854 0.0287327
0.557961 0.0144808 0
0.66775 0.0173342 0
0.66775 0.0173342 0
0 0.0893873 0.0568246
0.0749981 0.0964981 0.0540169
0.557702 0.127184 0
0.718547 0.0353399 0
0.702678 0.0182956 0
0.000549325 0.308171 0.0548257
0.000549325 0.304479 0.0551614
0.565499 0.458579 0.0297551
0.974701 0.439551 0.0601816
0.920974 0.365835 0.0335851
0.00117494 0.465476 0.000976577
0.00117494 0.464088 0.000991836
0.0819104 0.640574 0.00151064
1 0.883925 0.0551003
1 0.856107 0.059556
0.00129702 0.510369 0.00109865
0.00129702 0.510369 0.00109865
0.00148013 0.583597 0.00125124
0.899718 0.901762 0.0249485
1 0.93518 0.0465553
0 0.0185702 0.156664
0.126329 0.0509804 0.145235
0.580179 0.00762951 0.0710613
0.688075 0.0161593 0
0.678798 0.0176089 0
0 0.100465 0.126574
0.0543069 0.102617 0.109468
0.54432 0.0951858 0
0.728313 0.0196841 0
0.707713 0.0183719 0
0.000503548 0.318212 0.0898299
0.000488289 0.311894 0.0850538
0.553491 0.456001 0.0281834
0.971069 0.431708 0.0577554
0.91458 0.358282 0.030396
0.00117494 0.464485 0.000991836
0.00117494 0.463142 0.000976577
0.0619516 0.634195 0.00148013
1 0.882124 0.055375
1 0.853925 0.0598917
0.00129702 0.510369 0.00109865
0.00129702 0.510369 0.00109865
0.00146487 0.581796 0.00125124
0.893629 0.900114 0.0242466
1 0.93518 0.0465553
0 0.000991836 0.47921
0.0619974 0.0009308 0.488121
0.612238 0.000701915 0.533791
0.759579 0.000579843 0.516991
0.751385 0.000427253 0.450645
0 0.00102235 0.487388
0 0.0125124 0.483238
0.567086 0.00906386 0.52015
0.792599 0.000488289 0.492058
0.773266 0.00030518 0.409888
0.000274662 0.390692 0.524559
0.000259403 0.378973 0.508339
0.44358 0.474327 0.499809
0.884276 0.441733 0.384161
0.858961 0.363516 0.281392
0.0011902 0.543069 0.399313
0.0011902 0.539681 0.387488
0.00169375 0.670039 0.346975
1 0.88217 0.140871
1 0.857191 0.0623178
0.00135805 0.55433 0.289647
0.00134279 0.554086 0.288502
0.0015259 0.60708 0.263416
0.836469 0.87715 0.0297856
1 0.927596 0.0478523
0 0.00122072 0.596979
0.00265507 0.0012665 0.621103
0.642344 0.00106813 0.72253
0.813519 0.00102235 0.748425
0.801541 0.000976577 0.722423
0 0.00132753 0.644297
0 0.0101167 0.658869
0.562844 0.128389 0.755734
0.826978 0.00128176 0.771344
0.817441 0.0010071 0.739727
0 0.377539 0.775372
0 0.362036 0.770733
0.335897 0.477195 0.836683
0.898222 0.428779 0.861173
0.888747 0.353918 0.826032
0.000396735 0.607416 0.83682
0.000396735 0.606027 0.834424
0.000839246 0.732097 0.882902
0.92842 0.926207 0.914397
0.992493 0.90869 0.874327
0.000671397 0.645121 0.803983
0.000671397 0.645075 0.803662
0.000854505 0.694163 0.815747
0.695842 0.934554 0.841474
1 0.985443 0.820005
0 0.00122072 0.589822
0 0.0012665 0.612131
0.605982 0.00106813 0.71957
0.819745 0.00103761 0.761608
0.819913 0.00103761 0.761715
0 0.00131228 0.641001
0 0.00138857 0.653223
0.527031 0.170474 0.75964
0.830121 0.0551461 0.791577
0.826688 0.00148013 0.780835
0 0.37293 0.781399
0 0.358053 0.777173
0.246952 0.48333 0.844556
0.900694 0.464485 0.890806
0.905196 0.42208 0.879179
0.000320439 0.605432 0.861753
0.000320439 0.604715 0.861738
0.000671397 0.718196 0.918288
0.897459 0.918181 0.982071
0.991836 0.901167 0.983597
0.000488289 0.659648 0.890623
0.000488289 0.659648 0.890623
0.000610361 0.700755 0.908522
0.61268 0.939101 0.97557
1 0.99942 0.99765
