media_library/luts/baidu-pack/繁花夜景1.cube
#TB：甜心酱Presets
TITLE "Generated by Resolve"
LUT_3D_SIZE 33
0.0153964 0.0140688 0.109941
0.0172427 0.0143893 0.11043
0.0198825 0.0147707 0.110872
0.0267948 0.0155642 0.11107
0.03122 0.0171664 0.111208
0.0463264 0.0206149 0.108614
0.0669566 0.026688 0.105714
0.0874189 0.0332494 0.102434
0.123751 0.039292 0.0943465
0.165942 0.0449683 0.0826276
0.211688 0.0495766 0.0626383
0.26392 0.0539254 0.0580758
0.323613 0.0537728 0.0530404
0.383139 0.0393378 0.0486915
0.441657 0.00595102 0.0465248
0.496361 0.00819409 0.0424506
0.54023 0.0111086 0.0390936
0.571908 0.0132143 0.0366674
0.595483 0.0147707 0.0348821
0.611658 0.0158541 0.0336309
0.623285 0.0166171 0.0327459
0.631937 0.0172122 0.0320897
0.636973 0.0175479 0.0317082
0.636973 0.0175479 0.0317082
0.636973 0.0175479 0.0317082
0.636973 0.0175479 0.0317082
0.636973 0.0175479 0.0317082
0.636973 0.0175479 0.0317082
0.636973 0.0175479 0.0317082
0.636973 0.0175479 0.0317082
0.636973 0.0175479 0.0317082
0.636973 0.0175479 0.0317082
0.636973 0.0175479 0.0317082
0.0118563 0.0173648 0.110002
0.0153353 0.017731 0.110552
0.0179141 0.0179141 0.110979
0.0243534 0.0183871 0.111177
0.0292668 0.0195926 0.111269
0.0415351 0.0222324 0.110124
0.0639963 0.0278935 0.106859
0.0834211 0.0346532 0.104402
0.118105 0.0409552 0.0970779
0.162097 0.0468757 0.0846876
0.207645 0.0517739 0.0631113
0.259983 0.0563211 0.0584726
0.319387 0.0570382 0.0533761
0.381048 0.0474403 0.0485695
0.438193 0.0145876 0.0460975
0.496391 0.00819409 0.0424506
0.542245 0.0112459 0.038941
0.575296 0.0134279 0.036408
0.599756 0.0150607 0.0345464
0.616175 0.016144 0.0332952
0.627512 0.016907 0.0324254
0.634913 0.0174105 0.0318608
0.638865 0.0176547 0.0315557
0.63743 0.0175631 0.0316625
0.636973 0.0175479 0.0317082
0.636973 0.0175479 0.0317082
0.636973 0.0175479 0.0317082
0.636973 0.0175479 0.0317082
0.636973 0.0175479 0.0317082
0.636973 0.0175479 0.0317082
0.636973 0.0175479 0.0317082
0.636973 0.0175479 0.0317082
0.636973 0.0175479 0.0317082
0.00988785 0.0204929 0.110399
0.0127565 0.0208286 0.110704
0.0155642 0.0212558 0.111208
0.0217899 0.0217899 0.111437
0.0280919 0.0230564 0.111589
0.0380407 0.0252842 0.111986
0.0611582 0.030518 0.1093
0.0814374 0.0370031 0.1066
0.111528 0.0435187 0.100618
0.157488 0.0496986 0.0880598
0.203738 0.055375 0.0680095
0.255314 0.0603037 0.0589914
0.315068 0.0620127 0.0537728
0.377997 0.0567788 0.0486
0.435431 0.0314794 0.0451667
0.494697 0.00807202 0.0425727
0.543755 0.0113375 0.0388342
0.578531 0.0136568 0.0361791
0.60354 0.0153048 0.0342565
0.620706 0.0164645 0.0329442
0.632303 0.0172274 0.0320592
0.640131 0.0177462 0.0314641
0.644739 0.0180514 0.0311131
0.643091 0.0179446 0.0312352
0.641443 0.0178378 0.0313573
0.63975 0.017731 0.0314946
0.638102 0.0176089 0.0316167
0.636973 0.0175479 0.0317082
0.636973 0.0175479 0.0317082
0.636973 0.0175479 0.0317082
0.636973 0.0175479 0.0317082
0.636973 0.0175479 0.0317082
0.636973 0.0175479 0.0317082
0.00924697 0.0231022 0.111009
0.0109865 0.0231174 0.111208
0.0148318 0.0236515 0.111879
0.0199893 0.0241398 0.112383
0.0277104 0.02533 0.112642
0.0355383 0.0278782 0.1131
0.0573739 0.0322271 0.111894
0.0791791 0.03888 0.108782
0.106859 0.0460365 0.103807
0.151797 0.0530861 0.0926223
0.199924 0.0603647 0.0746319
0.251911 0.0670481 0.0595407
0.310857 0.0703899 0.0542611
0.374563 0.0681773 0.0487831
0.433082 0.0516976 0.0444038
0.493019 0.0114595 0.0424353
0.544961 0.011429 0.0387427
0.580941 0.0138094 0.0359808
0.607187 0.0155642 0.0339818
0.625345 0.0167544 0.0326085
0.637263 0.0175479 0.031693
0.645258 0.0180972 0.0310674
0.649927 0.0183871 0.0307164
0.649119 0.0183413 0.0307622
0.647517 0.0182498 0.0308995
0.645869 0.0181277 0.0310216
0.644175 0.0180209 0.0311589
0.642466 0.0179141 0.031281
0.640726 0.0177768 0.0314183
0.638926 0.0176699 0.0315404
0.63743 0.0175631 0.0316625
0.636973 0.0175479 0.0317082
0.636973 0.0175479 0.0317082
0.00367742 0.0282292 0.112306
0.00436408 0.0278477 0.11223
0.00933852 0.0281834 0.112902
0.0159762 0.0283665 0.113466
0.0256352 0.0292058 0.113848
0.0321202 0.0311589 0.114244
0.0516213 0.0344091 0.114336
0.0762646 0.0404517 0.111284
0.101366 0.0476692 0.10724
0.144915 0.0554665 0.0970321
0.194522 0.0637217 0.0820172
0.247684 0.0712444 0.0616464
0.306157 0.0772259 0.0548714
0.371267 0.0788739 0.0491035
0.431312 0.0698711 0.0440986
0.48806 0.0376593 0.04094
0.544518 0.0113832 0.0387732
0.583398 0.0139773 0.0357977
0.61117 0.0158083 0.0336767
0.630182 0.0170901 0.0322271
0.642267 0.0178836 0.0312963
0.650568 0.0184329 0.0306706
0.655314 0.0187533 0.0303044
0.655421 0.0187686 0.0302892
0.653773 0.0186618 0.0304112
0.65211 0.0185397 0.0305333
0.650446 0.0184329 0.0306706
0.648768 0.0183261 0.0307927
0.647059 0.018204 0.03093
0.645304 0.0180972 0.0310674
0.643534 0.0179751 0.0312047
0.641718 0.0178531 0.031342
0.64036 0.0177768 0.0314488
0 0.037232 0.114061
0 0.0364538 0.113954
0 0.035996 0.114183
0.00459297 0.0356146 0.114717
0.0183261 0.0357519 0.115084
0.0294041 0.0370031 0.115557
0.043061 0.0390326 0.115999
0.0724956 0.0439002 0.114702
0.0966659 0.0513771 0.111696
0.137148 0.059678 0.102464
0.188418 0.0681163 0.0882277
0.243198 0.0760357 0.0651713
0.301198 0.08336 0.0555428
0.366705 0.0873274 0.0496529
0.429725 0.0836957 0.0441138
0.485954 0.06215 0.0399634
0.541848 0.0208133 0.0382239
0.586175 0.0141604 0.035584
0.615 0.016083 0.0333867
0.635004 0.0174105 0.0318456
0.647837 0.018265 0.030869
0.656474 0.0188296 0.0302129
0.661295 0.0191501 0.0298314
0.66215 0.0192111 0.0297856
0.660426 0.019089 0.0299229
0.658701 0.0189975 0.030045
0.657038 0.0188754 0.0301671
0.655314 0.0187686 0.0303044
0.653605 0.0186465 0.0304417
0.65185 0.0185245 0.0305638
0.650065 0.0184024 0.0307012
0.648295 0.0182956 0.0308385
0.646998 0.018204 0.03093
0 0.0482338 0.116442
0 0.0474861 0.116243
0 0.0467994 0.116136
0 0.0464332 0.116365
0 0.0462654 0.116472
0.0223087 0.0472877 0.11693
0.0343633 0.0495003 0.117327
0.0660258 0.052842 0.117449
0.0938735 0.0593423 0.115648
0.130312 0.0670329 0.10959
0.183093 0.0757153 0.0944839
0.238209 0.0836957 0.0722667
0.296178 0.0918593 0.0590372
0.361227 0.0974441 0.0504311
0.427756 0.0991379 0.0444038
0.485267 0.0872663 0.0394751
0.540337 0.0527657 0.0362554
0.588525 0.0199588 0.0349737
0.619196 0.0171664 0.03299
0.640421 0.0177768 0.0314336
0.654292 0.018677 0.0303807
0.663188 0.0192874 0.0296941
0.668162 0.0196078 0.0293126
0.669657 0.0197147 0.0292058
0.667765 0.0195773 0.0293431
0.665995 0.0194705 0.0294804
0.664195 0.0193484 0.0296178
0.662379 0.0192264 0.0297551
0.660548 0.0191043 0.0298924
0.658701 0.0189975 0.030045
0.656916 0.0188602 0.0301671
0.6551 0.0187381 0.0303197
0.653819 0.0186618 0.0304112
0 0.059556 0.119341
0 0.0588693 0.119188
0 0.0580453 0.11899
0 0.0577707 0.118929
0 0.057496 0.11902
0 0.0580758 0.118791
0.0142214 0.0600137 0.118959
0.0529641 0.0635843 0.119127
0.089189 0.0690166 0.118898
0.124971 0.0770886 0.115068
0.178271 0.086183 0.103212
0.23505 0.0959945 0.0833906
0.29453 0.106661 0.0666056
0.35877 0.115343 0.0552529
0.426612 0.120272 0.0450141
0.486656 0.116243 0.0394446
0.540337 0.0946822 0.0349126
0.587076 0.0544137 0.0327001
0.620569 0.0300603 0.0318914
0.645655 0.0182956 0.0310216
0.660594 0.0194095 0.0298619
0.670604 0.0216526 0.0289616
0.676463 0.0231785 0.0284276
0.678584 0.0215457 0.0284123
0.676188 0.0201419 0.0287022
0.674266 0.0200046 0.0288396
0.672267 0.0198825 0.0290074
0.670253 0.0197604 0.02916
0.668238 0.0196231 0.0293126
0.6663 0.0194858 0.0294652
0.664393 0.0193484 0.0296025
0.66244 0.0192416 0.0297551
0.661067 0.0191348 0.0298772
0 0.0707408 0.121889
0 0.0700236 0.121752
0 0.0693217 0.121584
0 0.0687572 0.121523
0 0.0685588 0.121675
0 0.0689097 0.121416
0 0.0706188 0.121096
0.0279545 0.0739147 0.12105
0.0794842 0.0797589 0.120806
0.116518 0.0872816 0.119585
0.170703 0.0970321 0.111299
0.23125 0.108019 0.0944686
0.29453 0.120577 0.0741894
0.35816 0.132128 0.0632029
0.426703 0.140993 0.0510414
0.488991 0.143282 0.0399023
0.544396 0.135637 0.0346227
0.592248 0.119844 0.0304112
0.624308 0.0948806 0.0282139
0.64773 0.0639658 0.0276951
0.664256 0.0522927 0.0271763
0.674449 0.0502327 0.0265812
0.680888 0.0499275 0.0261234
0.684199 0.0417029 0.0264591
0.682704 0.0352026 0.0270695
0.680507 0.0318914 0.0274815
0.681666 0.0266117 0.0278325
0.679637 0.0229801 0.0282292
0.677134 0.0204013 0.0286107
0.674876 0.0200504 0.0287938
0.672801 0.019913 0.0289616
0.670649 0.0197757 0.0291295
0.669139 0.0196689 0.0292363
0 0.0881514 0.124346
0 0.0872053 0.124208
0 0.0860914 0.124041
0 0.0849317 0.123919
0 0.0843977 0.124056
0 0.084062 0.12398
0 0.0849622 0.123461
0.00526436 0.0874495 0.123171
0.0648661 0.0920424 0.122896
0.107057 0.0991836 0.121874
0.159503 0.108278 0.11725
0.226276 0.119829 0.102083
0.292561 0.13344 0.0808423
0.3579 0.147509 0.0714275
0.427268 0.159777 0.0596017
0.493629 0.166979 0.0470436
0.549737 0.166079 0.0349432
0.599893 0.158282 0.0300908
0.635142 0.14641 0.0268101
0.657923 0.129152 0.0249027
0.67364 0.115419 0.0238193
0.683772 0.112413 0.0230869
0.690608 0.118883 0.0224155
0.693736 0.119097 0.0221408
0.692149 0.104601 0.0226291
0.689586 0.087541 0.0234379
0.687327 0.0698405 0.024445
0.685466 0.0517281 0.0256657
0.683726 0.0373541 0.0268254
0.681865 0.0335088 0.0272526
0.678843 0.0301823 0.0277256
0.680369 0.0242924 0.0280766
0.678782 0.0216526 0.0283818
0 0.111528 0.126162
0 0.110338 0.12607
0 0.108949 0.125978
0 0.107454 0.125887
0 0.106294 0.125994
0 0.105699 0.126162
0 0.106035 0.125811
0 0.107881 0.125338
0.0313878 0.111452 0.124239
0.0928054 0.118242 0.122805
0.147158 0.125917 0.120333
0.217319 0.138369 0.107973
0.289906 0.153475 0.0886244
0.359625 0.168383 0.0810101
0.42977 0.18146 0.0703593
0.49926 0.191409 0.057084
0.557382 0.193545 0.0436408
0.609018 0.189593 0.0301671
0.648051 0.183276 0.0262913
0.67277 0.175891 0.0238804
0.689586 0.171054 0.0223087
0.700633 0.170764 0.0213474
0.707912 0.172717 0.0207218
0.711482 0.173587 0.0204318
0.710216 0.166506 0.0204776
0.706065 0.155322 0.020798
0.701991 0.143771 0.021149
0.698085 0.13196 0.0215915
0.694377 0.117494 0.0221256
0.691325 0.0993515 0.0228733
0.68864 0.0805676 0.0238193
0.686366 0.0611124 0.0250095
0.685054 0.0479744 0.0259556
0 0.137148 0.127886
0 0.13611 0.127825
0 0.134737 0.127733
0 0.13312 0.127642
0 0.131762 0.127626
0 0.131426 0.127871
0 0.131746 0.127764
0 0.13402 0.127169
0.00105287 0.137819 0.12575
0.0586252 0.144503 0.122683
0.124559 0.15407 0.118486
0.205661 0.163912 0.108354
0.284092 0.181277 0.0911879
0.361852 0.199588 0.0890059
0.436774 0.213306 0.0842451
0.509331 0.22443 0.0720684
0.570092 0.229511 0.0577249
0.622095 0.22771 0.0433509
0.664286 0.223392 0.0314488
0.690654 0.217411 0.0233768
0.708446 0.212314 0.0215305
0.720012 0.210681 0.0204013
0.727642 0.211643 0.0197147
0.732158 0.213748 0.0193637
0.732311 0.211521 0.0192874
0.72781 0.203372 0.0194858
0.723293 0.195071 0.0197147
0.718685 0.186435 0.0199588
0.714107 0.176608 0.0202182
0.709529 0.164645 0.0205234
0.705089 0.152392 0.0208743
0.700679 0.139574 0.0213016
0.697887 0.131228 0.021622
0 0.164508 0.129946
0 0.163485 0.129854
0 0.162188 0.129763
0 0.160464 0.129625
0 0.158907 0.129519
0 0.158679 0.129595
0 0.158968 0.129519
0 0.161166 0.128695
0 0.165438 0.127138
0.0113985 0.172045 0.123018
0.0929732 0.182879 0.11632
0.178332 0.195102 0.102693
0.276219 0.210834 0.0919203
0.358968 0.234211 0.0923323
0.441962 0.253147 0.0941482
0.523949 0.266972 0.0890974
0.590005 0.274327 0.0768597
0.643519 0.275944 0.0624552
0.687297 0.272801 0.048661
0.715465 0.267384 0.0387274
0.733333 0.261448 0.0317998
0.745098 0.258244 0.0276188
0.752667 0.257618 0.0255741
0.758083 0.259113 0.0249485
0.759258 0.257801 0.0241093
0.753643 0.248829 0.0215763
0.74789 0.239429 0.0189822
0.742504 0.229908 0.0189059
0.737316 0.220493 0.0190738
0.732403 0.211688 0.0192874
0.727474 0.202716 0.019501
0.722484 0.19353 0.0197452
0.719295 0.187533 0.0199435
0 0.194675 0.130114
0 0.193637 0.130144
0 0.19234 0.130175
0 0.190692 0.13022
0 0.188922 0.130266
0 0.1879 0.130434
0 0.188235 0.130632
0 0.190295 0.130007
0 0.194675 0.128237
0 0.201587 0.123598
0.0261082 0.212299 0.113573
0.144366 0.227085 0.095613
0.25304 0.244694 0.086244
0.353399 0.266545 0.0938735
0.439017 0.29102 0.0975509
0.530465 0.31075 0.0997177
0.610208 0.321508 0.0936751
0.668727 0.324453 0.0822003
0.715877 0.323445 0.0686961
0.747402 0.319966 0.0575418
0.765881 0.314992 0.0496529
0.777951 0.312032 0.0448615
0.785504 0.311223 0.0424201
0.791226 0.312444 0.0415503
0.792813 0.311131 0.0404822
0.787182 0.302129 0.0374456
0.780301 0.291478 0.0340887
0.773404 0.280446 0.0307469
0.76672 0.269657 0.027512
0.760235 0.259358 0.0245365
0.754101 0.249546 0.0217746
0.747951 0.239551 0.0189975
0.744152 0.232898 0.0188449
0 0.229435 0.12874
0 0.22826 0.128801
0 0.22681 0.128862
0 0.225101 0.128939
0 0.223056 0.129046
0 0.221195 0.129168
0 0.221729 0.129274
0 0.223301 0.128878
0 0.227817 0.127062
0 0.234989 0.122896
0.00300603 0.245914 0.1084
0.0777752 0.261555 0.0844282
0.217685 0.282261 0.0826581
0.333745 0.304524 0.0899825
0.435264 0.327779 0.0990768
0.528023 0.353124 0.103395
0.621561 0.37116 0.104662
0.692576 0.377127 0.0988632
0.7467 0.376699 0.0885481
0.783307 0.373739 0.0777752
0.803967 0.369146 0.0693828
0.816815 0.365866 0.0637827
0.825086 0.365133 0.0610056
0.831159 0.366629 0.0601053
0.833631 0.366964 0.0595712
0.829023 0.360021 0.0569314
0.820951 0.349508 0.0532845
0.812818 0.338689 0.0495766
0.804685 0.327596 0.0458228
0.796811 0.316426 0.0421149
0.789136 0.305058 0.0383917
0.78143 0.293324 0.034638
0.776669 0.285649 0.0323339
0 0.266621 0.124804
0 0.265721 0.124926
0 0.264363 0.125078
0 0.262699 0.125307
0 0.260639 0.125582
0 0.258518 0.125872
0 0.258274 0.126009
0 0.259937 0.125856
0 0.264393 0.123613
0 0.272221 0.117556
0 0.283986 0.10071
0.025864 0.30193 0.0790417
0.16286 0.323842 0.0800031
0.298802 0.348547 0.0843671
0.419272 0.372992 0.0949416
0.524697 0.395392 0.104723
0.622827 0.420035 0.108675
0.707759 0.434028 0.10956
0.77406 0.437293 0.105425
0.821118 0.434745 0.097734
0.846525 0.429068 0.0902266
0.860761 0.424109 0.0843214
0.869749 0.422202 0.0809796
0.875746 0.422538 0.0795758
0.879515 0.423835 0.0792706
0.876966 0.419532 0.0775464
0.868437 0.409308 0.0740368
0.859586 0.39852 0.0703136
0.850538 0.387121 0.0664836
0.841459 0.375952 0.0624857
0.832517 0.364553 0.0585031
0.823575 0.352956 0.0544594
0.818051 0.345663 0.0519417
0 0.302312 0.118746
0 0.301595 0.118883
0 0.300465 0.119081
0 0.299062 0.119341
0 0.297307 0.119677
0 0.295338 0.120043
0 0.294224 0.120272
0 0.296452 0.119829
0 0.300572 0.117174
0 0.309285 0.107668
0 0.322774 0.0906386
0.00158694 0.343206 0.0771954
0.0774701 0.368017 0.0780652
0.256123 0.393957 0.0813611
0.383429 0.421057 0.0871901
0.506447 0.44445 0.0997482
0.619913 0.467201 0.109895
0.714458 0.490196 0.113344
0.791348 0.502068 0.114717
0.851545 0.50396 0.112917
0.886961 0.499367 0.108736
0.90576 0.492515 0.104189
0.916747 0.488426 0.100923
0.923018 0.486732 0.0991684
0.927718 0.487556 0.0986343
0.927169 0.484367 0.0975357
0.918807 0.473014 0.0944381
0.910063 0.461387 0.0910506
0.90103 0.449638 0.0874342
0.891661 0.437659 0.0835889
0.88217 0.425834 0.0796826
0.87248 0.414145 0.0757
0.86659 0.407111 0.0732586
0 0.334035 0.107607
0 0.333516 0.10782
0 0.332662 0.108171
0 0.33135 0.10869
0 0.329931 0.10927
0 0.328298 0.109941
0 0.327169 0.110399
0 0.329 0.109514
0 0.333379 0.105364
0 0.342306 0.0936751
0 0.35729 0.0806287
0 0.37937 0.0767224
0.0294957 0.406271 0.0769818
0.175647 0.434684 0.0792401
0.343847 0.464912 0.082948
0.47158 0.4934 0.0908827
0.60238 0.517388 0.104906
0.716548 0.541299 0.114626
0.801205 0.561013 0.117891
0.871199 0.571725 0.119585
0.918898 0.572396 0.119493
0.943572 0.566445 0.117968
0.943877 0.560678 0.117998
0.943771 0.557565 0.1178
0.943755 0.556619 0.117845
0.943664 0.553643 0.117235
0.943328 0.543603 0.114656
0.943038 0.53164 0.111254
0.94284 0.519509 0.107469
0.94197 0.506981 0.103365
0.933669 0.493797 0.0999466
0.924498 0.48069 0.0965744
0.918791 0.472969 0.0944228
0 0.363699 0.0807355
0 0.363226 0.0812085
0 0.362509 0.0819257
0 0.361501 0.0829633
0 0.36025 0.0842145
0 0.358724 0.085771
0 0.357214 0.0874952
0 0.357809 0.0889601
0 0.362829 0.0879683
0 0.371511 0.0814374
0 0.386496 0.0767987
0 0.408042 0.0764324
0.000183108 0.4365 0.0762646
0.0823987 0.468086 0.0773785
0.292866 0.501579 0.0808728
0.434669 0.534356 0.0852064
0.56733 0.562799 0.0958114
0.702403 0.58883 0.11043
0.8056 0.610803 0.118959
0.882643 0.627451 0.122148
0.937881 0.635508 0.123827
0.950774 0.632166 0.126696
0.949737 0.625818 0.127916
0.94931 0.62295 0.128542
0.949172 0.62208 0.128893
0.948959 0.620401 0.128908
0.948013 0.613275 0.128069
0.946807 0.60235 0.126619
0.945754 0.590799 0.124865
0.944884 0.57882 0.122744
0.944183 0.566125 0.120134
0.943633 0.553307 0.117144
0.943389 0.545602 0.115175
0 0.392386 0.0766308
0 0.39202 0.0766613
0 0.391333 0.0767071
0 0.390478 0.0767681
0 0.389395 0.0768444
0 0.388052 0.0769055
0 0.386572 0.076997
0 0.386282 0.0770886
0 0.39086 0.0770123
0 0.398825 0.0766461
0 0.413031 0.0763867
0 0.433921 0.0761883
0 0.463066 0.0759594
0.0392615 0.497002 0.0764172
0.204059 0.53315 0.0789197
0.390875 0.570047 0.0823682
0.525307 0.60238 0.0883803
0.668391 0.63209 0.101686
0.795468 0.657053 0.115343
0.887785 0.675288 0.122911
0.948898 0.686702 0.126406
0.963439 0.68632 0.130358
0.961761 0.681178 0.132692
0.960906 0.678462 0.133898
0.96051 0.67718 0.134386
0.960204 0.676097 0.134539
0.959747 0.672557 0.134417
0.957259 0.664698 0.133776
0.955093 0.655375 0.132815
0.952956 0.645182 0.131731
0.951141 0.634699 0.130617
0.949432 0.623835 0.129366
0.948516 0.617273 0.128573
0 0.415564 0.0763561
0 0.415396 0.0763714
0 0.415045 0.0763714
0 0.414557 0.0763714
0 0.413794 0.0763867
0 0.412665 0.0764019
0 0.41149 0.0764019
0 0.410849 0.0764172
0 0.413733 0.0763867
0 0.422049 0.0762951
0 0.435584 0.0761578
0 0.455833 0.0760052
0 0.484306 0.0757763
0.0065156 0.520088 0.0756542
0.113817 0.559182 0.0771191
0.339803 0.599924 0.0807355
0.482704 0.636927 0.0841993
0.623392 0.6701 0.0928359
0.765957 0.700618 0.107317
0.87863 0.722087 0.119371
0.955337 0.736126 0.126864
0.979446 0.738918 0.132235
0.977707 0.734112 0.135729
0.976165 0.729427 0.137163
0.974807 0.725048 0.137224
0.974044 0.722606 0.137194
0.973007 0.719234 0.137118
0.970886 0.712383 0.136873
0.968582 0.704799 0.136507
0.966217 0.697169 0.136049
0.963912 0.689311 0.135561
0.961624 0.6813 0.135027
0.960357 0.676707 0.134707
0 0.432547 0.0762036
0 0.432395 0.0762036
0 0.432181 0.0762036
0 0.43183 0.0762036
0 0.431373 0.0762036
0 0.430838 0.0762188
0 0.430152 0.0762188
0 0.429282 0.0762341
0 0.43061 0.0762188
0 0.438911 0.0761425
0 0.45124 0.0760357
0 0.470802 0.0758831
0 0.4981 0.0756542
0 0.534279 0.075349
0.0539864 0.57554 0.0759594
0.248234 0.619623 0.0789044
0.43827 0.662242 0.0821546
0.578622 0.698772 0.0872206
0.724834 0.734066 0.0985122
0.854185 0.762005 0.11249
0.949905 0.779934 0.123217
0.992111 0.787976 0.130755
0.991226 0.785077 0.13547
0.989746 0.778607 0.137118
0.988266 0.772473 0.137301
0.987259 0.768505 0.137407
0.986267 0.764706 0.137469
0.984634 0.758587 0.13756
0.982666 0.751522 0.137606
0.980575 0.744244 0.137591
0.978332 0.736645 0.137514
0.975982 0.728908 0.137362
0.974594 0.724392 0.13727
0 0.445121 0.0760967
0 0.445075 0.0760967
0 0.444923 0.0760967
0 0.444678 0.0760967
0 0.444312 0.076112
0 0.443915 0.076112
0 0.443427 0.076112
0 0.442863 0.0761273
0 0.443641 0.076112
0 0.449775 0.076051
0 0.46186 0.0759747
0 0.479667 0.0758068
0 0.505165 0.0755932
0 0.540002 0.075288
0.0169375 0.581521 0.0752728
0.152224 0.626917 0.0771649
0.383505 0.673625 0.080827
0.532677 0.714763 0.0841993
0.678614 0.753491 0.0919814
0.820188 0.788495 0.105119
0.933913 0.812467 0.117662
0.997742 0.826368 0.127001
0.999237 0.827161 0.132784
0.998154 0.820844 0.13463
0.997208 0.815259 0.135058
0.996521 0.811551 0.135317
0.99585 0.807889 0.135576
0.994858 0.802731 0.135897
0.993606 0.796475 0.136263
0.992264 0.790158 0.136599
0.990845 0.783551 0.136919
0.989212 0.776303 0.137209
0.988144 0.77203 0.137316
0 0.455299 0.0760204
0 0.455283 0.0760204
0 0.455177 0.0760204
0 0.454978 0.0760204
0 0.454734 0.0760052
0 0.454414 0.0760204
0 0.454017 0.0760204
0 0.453529 0.0760204
0 0.453071 0.0760357
0 0.456367 0.0760204
0 0.46891 0.0758984
0 0.485283 0.075761
0 0.508415 0.0755627
0 0.540566 0.0752728
0.00131228 0.581704 0.0750134
0.0967117 0.627527 0.0762188
0.318151 0.675944 0.0796216
0.484871 0.721263 0.0825055
0.630274 0.761822 0.0876631
0.776471 0.801648 0.0982681
0.90367 0.832517 0.111559
0.985565 0.852232 0.122576
1 0.858473 0.129381
1 0.853712 0.131716
1 0.848127 0.13225
1 0.844831 0.132555
1 0.842435 0.132784
1 0.839063 0.133089
1 0.834195 0.133516
0.999496 0.82919 0.133959
0.998672 0.823926 0.134401
0.997772 0.818631 0.134798
0.997772 0.815686 0.135027
0 0.463798 0.0759442
0 0.463783 0.0759442
0 0.463676 0.0759442
0 0.463554 0.0759442
0 0.463355 0.0759442
0 0.463096 0.0759442
0 0.462806 0.0759594
0 0.462455 0.0759594
0 0.462058 0.0759747
0 0.464118 0.0759442
0 0.473747 0.0758679
0 0.489647 0.0757153
0 0.511009 0.0755322
0 0.539956 0.075288
0 0.578943 0.0749371
0.0436408 0.624201 0.075349
0.220325 0.673136 0.0779278
0.434363 0.721782 0.0813153
0.582864 0.764416 0.0849928
0.730755 0.806363 0.0930343
0.865736 0.842527 0.105379
0.966491 0.868116 0.117494
1 0.880766 0.125765
1 0.879698 0.128985
1 0.874128 0.12961
1 0.870787 0.129946
1 0.868666 0.130175
1 0.866636 0.130388
1 0.863325 0.130739
1 0.859342 0.131136
1 0.855283 0.131548
1 0.851148 0.131975
1 0.848905 0.132174
0 0.470329 0.0758831
0 0.470344 0.0758831
0 0.470314 0.0758831
0 0.470207 0.0758831
0 0.470085 0.0758831
0 0.469886 0.0758984
0 0.469642 0.0758984
0 0.469368 0.0759136
0 0.469078 0.0758984
0 0.469306 0.0758984
0 0.475441 0.0758526
0 0.49218 0.0757153
0 0.512535 0.0755322
0 0.53901 0.075288
0 0.574411 0.0749828
0.0132601 0.618387 0.074876
0.144717 0.66688 0.0766766
0.376608 0.717205 0.080293
0.534142 0.762737 0.0832074
0.681605 0.80531 0.0890516
0.82443 0.845991 0.099794
0.944976 0.876692 0.112428
1 0.89575 0.122118
1 0.899489 0.126436
1 0.89482 0.127291
1 0.891325 0.127672
1 0.889097 0.127916
1 0.887404 0.128115
1 0.885176 0.128374
1 0.882292 0.12871
1 0.879225 0.129061
1 0.876005 0.129412
1 0.874311 0.12958
0 0.47689 0.0758373
0 0.476921 0.0758373
0 0.47689 0.0758373
0 0.476768 0.0758373
0 0.4766 0.0758373
0 0.476417 0.0758373
0 0.476188 0.0758373
0 0.475914 0.0758373
0 0.475608 0.0758373
0 0.475273 0.0758526
0 0.479118 0.0758068
0 0.49337 0.0756847
0 0.513329 0.0755016
0 0.537987 0.075288
0 0.569863 0.0750134
0 0.611078 0.0746624
0.0843214 0.658106 0.0757305
0.303624 0.708568 0.0790723
0.486061 0.756634 0.0820172
0.63331 0.8 0.086244
0.779141 0.842863 0.0950484
0.90927 0.878401 0.107332
0.991989 0.903609 0.118578
1 0.913054 0.124453
1 0.90988 0.12546
1 0.906737 0.125856
1 0.904616 0.126116
1 0.903258 0.126284
1 0.901808 0.126452
1 0.899992 0.126665
1 0.898039 0.126909
1 0.895689 0.127169
1 0.89424 0.127337
0 0.48571 0.075761
0 0.485786 0.075761
0 0.485756 0.075761
0 0.485664 0.075761
0 0.485451 0.075761
0 0.485191 0.075761
0 0.484886 0.075761
0 0.484504 0.075761
0 0.484031 0.0757763
