media_library/luts/baidu-pack/繁花夜景1.cube
#TB：甜心酱Presets
TITLE "Generated by Resolve"
LUT_3D_SIZE 5
0.0153964 0.0140688 0.109941
0.123751 0.039292 0.0943465
0.54023 0.0111086 0.0390936
0.636973 0.0175479 0.0317082
0.636973 0.0175479 0.0317082
0 0.0707408 0.121889
0.0794842 0.0797589 0.120806
0.544396 0.135637 0.0346227
0.682704 0.0352026 0.0270695
0.669139 0.0196689 0.0292363
0 0.302312 0.118746
0 0.300572 0.117174
0.619913 0.467201 0.109895
0.927718 0.487556 0.0986343
0.86659 0.407111 0.0732586
0 0.463798 0.0759442
0 0.462058 0.0759747
0.220325 0.673136 0.0779278
1 0.874128 0.12961
1 0.848905 0.132174
0 0.509422 0.0755627
0 0.509422 0.0755627
0 0.608164 0.0746777
0.987976 0.923415 0.11574
1 0.930999 0.12282
0 0.00390631 0.186038
0.126635 0.0327001 0.17882
0.569528 0.000793469 0.0795758
0.653025 0.0177615 0.0305486
0.645899 0.0181277 0.0310216
0 0.0812238 0.16376
0.0659953 0.0854353 0.1523
0.538231 0.102342 0.0349889
0.692409 0.0224918 0.0273594
0.672206 0.0198672 0.0290074
0 0.31046 0.138521
0 0.305821 0.134249
0.612284 0.463111 0.109499
0.922576 0.479332 0.0963607
0.860792 0.4 0.0708171
0 0.462882 0.0759594
0 0.46125 0.0759594
0.201617 0.668574 0.0776532
1 0.872526 0.129763
1 0.847272 0.132326
0 0.509422 0.0755627
0 0.509422 0.0755627
0 0.607217 0.0746929
0.986984 0.923095 0.115602
1 0.930999 0.12282
0 0 0.452873
0.0800946 0 0.460975
0.623148 0 0.501289
0.754131 0 0.47393
0.747158 0 0.401083
0 0 0.44654
0 0.0246586 0.44126
0.594842 0 0.472648
0.788632 0 0.433951
0.769406 0 0.352056
0 0.384314 0.454917
0 0.374273 0.438666
0.522148 0.471717 0.419821
0.86891 0.472953 0.290776
0.828611 0.388159 0.196597
0 0.527108 0.321584
0 0.522438 0.308919
0.0711986 0.682063 0.234028
1 0.877867 0.129519
1 0.857069 0.13138
0 0.540978 0.244495
0 0.540246 0.241871
0 0.616281 0.202594
0.972274 0.913191 0.113207
1 0.928069 0.123201
0 0 0.597101
0 0 0.616114
0.650111 0 0.71133
0.796231 0 0.723659
0.788998 0 0.703258
0 0 0.631037
0 0 0.643946
0.590066 0 0.740047
0.821714 0 0.756451
0.807324 0 0.719097
0 0.37499 0.757961
0 0.358434 0.754116
0.438605 0.4748 0.825101
0.900847 0.423301 0.835828
0.883375 0.340276 0.786923
0 0.607691 0.794736
0 0.606043 0.790204
0 0.764645 0.831785
0.972854 0.928344 0.852354
0.988479 0.913893 0.81326
0 0.638407 0.730556
0 0.638193 0.728557
0 0.712627 0.740749
0.829145 0.942458 0.743038
1 0.978775 0.716777
0 0 0.590021
0 0 0.613336
0.628153 0 0.730495
0.817441 0 0.770672
0.817441 0 0.770672
0 0 0.640757
0 0 0.65626
0.567468 0.153735 0.770169
0.830304 0.0568551 0.801526
0.823972 0 0.789868
0 0.378408 0.77644
0 0.36289 0.773877
0.370672 0.49424 0.852522
0.907347 0.467353 0.896773
0.902632 0.418143 0.883391
0 0.60856 0.852705
0 0.607309 0.852323
0 0.753979 0.916518
0.939864 0.918212 0.983932
0.990692 0.896559 0.983444
0 0.661768 0.879423
0 0.661677 0.879362
0 0.726726 0.906584
0.755917 0.963272 0.979019
0.999542 0.998413 0.992599
