media_library/luts/baidu-pack/繁花白天.cube
#TB：甜心酱Presets
TITLE "Generated by Resolve"
LUT_3D_SIZE 9
0.0250553 0.0361944 0.0395972
0.039765 0.0390478 0.0410315
0.133745 0.0559854 0.0287327
0.33579 0.0605936 0
0.557961 0.0144808 0
0.650614 0.0168765 0
0.66775 0.0173342 0
0.66775 0.0173342 0
0.66775 0.0173342 0
0.0136263 0.049485 0.0432136
0.0339208 0.050248 0.0448005
0.107301 0.0644236 0.0424353
0.313695 0.0811017 0
0.554116 0.0197757 0
0.669703 0.01738 0
0.686305 0.0178073 0
0.679408 0.0176394 0
0.671977 0.0174411 0
0 0.0893873 0.0568246
1.5259e-05 0.0873426 0.0565347
0.0749981 0.0964981 0.0540169
0.295369 0.120638 0.0151827
0.557702 0.127184 0
0.693523 0.0513771 0
0.718547 0.0353399 0
0.711772 0.0198672 0
0.702678 0.0182956 0
0.00015259 0.177768 0.0687419
0.00015259 0.172869 0.0681468
0.000167849 0.177172 0.0661631
0.241245 0.215656 0.0158541
0.593378 0.24712 0.027863
0.770932 0.232105 0
0.808576 0.227008 0
0.788388 0.197345 0
0.766964 0.167178 0
0.000549325 0.308171 0.0548257
0.000534066 0.304097 0.0558328
0.000549325 0.304479 0.0551614
0.0236973 0.361288 0.000686656
0.565499 0.458579 0.0297551
0.914183 0.46154 0.067628
0.974701 0.439551 0.0601816
0.957641 0.410483 0.0507362
0.920974 0.365835 0.0335851
0.00105287 0.418235 0.000839246
0.00105287 0.416876 0.000823987
0.00105287 0.414343 0.000808728
0.0011902 0.470283 0.0010071
0.388373 0.621241 0.00172427
0.916701 0.730465 0.0501411
1 0.719127 0.0770428
1 0.697673 0.079118
1 0.659724 0.0814984
0.00117494 0.465476 0.000976577
0.00117494 0.465187 0.000976577
0.00117494 0.464088 0.000991836
0.0012665 0.49839 0.00106813
0.0819104 0.640574 0.00151064
0.75555 0.82182 0.014374
1 0.883925 0.0551003
1 0.871778 0.057084
1 0.856107 0.059556
0.00125124 0.498314 0.00106813
0.00125124 0.498299 0.00106813
0.00125124 0.497139 0.00106813
0.00128176 0.506661 0.00108339
0.00154116 0.613275 0.00132753
0.557549 0.794324 0.00276188
1 0.92813 0.0429999
1 0.927016 0.0479591
1 0.923766 0.0484779
0.00129702 0.510369 0.00109865
0.00129702 0.510369 0.00109865
0.00129702 0.510369 0.00109865
0.00129702 0.510369 0.00109865
0.00148013 0.583597 0.00125124
0.360861 0.740597 0.00202945
0.899718 0.901762 0.0249485
1 0.937407 0.0461585
1 0.93518 0.0465553
0.0217899 0.0373846 0.0577096
0.0370184 0.0402075 0.0572671
0.131441 0.0575113 0.0460059
0.330526 0.0350805 0
0.561547 0.0145571 0
0.65539 0.0170138 0
0.670924 0.0174105 0
0.668193 0.0173495 0
0.667765 0.0173342 0
0.005066 0.0517586 0.0582132
0.0317235 0.0518502 0.0577096
0.104509 0.0661631 0.0524758
0.309941 0.0766613 0
0.556817 0.0158846 0
0.671107 0.0174105 0
0.686183 0.0178073 0
0.678752 0.0176089 0
0.671244 0.0174258 0
0 0.0914321 0.0643626
0 0.0889601 0.0625315
0.0723583 0.0968338 0.0590372
0.290639 0.119402 0.0182498
0.55285 0.124208 0
0.691463 0.0468299 0
0.71751 0.0328527 0
0.710811 0.0193332 0
0.701885 0.0182498 0
0.000137331 0.176776 0.0707408
0.000137331 0.171313 0.0693675
0.00015259 0.17435 0.066804
0.234424 0.211353 0.0184634
0.585367 0.242847 0.0269932
0.766888 0.228489 0
0.806165 0.223774 0
0.786648 0.194873 0
0.765377 0.164874 0
0.000549325 0.30547 0.0555123
0.000534066 0.301411 0.0565347
0.000534066 0.301503 0.0563821
0.0217136 0.356252 0.000808728
0.557733 0.453452 0.0291752
0.90956 0.457084 0.0670024
0.971572 0.435111 0.0589151
0.955352 0.407523 0.0496986
0.918761 0.363287 0.0325322
0.00105287 0.417151 0.000823987
0.00105287 0.415564 0.000823987
0.00103761 0.412772 0.000808728
0.00117494 0.467399 0.000991836
0.382422 0.617746 0.00170901
0.913146 0.72755 0.0499428
1 0.716869 0.0771801
1 0.695689 0.0792859
1 0.657923 0.08159
0.00117494 0.465095 0.000976577
0.00117494 0.464897 0.000976577
0.00117494 0.463783 0.000991836
0.00125124 0.497337 0.00106813
0.0764172 0.638804 0.00151064
0.752514 0.820493 0.0141299
1 0.883543 0.0551461
1 0.871244 0.0571603
1 0.855726 0.059617
0.00125124 0.497948 0.00106813
0.00125124 0.498009 0.00106813
0.00125124 0.496834 0.00106813
0.00128176 0.50602 0.00108339
0.00154116 0.61236 0.00132753
0.555383 0.793606 0.00273136
1 0.927932 0.0429084
1 0.92697 0.0479744
1 0.923751 0.0484779
0.00129702 0.510369 0.00109865
0.00129702 0.510369 0.00109865
0.00129702 0.510369 0.00109865
0.00129702 0.510369 0.00109865
0.00146487 0.583307 0.00125124
0.35903 0.740078 0.00202945
0.898619 0.901473 0.0248112
1 0.937407 0.0461585
1 0.93518 0.0465553
0 0.0185702 0.156664
0.0259861 0.0324865 0.148394
0.126329 0.0509804 0.145235
0.341558 0.0167086 0.125551
0.580179 0.00762951 0.0710613
0.674189 0.0133974 0.00680552
0.688075 0.0161593 0
0.682246 0.0173648 0
0.678798 0.0176089 0
0 0.0505379 0.137713
0.0019379 0.0540169 0.129351
0.0985733 0.0671702 0.126131
0.310338 0.0734874 0.0935988
0.56669 0.0107576 0.0142061
0.685298 0.0161288 0
0.699153 0.0177005 0
0.689494 0.0178683 0
0.679576 0.0176394 0
0 0.100465 0.126574
0 0.0970169 0.119493
0.0543069 0.102617 0.109468
0.275441 0.128038 0.0789044
0.54432 0.0951858 0
0.69987 0.0296025 0
0.728313 0.0196841 0
0.718791 0.0187228 0
0.707713 0.0183719 0
0.000122072 0.189487 0.110491
0.000106813 0.183642 0.106798
0.000122072 0.184665 0.100755
0.225483 0.218082 0.0748302
0.584054 0.240192 0.0259556
0.77026 0.223285 0
0.809689 0.219471 0
0.789197 0.191135 0
0.765377 0.160296 0
0.000503548 0.318212 0.0898299
0.000488289 0.313588 0.0883192
0.000488289 0.311894 0.0850538
0.0118715 0.360128 0.0142977
0.553491 0.456001 0.0281834
0.910796 0.457572 0.0670787
0.971069 0.431708 0.0577554
0.952041 0.402335 0.0477302
0.91458 0.358282 0.030396
0.00103761 0.420233 0.00631724
0.00103761 0.418387 0.00598154
0.00102235 0.414084 0.00442512
0.00117494 0.465797 0.000991836
0.36968 0.612436 0.00169375
0.905592 0.722698 0.0493782
1 0.711391 0.0775311
1 0.691173 0.0796216
1 0.653422 0.0817884
0.00117494 0.464485 0.000991836
0.00117494 0.46424 0.000991836
0.00117494 0.463142 0.000976577
0.00125124 0.494804 0.00106813
0.0619516 0.634195 0.00148013
0.742763 0.816556 0.0133974
1 0.882124 0.055375
1 0.869581 0.0574197
1 0.853925 0.0598917
0.00125124 0.497124 0.00106813
0.00125124 0.497169 0.00106813
0.00125124 0.496071 0.00105287
0.0012665 0.504158 0.00108339
0.00154116 0.608942 0.00131228
0.546624 0.790722 0.00262455
0.998276 0.927031 0.0425879
1 0.92668 0.0480049
1 0.923369 0.0485389
0.00129702 0.510369 0.00109865
0.00129702 0.510369 0.00109865
0.00129702 0.510369 0.00109865
0.00129702 0.510369 0.00109865
0.00146487 0.581796 0.00125124
0.350118 0.737819 0.00202945
0.893629 0.900114 0.0242466
1 0.937453 0.0461585
1 0.93518 0.0465553
0 0.000686656 0.332418
0 0.000671397 0.325139
0.116335 0.000534066 0.329168
0.347448 0.000396735 0.335927
0.602594 0.000274662 0.333989
0.716167 0.000259403 0.315297
0.735256 0.00062562 0.285557
0.730373 0.00173953 0.23505
0.722911 0.00427253 0.172824
0 0.000640879 0.314443
0 0.00062562 0.305501
0.085359 0.0239719 0.306477
0.311513 0.020676 0.311986
0.593713 0.000228885 0.309789
0.728161 0.000564584 0.28629
0.74638 0.00144961 0.251102
0.733761 0.00332647 0.195712
0.717845 0.00637827 0.134676
0 0.0768139 0.300633
0 0.0760662 0.291295
0.00167849 0.102342 0.288609
0.271199 0.125963 0.291432
0.564126 0.0531167 0.269566
0.742031 0.00202945 0.231815
0.76875 0.00425727 0.18941
0.754147 0.00730907 0.132067
0.736553 0.010605 0.0756085
0 0.214328 0.294209
0 0.207935 0.285267
0 0.2056 0.273793
0.179614 0.234073 0.258686
0.534905 0.249424 0.199542
0.745907 0.195056 0.117769
0.785367 0.179812 0.0692454
0.771313 0.137011 0.0157321
0.756191 0.0911727 0
0.000518807 0.353887 0.251164
0.000503548 0.348501 0.245258
0.000503548 0.343908 0.234684
0.00135805 0.384024 0.214298
0.511849 0.45034 0.16495
0.884001 0.440696 0.0979477
0.957671 0.418219 0.063798
0.951827 0.396963 0.0450904
0.919249 0.356176 0.0281682
0.00102235 0.453056 0.182208
0.0010071 0.450889 0.179004
0.000991836 0.444862 0.16965
0.00117494 0.487175 0.137331
0.325521 0.620844 0.0164492
0.901015 0.736645 0.0468605
1 0.723827 0.076585
1 0.702007 0.0787213
1 0.662394 0.081529
0.00115969 0.48304 0.114427
0.00115969 0.482689 0.113252
0.00115969 0.480339 0.10544
0.00123598 0.504753 0.0609751
0.0315404 0.639414 0.00149538
0.73579 0.824598 0.0120394
1 0.89073 0.0539712
1 0.875135 0.0565347
1 0.857298 0.0593576
0.00125124 0.506477 0.1131
0.00125124 0.506737 0.114015
0.00125124 0.504509 0.10457
0.00125124 0.507927 0.0748913
0.0015259 0.605264 0.00325017
0.531243 0.788067 0.00244144
0.9953 0.926925 0.0419928
1 0.926696 0.0480049
1 0.922866 0.0486152
0.00128176 0.511604 0.0251621
0.00128176 0.511711 0.0273289
0.00128176 0.511528 0.0236515
0.0012665 0.51107 0.0148623
0.00146487 0.579416 0.00137331
0.329809 0.734081 0.00201419
0.885008 0.897734 0.0232853
1 0.937545 0.0461433
1 0.93518 0.0465553
0 0.000991836 0.47921
0 0.000976577 0.477668
0.0619974 0.0009308 0.488121
0.346685 0.000793469 0.517739
0.612238 0.000701915 0.533791
0.737301 0.00062562 0.53196
0.759579 0.000579843 0.516991
0.75555 0.000503548 0.485985
0.751385 0.000427253 0.450645
0 0.000991836 0.484504
0 0.000991836 0.47953
0.0162051 0.000976577 0.484596
0.313176 0.00077821 0.514794
0.60238 0.000717174 0.529778
0.747478 0.000595102 0.52285
0.769238 0.000534066 0.504463
0.759304 0.000457771 0.468223
0.749065 0.000381476 0.428489
0 0.00102235 0.487388
0 0.000991836 0.479912
0 0.0125124 0.483238
0.257679 0.0751812 0.509804
0.567086 0.00906386 0.52015
0.759564 0.000564584 0.511955
0.792599 0.000488289 0.492058
0.783749 0.000411994 0.452796
0.773266 0.00030518 0.409888
0 0.193896 0.513954
0 0.186816 0.505135
0 0.188418 0.503044
0.111238 0.243381 0.51281
0.534524 0.248173 0.520302
0.775204 0.182361 0.492866
0.82504 0.165331 0.464363
0.814069 0.116838 0.420691
0.799619 0.0522774 0.371923
0.000274662 0.390692 0.524559
0.000259403 0.385565 0.518196
0.000259403 0.378973 0.508339
0.000442512 0.419089 0.513298
0.44358 0.474327 0.499809
0.800855 0.470954 0.435691
0.884276 0.441733 0.384161
0.878767 0.415427 0.338857
0.858961 0.363516 0.281392
0.000946059 0.513024 0.474769
0.000946059 0.511055 0.471214
0.0009308 0.504601 0.459632
0.00108339 0.542931 0.458289
0.177523 0.652964 0.431052
0.82356 0.738521 0.414908
1 0.717159 0.386175
1 0.695201 0.333776
1 0.646067 0.25977
0.0011902 0.543069 0.399313
0.0011902 0.542687 0.398047
0.0011902 0.539681 0.387488
0.00128176 0.56051 0.37641
0.00169375 0.670039 0.346975
0.651621 0.810071 0.231479
1 0.88217 0.140871
1 0.868315 0.0749218
1 0.857191 0.0623178
0.00129702 0.557092 0.361074
0.00129702 0.557443 0.362325
0.00129702 0.55491 0.35375
0.00131228 0.555215 0.336873
0.00157168 0.636561 0.310521
0.446754 0.779889 0.171435
0.974029 0.911955 0.0602426
1 0.924758 0.0483406
1 0.925475 0.0482032
0.00135805 0.55433 0.289647
0.00134279 0.554772 0.291768
0.00134279 0.554086 0.288502
0.00135805 0.552331 0.280018
0.0015259 0.60708 0.263416
0.205554 0.729717 0.167697
0.836469 0.87715 0.0297856
1 0.930205 0.0474098
1 0.927596 0.0478523
0 0.00114443 0.555428
0 0.00114443 0.55581
0.00163272 0.00117494 0.570062
0.33753 0.000946059 0.611582
0.619348 0.0009308 0.648096
0.755703 0.000885023 0.664012
0.780636 0.000885023 0.663233
0.777249 0.000854505 0.648707
0.774105 0.000808728 0.631144
0 0.00117494 0.575128
0 0.0011902 0.573983
0 0.00120546 0.588235
0.30219 0.000976577 0.630228
0.604578 0.000976577 0.664942
0.763745 0.000900282 0.673152
0.789624 0.000869764 0.666621
0.779355 0.000839246 0.642649
0.772351 0.000793469 0.619867
0 0.00123598 0.597879
0 0.00122072 0.593988
0 0.00125124 0.605768
0.237629 0.0274357 0.642313
0.565377 0.00123598 0.681285
0.773709 0.0009308 0.690959
0.813138 0.000900282 0.685679
0.805768 0.000854505 0.660471
0.796719 0.000793469 0.630777
0 0.112978 0.638071
0 0.0960708 0.631861
0 0.101808 0.635203
0.0450599 0.223957 0.676356
0.512596 0.23241 0.713588
0.772961 0.1364 0.711666
0.83064 0.118471 0.697902
0.823835 0.0406958 0.669673
0.81619 0.00848402 0.63621
0 0.38558 0.716411
0 0.379858 0.712367
0 0.370779 0.706798
0 0.412345 0.731441
0.386374 0.480079 0.747875
0.796613 0.469078 0.752865
0.900496 0.435874 0.729503
0.902022 0.414237 0.70132
0.886244 0.361028 0.657816
0.000411994 0.543557 0.728771
0.000411994 0.542046 0.726802
0.000411994 0.536965 0.719844
0.000534066 0.570474 0.732006
0.0065919 0.683024 0.742641
0.740688 0.751064 0.745754
0.947066 0.739971 0.697734
0.964782 0.725338 0.66656
0.954665 0.680201 0.61915
0.000762951 0.593164 0.688273
0.000762951 0.59295 0.687404
0.000762951 0.590967 0.680812
0.000839246 0.609705 0.679576
0.0012665 0.720806 0.696422
0.56614 0.856001 0.680308
0.98323 0.922911 0.678508
1 0.919799 0.655879
1 0.901473 0.615076
0.0009308 0.609369 0.648707
0.0009308 0.609659 0.64976
0.0009308 0.608026 0.643519
0.000961318 0.608011 0.632242
0.00125124 0.689906 0.643824
0.260639 0.830243 0.620035
0.895811 0.93463 0.593256
1 0.961593 0.570504
1 0.951171 0.516915
0.00108339 0.611429 0.580652
0.00109865 0.611887 0.582971
0.00109865 0.611276 0.580041
0.00111391 0.609613 0.571847
0.00129702 0.662882 0.577707
0.0386206 0.781186 0.563928
0.752728 0.900084 0.536171
1 0.96434 0.530861
1 0.956268 0.491707
0 0.00122072 0.596979
0 0.00123598 0.601328
0.00265507 0.0012665 0.621103
0.340551 0.00103761 0.675471
0.642344 0.00106813 0.72253
0.790356 0.00103761 0.743084
0.813519 0.00102235 0.748425
0.807233 0.0010071 0.735302
0.801541 0.000976577 0.722423
0 0.00128176 0.622309
0 0.00128176 0.624735
0 0.00733959 0.64416
0.297154 0.090135 0.696284
0.60911 0.00448615 0.736782
0.787015 0.00105287 0.7523
0.813977 0.00102235 0.74905
0.804608 0.000991836 0.728893
0.798535 0.000976577 0.715373
0 0.00132753 0.644297
0 0.00132753 0.642145
0 0.0101167 0.658869
0.197971 0.179767 0.712581
0.562844 0.128389 0.755734
0.78088 0.00576791 0.769131
0.826978 0.00128176 0.771344
0.823865 0.00106813 0.757488
0.817441 0.0010071 0.739727
0 0.170169 0.694911
0 0.157137 0.689891
0 0.156847 0.696208
0.00679026 0.252293 0.741176
0.493797 0.276417 0.788098
0.778103 0.202045 0.802701
0.84361 0.153185 0.799481
0.837949 0.0834211 0.784466
0.831724 0.0102998 0.767285
0 0.377539 0.775372
0 0.372107 0.772976
0 0.362036 0.770733
0 0.400534 0.802853
0.335897 0.477195 0.836683
0.778363 0.467353 0.866728
0.898222 0.428779 0.861173
0.902876 0.409171 0.849897
0.888747 0.353918 0.826032
0.000106813 0.541253 0.828717
9.15541e-05 0.53959 0.827726
9.15541e-05 0.533379 0.824125
0.000167849 0.564218 0.845548
0.000595102 0.677028 0.882139
0.699535 0.747829 0.912169
0.942611 0.731472 0.913771
0.968063 0.718608 0.903075
0.959869 0.672969 0.880598
0.000396735 0.607416 0.83682
0.000396735 0.607294 0.836683
0.000396735 0.606027 0.834424
0.000457771 0.623117 0.841321
0.000839246 0.732097 0.882902
0.477562 0.872328 0.902281
0.92842 0.926207 0.914397
0.993774 0.926116 0.896712
0.992493 0.90869 0.874327
0.000534066 0.630823 0.828199
0.000534066 0.630961 0.828595
0.000534066 0.630289 0.826688
0.000549325 0.629633 0.823102
0.000823987 0.709682 0.853834
0.0962692 0.856321 0.869459
0.840192 0.958068 0.883986
1 0.98114 0.875914
1 0.977417 0.852552
0.000671397 0.645121 0.803983
0.000671397 0.64538 0.805325
0.000671397 0.645075 0.803662
0.000671397 0.644312 0.799527
0.000854505 0.694163 0.815747
0.00132753 0.815702 0.832898
0.695842 0.934554 0.841474
0.98529 0.983093 0.836728
1 0.985443 0.820005
0 0.00122072 0.593072
0 0.00122072 0.59588
0 0.0012665 0.614801
0.316854 0.00103761 0.670939
0.623255 0.00106813 0.721904
0.789136 0.00103761 0.747906
0.819898 0.00103761 0.76173
0.819913 0.00103761 0.761715
0.819913 0.00103761 0.761715
0 0.0012665 0.619272
0 0.00128176 0.620233
0 0.00131228 0.639063
0.272099 0.0784924 0.689799
0.589334 0.00337224 0.735759
0.783886 0.00105287 0.757748
0.820981 0.00105287 0.766323
0.819913 0.00103761 0.761776
0.819913 0.00103761 0.761715
0 0.00132753 0.643412
0 0.00131228 0.641901
0 0.00437934 0.657542
0.159747 0.185077 0.711681
0.547372 0.178225 0.765316
0.777356 0.0265812 0.784009
0.834012 0.0881361 0.795483
0.831312 0.0479133 0.790036
0.827482 0.00199893 0.783017
0 0.176974 0.698924
0 0.169421 0.69604
0 0.175143 0.705318
0 0.267491 0.753475
0.470741 0.320684 0.804486
0.783062 0.287953 0.830777
0.864576 0.276967 0.836484
0.86685 0.26772 0.833463
0.858656 0.231632 0.823621
0 0.386999 0.78674
0 0.382803 0.785153
0 0.373754 0.783764
0 0.414145 0.815381
0.282506 0.499825 0.851881
0.764446 0.50898 0.89131
0.906462 0.480385 0.89543
0.917372 0.473198 0.89337
0.907225 0.430594 0.881071
7.62951e-05 0.542199 0.843168
6.10361e-05 0.540887 0.842741
3.0518e-05 0.536461 0.841337
0.000106813 0.563073 0.861585
0.000503548 0.671931 0.903487
0.665705 0.746761 0.939467
0.934646 0.735714 0.953094
0.967391 0.724697 0.951736
0.959731 0.6795 0.940642
0.000320439 0.607141 0.862135
0.000320439 0.607065 0.862104
0.000320439 0.606104 0.861677
0.000366217 0.624353 0.874693
0.000717174 0.726909 0.920119
0.403052 0.865995 0.949737
0.908522 0.923339 0.979492
0.993042 0.922835 0.981323
0.99292 0.905364 0.975998
0.000411994 0.635447 0.875471
0.000411994 0.63563 0.875608
0.000411994 0.635004 0.875257
0.000411994 0.633555 0.874113
0.000656138 0.707988 0.908629
0.0311131 0.85481 0.940597
0.807797 0.962783 0.977157
0.989731 0.986633 0.983688
0.999039 0.98497 0.978012
0.000503548 0.654215 0.878157
0.000488289 0.654276 0.878355
0.000488289 0.654215 0.878126
0.000503548 0.654017 0.877424
0.000640879 0.69897 0.898726
0.00109865 0.819333 0.932387
0.64625 0.942657 0.961074
0.962722 0.992798 0.975662
1 0.996902 0.971435
0 0.00122072 0.589822
0 0.00122072 0.591363
0 0.0012665 0.612131
0.29691 0.00102235 0.667002
0.605982 0.00106813 0.71957
0.785183 0.00103761 0.747051
0.819745 0.00103761 0.761608
0.819913 0.00103761 0.761715
0.819913 0.00103761 0.761715
0 0.0012665 0.616571
0 0.0012665 0.616434
0 0.00131228 0.634592
0.250385 0.054902 0.6813
0.570077 0.00128176 0.729961
0.777279 0.00105287 0.754009
0.82002 0.00105287 0.763745
0.819913 0.00103761 0.761746
0.819913 0.00103761 0.761715
0 0.00131228 0.641001
0 0.00131228 0.639689
0 0.00138857 0.653223
0.13872 0.172747 0.703777
0.527031 0.170474 0.75964
0.769772 0.0247654 0.78088
0.830121 0.0551461 0.791577
0.829725 0.0237125 0.787579
0.826688 0.00148013 0.780835
0 0.160662 0.692714
0 0.153338 0.689952
0 0.15436 0.696452
0 0.248142 0.744976
0.446189 0.308476 0.797208
0.77084 0.276936 0.825925
0.859648 0.261234 0.831693
0.863966 0.255344 0.829999
0.856138 0.219471 0.820615
0 0.37293 0.781399
0 0.368368 0.779629
0 0.358053 0.777173
0 0.396643 0.80798
0.246952 0.48333 0.844556
0.747158 0.494148 0.885939
0.900694 0.464485 0.890806
0.914382 0.460624 0.889998
0.905196 0.42208 0.879179
3.0518e-05 0.535515 0.841031
4.57771e-05 0.534386 0.840696
1.5259e-05 0.529885 0.839277
6.10361e-05 0.550439 0.856077
0.000442512 0.655848 0.899687
0.643626 0.732982 0.935531
0.928588 0.723934 0.950988
0.96553 0.714305 0.950668
0.958877 0.675517 0.942626
0.000320439 0.605432 0.861753
0.000320439 0.605402 0.861738
0.000320439 0.604715 0.861738
0.000350958 0.61973 0.872877
0.000671397 0.718196 0.918288
0.354467 0.857664 0.949187
0.897459 0.918181 0.982071
0.991089 0.91722 0.986068
0.991836 0.901167 0.983597
0.000411994 0.635447 0.878111
0.000411994 0.63566 0.878187
0.000396735 0.63505 0.877928
0.000411994 0.633906 0.877409
0.000640879 0.705348 0.91162
0.00543221 0.84889 0.94551
0.7879 0.95964 0.98497
0.985855 0.985702 0.996429
0.998886 0.983612 0.995285
0.000488289 0.659648 0.890623
0.000488289 0.659648 0.890623
0.000488289 0.659648 0.890623
0.000488289 0.659648 0.890623
0.000610361 0.700755 0.908522
0.00105287 0.815961 0.943877
0.61268 0.939101 0.97557
0.952987 0.993332 0.996689
1 0.99942 0.99765
