media_library/luts/baidu-pack/风情de复古暖.cube
TITLE "Generated by Resolve"
LUT_3D_SIZE 9
0.00820935 0.0471656 0.0352636
0.0442359 0.0479133 0.028336
0.105333 0.0496529 0.0102235
0.226368 0.0471199 0.000213626
0.415579 0.0463874 0
0.575448 0.0570382 0
0.687724 0.0818189 0
0.757748 0.0892195 0
0.791806 0.0981308 0
0.0024567 0.0659495 0.0374151
0.0379492 0.0679179 0.0301061
0.118166 0.071397 0.00953689
0.270665 0.0742809 0.000167849
0.488487 0.0792096 0
0.651942 0.0927291 0
0.755734 0.116457 0
0.812757 0.121675 0
0.84033 0.132708 0
0.000183108 0.100847 0.038407
0.0190127 0.107271 0.0248264
0.119997 0.116411 0.00436408
0.312963 0.12932 3.0518e-05
0.557031 0.145785 0
0.724453 0.160388 0
0.822507 0.177813 0
0.87393 0.184375 0
0.898878 0.198001 0
0 0.177813 0.046067
0.00148013 0.191379 0.0208438
0.0781109 0.208591 0.000640879
0.327932 0.240284 0
0.6009 0.273289 0
0.775326 0.301091 0
0.874388 0.31632 0
0.924331 0.320562 0
0.9467 0.333516 0
0 0.325795 0.0922103
0 0.34815 0.051133
0.0281376 0.368338 0.00169375
0.311543 0.419303 0
0.634028 0.474632 0
0.812985 0.504204 0
0.915343 0.513405 0
0.961868 0.508507 0
0.982116 0.509834 0
0 0.484108 0.159915
0 0.510216 0.107958
0.0170748 0.536568 0.00958267
0.333043 0.596902 0
0.677104 0.656596 0
0.849363 0.673213 0
0.944305 0.669352 0
0.992477 0.660334 0
0.999939 0.655512 0
0 0.564996 0.176242
0 0.588785 0.129
0.0135042 0.621042 0.0195315
0.315435 0.680369 0
0.668925 0.745846 0
0.851072 0.766674 0
0.95288 0.765896 0
0.999069 0.762249 0
1 0.763714 0
0 0.591928 0.183352
0 0.613108 0.141909
0.00505074 0.644114 0.0208743
0.247944 0.706859 0
0.629511 0.78117 0
0.839704 0.815076 0
0.953185 0.819898 0
0.999466 0.81825 0
1 0.81854 0
0 0.610361 0.182498
0 0.63563 0.142428
0.00364691 0.66685 0.0217594
0.212116 0.721111 0
0.591684 0.791211 0
0.819776 0.8327 0
0.947799 0.841749 0
0.999496 0.842756 0
1 0.844114 0
0.00447089 0.0494392 0.0561074
0.0387274 0.0498665 0.0504005
0.103532 0.0507057 0.0329747
0.227863 0.0451972 0.00570687
0.422583 0.024506 3.0518e-05
0.58999 0.0223545 0
0.706844 0.042237 0
0.778424 0.0542458 0
0.813703 0.058381 0
0.0009308 0.0689708 0.0615396
0.0305791 0.071107 0.0556344
0.116487 0.0743267 0.0354467
0.272984 0.0729381 0.00541695
0.494743 0.0599069 1.5259e-05
0.666178 0.0528572 0
0.777752 0.0675822 0
0.841352 0.0690013 0
0.871351 0.0744945 0
3.0518e-05 0.10631 0.0661479
0.0139467 0.112215 0.0566415
0.117586 0.121141 0.0301061
0.316579 0.131868 0.00366217
0.565118 0.132357 0
0.740093 0.132723 0
0.847776 0.138994 0
0.902251 0.14403 0
0.929519 0.156085 0
0 0.191882 0.079408
0.000732433 0.203357 0.056611
0.0709392 0.217899 0.0131533
0.331319 0.246616 0.000503548
0.609262 0.269978 0
0.79118 0.290776 0
0.898024 0.300755 0
0.950317 0.30573 0
0.975113 0.31931 0
0 0.349828 0.132342
0 0.371344 0.093904
0.0192874 0.385275 0.0116121
0.309148 0.429511 0
0.640391 0.479362 0
0.825956 0.506996 0
0.929427 0.517571 0
0.977508 0.512367 0
0.993027 0.513497 0
0 0.502876 0.193668
0 0.531945 0.153658
0.0116579 0.55317 0.0251469
0.317296 0.604318 0
0.676783 0.659251 0
0.85658 0.677668 0
0.954177 0.675929 0
0.998199 0.66659 0
1 0.662974 0
0 0.58085 0.218311
0 0.608469 0.182345
0.00764477 0.634821 0.0438239
0.28455 0.685359 0
0.663371 0.748898 0
0.856245 0.772915 0
0.960952 0.774334 0
0.999832 0.770718 0
1 0.771359 0
0 0.605676 0.226642
0 0.630747 0.196338
0.00265507 0.659693 0.0576638
0.20766 0.713619 0
0.62385 0.785168 0
0.843214 0.821118 0
0.961593 0.826703 0
0.999908 0.826841 0
1 0.826658 0
0 0.627298 0.237171
0 0.657893 0.214984
0.00131228 0.685649 0.0829786
0.164187 0.73373 0.000183108
0.577356 0.798108 0
0.818753 0.838041 0
0.962768 0.851118 0
0.999985 0.855009 0
1 0.855756 0
0.0010071 0.0531167 0.0978866
0.02533 0.0516518 0.0941176
0.0972152 0.0511788 0.0798352
0.224491 0.0438392 0.0499123
0.424475 0.00773632 0.0161288
0.602625 0.00015259 0.00631724
0.733104 0.000915541 0.00277714
0.812741 0.00247196 0.00151064
0.851591 0.00204471 0.000747692
0.000167849 0.0747387 0.109926
0.0180972 0.0749523 0.10724
0.107759 0.0768444 0.0939193
0.273411 0.0736248 0.0619516
0.497353 0.0420386 0.0256657
0.684337 0.00646983 0.0134585
0.813169 0.00422675 0.00634775
0.884138 0.00561532 0.00436408
0.918502 0.00457771 0.00337224
0 0.118624 0.124819
0.00630198 0.121675 0.120317
0.102846 0.128618 0.103029
0.319203 0.137392 0.0685283
0.570855 0.126604 0.0300603
0.755306 0.102785 0.0146944
0.883162 0.0693675 0.0108186
0.949096 0.0614786 0.010071
0.9776 0.0720836 0.00872816
0 0.214679 0.145754
0.000259403 0.224216 0.134722
0.0548714 0.232639 0.0941329
0.325231 0.256092 0.0437171
0.611643 0.269261 0.0145876
0.806241 0.275547 0.00523384
0.927855 0.275929 0.00427253
0.986267 0.275166 0.00376898
0.998932 0.291096 0.00445563
0 0.381109 0.204456
0 0.404974 0.184268
0.0119631 0.41178 0.0840467
0.289158 0.443549 0.0135653
0.63566 0.479408 0.00227359
0.839307 0.499779 0.00103761
0.959045 0.507057 0.000381476
0.998337 0.501991 0.000213626
0.999985 0.504784 6.10361e-05
0 0.525277 0.26183
0 0.560067 0.241718
0.00769055 0.579065 0.102541
0.279438 0.614755 0.00604257
0.658473 0.657832 0.000396735
0.860456 0.675563 0
0.975158 0.678187 0
0.999969 0.669154 0
1 0.667018 0
0 0.600748 0.291966
0 0.631022 0.270878
0.00344854 0.657099 0.13138
0.223941 0.695659 0.00541695
0.637446 0.750088 6.10361e-05
0.855894 0.776761 0
0.978042 0.784512 0
1 0.78407 0
1 0.78436 0
0 0.623972 0.299748
0 0.652934 0.284901
0.000350958 0.68426 0.163836
0.14815 0.728069 0.00766003
0.59379 0.791241 0.000137331
0.841321 0.827649 0
0.978363 0.840177 0
1 0.843748 0
1 0.844984 4.57771e-05
0 0.64979 0.324025
0 0.683757 0.317357
3.0518e-05 0.71313 0.218799
0.106554 0.752911 0.0352789
0.543572 0.809583 0.00242618
0.8047 0.847929 0.00128176
0.968505 0.866758 0.00213626
1 0.874052 0.00234989
1 0.87303 0.00866712
0 0.0763104 0.202579
0.00675975 0.0607919 0.198779
0.0789654 0.0445869 0.188205
0.218204 0.0364691 0.16965
0.420127 0.00563058 0.147127
0.602197 0 0.127337
0.736263 0 0.110307
0.822675 0 0.0944381
0.864668 0 0.0829633
0 0.110216 0.237003
0.00404364 0.0951247 0.235645
0.0830243 0.0778668 0.224903
0.266468 0.0728313 0.209003
0.496788 0.0393378 0.188724
0.691493 0.00077821 0.185901
0.822187 0 0.17351
0.900694 0 0.159808
0.934157 3.0518e-05 0.148913
0 0.168643 0.274205
0.00108339 0.15816 0.274556
0.070573 0.141573 0.260365
0.308248 0.143877 0.244083
0.568856 0.131319 0.222156
0.756695 0.104143 0.216159
0.884688 0.0665446 0.218448
0.957 0.0488594 0.219242
0.984802 0.0595865 0.215061
0 0.272969 0.307988
0 0.278676 0.310536
0.0267643 0.26363 0.278004
0.29807 0.27248 0.242985
0.599191 0.280919 0.212451
0.799283 0.284306 0.199313
0.925399 0.279179 0.194202
0.986801 0.274678 0.190494
0.999527 0.29276 0.191058
0 0.436362 0.360815
0 0.464942 0.36817
0.00386053 0.461707 0.303441
0.236744 0.471351 0.214557
0.608515 0.495888 0.160098
0.826398 0.513497 0.13547
0.959686 0.513558 0.116289
0.999878 0.501732 0.10222
1 0.50277 0.0889906
0 0.572885 0.415946
0 0.608057 0.421027
0.000946059 0.62945 0.345098
0.200122 0.64538 0.20415
0.612711 0.673396 0.122271
0.83769 0.686961 0.0873732
0.975814 0.687175 0.0596475
1 0.676951 0.0392157
1 0.676417 0.0324865
0 0.644297 0.448707
0 0.674281 0.447761
0.000137331 0.700694 0.367422
0.126207 0.728466 0.194232
0.578607 0.767483 0.0935836
0.82649 0.792432 0.0574197
0.978469 0.804883 0.0342565
1 0.806424 0.030869
1 0.80911 0.0301671
0 0.664424 0.447272
0 0.693843 0.45153
0 0.727214 0.391028
0.0702525 0.765988 0.216129
0.527855 0.813779 0.108858
0.804395 0.847257 0.079118
0.969207 0.865217 0.0615549
1 0.872465 0.0510719
1 0.872023 0.0776837
0 0.689067 0.469932
0 0.723018 0.481971
0 0.755398 0.4365
0.049958 0.78912 0.295644
0.480964 0.836866 0.19501
0.764538 0.871412 0.170367
0.939223 0.892103 0.170672
0.999847 0.902022 0.171878
1 0.901335 0.205341
0 0.163821 0.381277
0.00158694 0.124468 0.378256
0.0649424 0.0230106 0.37084
0.219394 0.00476081 0.366384
0.421057 0.000396735 0.350835
0.604501 0 0.342
0.738186 0 0.333944
0.829862 0 0.320592
0.873091 0 0.308476
0 0.207019 0.430869
0.000183108 0.173541 0.434714
0.0527657 0.080827 0.4262
0.259709 0.055375 0.423636
0.500481 0.0194247 0.421149
0.692988 0.000228885 0.427344
0.823743 0 0.427802
0.904723 0 0.421195
0.939284 3.0518e-05 0.413413
0 0.266636 0.480156
0 0.248676 0.491447
0.0366522 0.17293 0.483543
0.289372 0.147219 0.479561
0.560632 0.132143 0.475608
0.751705 0.105898 0.482689
0.883268 0.0706035 0.493599
0.956863 0.0517586 0.497795
0.982025 0.0650492 0.493599
0 0.357397 0.522164
0 0.365179 0.541466
0.00840772 0.322301 0.52723
0.251942 0.297047 0.504829
0.581003 0.300359 0.494881
0.784558 0.299886 0.495308
0.911543 0.295888 0.497169
0.977691 0.294011 0.496101
0.998474 0.310506 0.493156
0 0.498054 0.569711
0 0.528969 0.594461
9.15541e-05 0.531487 0.576867
0.159457 0.512917 0.513924
0.56614 0.526375 0.481575
0.793484 0.540078 0.468299
0.932387 0.541222 0.458106
0.997147 0.522286 0.441993
1 0.522881 0.423743
0 0.631708 0.624598
0 0.667933 0.646906
0 0.693339 0.625116
0.0969711 0.693202 0.530129
0.550637 0.707469 0.468788
0.7897 0.717739 0.440711
0.93785 0.71722 0.420005
0.999725 0.705226 0.398123
1 0.703975 0.377966
0 0.700771 0.654917
0 0.729549 0.6645
0 0.759335 0.636072
0.0557107 0.779217 0.52958
0.502724 0.804868 0.446586
0.772686 0.828519 0.421027
0.935164 0.838499 0.404471
0.999893 0.840436 0.390372
1 0.843442 0.382696
0 0.7187 0.649454
0 0.747494 0.663233
0 0.78323 0.643961
0.0256352 0.818463 0.549813
0.443183 0.853529 0.458625
0.747326 0.884978 0.439979
0.923003 0.90219 0.429114
0.999084 0.907851 0.419043
1 0.911025 0.423575
0 0.740124 0.661723
0 0.772839 0.683055
0 0.805249 0.668833
0.0115053 0.843153 0.595285
0.397116 0.876081 0.515846
0.709468 0.907515 0.500038
0.894865 0.926589 0.500084
0.993912 0.935424 0.500969
1 0.938766 0.507744
0 0.238453 0.518349
0.000732433 0.215183 0.525246
0.054612 0.0520638 0.528618
0.218357 1.5259e-05 0.536187
0.427909 0 0.53753
0.613184 0 0.537316
0.751431 0 0.535225
0.840574 0 0.527611
0.886107 0 0.520546
0 0.271656 0.562707
0 0.257633 0.57734
0.0439765 0.122774 0.588693
0.261784 0.0220493 0.60795
0.509392 0.00189212 0.619196
0.699153 0 0.624292
0.836072 0 0.633616
0.913832 0 0.630945
0.950378 1.5259e-05 0.627771
0 0.319112 0.60972
0 0.311696 0.629892
0.0213321 0.214847 0.648356
0.276982 0.144106 0.666117
0.562051 0.123934 0.673381
0.755871 0.0968795 0.685603
0.891814 0.0610208 0.703899
0.96173 0.0534676 0.707027
0.987884 0.0640269 0.709529
0 0.404822 0.659052
0 0.413352 0.68304
0.00325017 0.371389 0.698726
0.217639 0.314687 0.704067
0.571054 0.312474 0.70312
0.77792 0.311818 0.708202
0.905287 0.308553 0.712734
0.973449 0.307652 0.715236
0.997803 0.320684 0.712978
0 0.534401 0.707622
0 0.563241 0.73492
0 0.576547 0.750607
0.0984817 0.545724 0.730709
0.533471 0.55021 0.70634
0.769238 0.561074 0.699153
0.913588 0.558679 0.691814
0.988083 0.54081 0.677089
1 0.539757 0.66453
0 0.662028 0.76492
0 0.696025 0.787961
0 0.727489 0.795132
0.0637064 0.726894 0.752331
0.494041 0.731487 0.701595
0.752285 0.741772 0.68191
0.910811 0.741741 0.667659
0.99295 0.730755 0.649607
1 0.729412 0.639307
0 0.731136 0.79617
0 0.760067 0.809583
0 0.794568 0.808301
0.0311131 0.816922 0.75816
0.435355 0.835966 0.690425
0.729656 0.857343 0.671702
0.903273 0.867811 0.66041
0.992462 0.869932 0.647883
1 0.87245 0.643168
0 0.752499 0.795605
0 0.78172 0.812604
0 0.821378 0.814908
0.0105898 0.858412 0.772869
0.374365 0.887922 0.703822
0.700572 0.915755 0.686671
0.887022 0.931517 0.677684
0.986984 0.93698 0.668681
1 0.941161 0.667994
0 0.7738 0.807172
0 0.80589 0.828138
0 0.842054 0.833417
0.00375372 0.878294 0.800641
0.326879 0.908614 0.739651
0.667979 0.935576 0.724788
0.862409 0.954009 0.722744
0.974166 0.961807 0.718456
0.999939 0.965698 0.721721
0 0.275105 0.599283
0 0.26746 0.609064
0.0294957 0.152834 0.627146
0.211719 0.00309758 0.659998
0.426734 0 0.668803
0.618067 0 0.673991
0.759594 0 0.675074
0.850797 0 0.667079
0.896452 0 0.665125
0 0.307851 0.642954
0 0.300999 0.661433
0.0360113 0.163195 0.695796
0.261051 0.0089723 0.744213
0.512871 0.000244144 0.757641
0.705974 0 0.76643
0.842649 0 0.772747
0.921126 0 0.770382
0.959075 0 0.773342
0 0.353567 0.687953
0 0.348196 0.712856
0.0151827 0.245731 0.753674
0.263798 0.141665 0.798047
0.563561 0.113924 0.814694
0.763119 0.081178 0.830335
0.895994 0.0575723 0.844846
0.966125 0.0505531 0.847761
0.994949 0.0550546 0.853971
0 0.429648 0.734249
0 0.438376 0.761425
0.0019379 0.406119 0.798932
0.190906 0.330022 0.843259
0.560693 0.319005 0.850523
0.773983 0.319142 0.856977
0.904372 0.316365 0.861494
0.971679 0.313329 0.86128
0.997055 0.329015 0.859022
0 0.555077 0.789578
0 0.581155 0.816083
0 0.594995 0.847684
0.0766308 0.565881 0.875853
0.509529 0.564736 0.864317
0.754345 0.573907 0.860029
0.899931 0.568582 0.853666
0.978622 0.551659 0.843091
0.999878 0.549172 0.832975
0 0.677684 0.842222
0 0.707683 0.866331
0 0.739223 0.888182
0.0410315 0.745769 0.893675
0.450172 0.746395 0.86389
0.724117 0.756512 0.849226
0.888716 0.754376 0.837964
0.978256 0.744259 0.825818
0.999985 0.744503 0.818158
0 0.741375 0.867155
0 0.767498 0.883009
0 0.803586 0.897505
0.01149 0.838819 0.898894
0.380331 0.857496 0.860685
0.697475 0.87718 0.84358
0.878264 0.88687 0.834348
0.97525 0.888121 0.824079
0.999893 0.891875 0.81915
0 0.763607 0.8692
0 0.790799 0.887373
0 0.8318 0.904295
0.00315862 0.881529 0.908858
0.310826 0.912764 0.869963
0.668772 0.93753 0.85301
0.862898 0.951827 0.844007
0.96791 0.957717 0.837537
0.999466 0.961318 0.835966
0 0.783948 0.879271
0 0.814023 0.900649
0 0.852171 0.917845
0.00151064 0.899123 0.924254
0.281804 0.93138 0.890867
0.641901 0.956085 0.875502
0.840955 0.972045 0.869657
0.955581 0.980194 0.86659
0.99762 0.983429 0.86688
0 0.300969 0.657313
0 0.294697 0.668025
0.0199741 0.200656 0.695644
0.202167 0.00822461 0.759243
0.425422 0 0.777737
0.617578 0 0.78677
0.763302 0 0.791836
0.86215 0 0.786862
0.909926 0 0.783566
0 0.333639 0.698787
0 0.32752 0.717083
0.0276646 0.187793 0.76582
0.25211 0.00816358 0.840696
0.50901 0.000198367 0.86183
0.71017 0 0.876936
0.849058 0 0.884413
0.931517 0 0.883223
0.970001 0 0.887541
0 0.375525 0.740597
0 0.372961 0.764904
0.010605 0.276188 0.816419
0.248234 0.140459 0.890379
0.557061 0.109407 0.913405
0.767788 0.073106 0.935042
0.900481 0.054612 0.9467
0.970642 0.0477913 0.948531
0.997192 0.0527657 0.955962
0 0.447166 0.78555
0 0.456245 0.814923
0.00123598 0.431098 0.858763
0.169879 0.339605 0.935347
0.54844 0.32105 0.950988
0.764477 0.319921 0.958007
0.899382 0.316197 0.961913
0.969223 0.310658 0.961303
0.996307 0.326345 0.960418
0 0.570092 0.845106
0 0.59321 0.871
0 0.606668 0.908049
0.0628367 0.57586 0.968154
0.483787 0.566995 0.973663
0.732647 0.5729 0.970001
0.885801 0.568734 0.965988
0.969467 0.548974 0.960388
0.999405 0.54612 0.953765
0 0.680415 0.882551
0 0.70837 0.906447
0 0.738872 0.93753
0.025391 0.752331 0.976043
0.411399 0.753216 0.977646
0.698299 0.760571 0.966781
0.869825 0.760143 0.959411
0.964065 0.749706 0.951843
0.999161 0.749966 0.946761
0 0.745769 0.910994
0 0.769955 0.927672
0 0.804944 0.951141
0.0043183 0.845731 0.981018
0.326116 0.870237 0.975906
0.671305 0.888411 0.962524
0.857939 0.897963 0.954025
0.959945 0.899229 0.948333
0.996796 0.902647 0.944228
0 0.769314 0.913619
0 0.794766 0.931975
0 0.834592 0.956069
0.000961318 0.890837 0.985794
0.237537 0.927764 0.980682
0.637644 0.949447 0.964813
0.841611 0.964263 0.955856
0.951141 0.971099 0.950317
0.9935 0.973632 0.948119
0 0.790402 0.925063
0 0.817838 0.943297
0 0.855299 0.965805
0.000808728 0.907973 0.992401
0.226032 0.945769 0.986831
0.615946 0.968414 0.972473
0.824125 0.984268 0.964462
0.940871 0.991577 0.959319
0.989258 0.994461 0.957244
0 0.320241 0.693645
0 0.316777 0.705989
0.0121462 0.246357 0.733654
0.186862 0.0173342 0.818265
0.420417 0 0.847913
0.620768 0 0.861494
0.768551 0 0.866407
0.872618 0 0.866529
0.922637 0 0.865156
0 0.350896 0.729076
0 0.347112 0.748791
0.0161898 0.232898 0.797833
0.231754 0.0155642 0.89572
0.504601 0.0024567 0.925399
0.708019 0.000503548 0.93904
0.849851 0.000213626 0.945556
0.938918 4.57771e-05 0.949111
0.97818 0.000183108 0.952651
0 0.391333 0.767102
0 0.389425 0.792172
0.00694286 0.325597 0.841398
0.222965 0.170565 0.931197
0.544808 0.134463 0.960891
0.753887 0.112108 0.976318
0.893034 0.0878614 0.989136
0.969589 0.0756542 0.995285
0.996246 0.0899062 0.997436
0 0.458976 0.808682
0 0.46894 0.836408
0.000488289 0.446128 0.886275
0.148913 0.354147 0.976669
0.534615 0.338369 0.994842
0.758404 0.339284 0.998154
0.894713 0.332784 0.999191
0.967498 0.326253 0.999405
0.995911 0.331487 0.99942
0 0.577539 0.869261
0 0.599588 0.893294
0 0.609979 0.930907
0.0513619 0.582773 0.992462
0.463661 0.571572 0.999985
0.719326 0.573999 0.999985
0.872984 0.565301 0.999954
0.962097 0.54844 0.999893
0.997101 0.541619 0.999786
0 0.683223 0.903502
0 0.709117 0.925261
0 0.734661 0.955581
0.0113375 0.750225 0.995346
0.364981 0.748775 1
0.674159 0.755596 0.999969
0.853727 0.754025 0.999908
0.955352 0.747723 0.999649
0.996643 0.749752 0.999207
0 0.746426 0.929381
0 0.77026 0.946471
0 0.80383 0.972229
0.00161746 0.845624 0.998611
0.262684 0.870359 1
0.646265 0.887648 0.999924
0.843488 0.896819 0.999191
0.950378 0.899474 0.997574
0.991562 0.903655 0.996262
0 0.771069 0.933913
0 0.796475 0.951202
0 0.834897 0.977295
1.5259e-05 0.891203 0.999268
0.183719 0.935256 1
0.616709 0.953185 0.999893
0.828595 0.968246 0.998611
0.943206 0.974044 0.995605
0.987106 0.977356 0.993408
0 0.79295 0.943954
0 0.82031 0.962631
0 0.855726 0.985458
0.000213626 0.909041 0.999908
0.174929 0.952209 1
0.596826 0.972885 0.999954
0.808728 0.988327 0.999054
0.933089 0.99527 0.995956
0.98233 0.99852 0.995193
