media_library/luts/baidu-pack/风情de复古暖.cube
TITLE "Generated by Resolve"
LUT_3D_SIZE 33
0.00820935 0.0471656 0.0352636
0.0139315 0.047364 0.034287
0.0214389 0.0475319 0.0330205
0.0323491 0.0476539 0.0309911
0.0442359 0.0479133 0.028336
0.057023 0.048249 0.024979
0.0707561 0.0487221 0.0208591
0.086183 0.0493477 0.0154269
0.105333 0.0496529 0.0102235
0.128298 0.0495613 0.00579843
0.155306 0.0491188 0.00257877
0.187396 0.048249 0.000793469
0.226368 0.0471199 0.000213626
0.270527 0.0459144 3.0518e-05
0.318227 0.0450446 0
0.367697 0.0449683 0
0.415579 0.0463874 0
0.460044 0.0484932 0
0.50164 0.0509499 0
0.540063 0.0537118 0
0.575448 0.0570382 0
0.606714 0.0623026 0
0.63563 0.0691539 0
0.662669 0.0760815 0
0.687724 0.0818189 0
0.710048 0.0854353 0
0.728908 0.0866102 0
0.744808 0.087602 0
0.757748 0.0892195 0
0.768109 0.0914931 0
0.776699 0.0939193 0
0.784543 0.0961166 0
0.791806 0.0981308 0
0.00643931 0.0510567 0.0357671
0.0117952 0.0513466 0.0348058
0.019089 0.0515755 0.0335393
0.0306554 0.0517128 0.0315404
0.0433509 0.051957 0.0287785
0.057084 0.0523079 0.0253147
0.0718547 0.052781 0.0209812
0.0881819 0.0535439 0.0153048
0.108537 0.0540475 0.00988785
0.132708 0.0541848 0.00549325
0.161318 0.0539101 0.00238041
0.19527 0.0532998 0.000701915
0.236088 0.0524605 0.000198367
0.282383 0.0515908 3.0518e-05
0.332372 0.0510414 0
0.38352 0.0512093 0
0.432624 0.0530251 0
0.477745 0.0555734 0
0.519539 0.0583352 0
0.558099 0.0611429 0
0.593271 0.0641184 0
0.624445 0.0689555 0
0.652995 0.0758984 0
0.679362 0.0833143 0
0.703593 0.0899062 0
0.724727 0.0941024 0
0.742931 0.0952468 0
0.758175 0.0958419 0
0.770489 0.0970169 0
0.780331 0.0990005 0
0.788266 0.101442 0
0.795254 0.103685 0
0.80206 0.105669 0
0.00491341 0.055314 0.0364538
0.00973526 0.0556954 0.0354467
0.0166171 0.0560006 0.034165
0.028687 0.0561532 0.0321355
0.0422217 0.0563668 0.0293431
0.0569009 0.0567178 0.0257725
0.0728008 0.0572213 0.0213474
0.090135 0.0580301 0.0155337
0.111727 0.0587167 0.00996414
0.137438 0.0590982 0.00544747
0.167544 0.0590982 0.00230411
0.20325 0.0587472 0.000671397
0.246586 0.0583047 0.000183108
0.295094 0.0578927 3.0518e-05
0.347112 0.0578317 0
0.400107 0.05832 0
0.45037 0.0603952 0
0.4963 0.0632486 0
0.538445 0.0662547 0
0.576959 0.0692454 0
0.612024 0.0722667 0
0.643153 0.0768749 0
0.671366 0.0836042 0
0.697032 0.09131 0
0.720027 0.0983444 0
0.739956 0.102922 0
0.75761 0.103853 0
0.771572 0.104005 0
0.782956 0.104891 0
0.792355 0.106661 0
0.800183 0.108766 0
0.80734 0.110948 0
0.814099 0.113619 0
0.00360113 0.0601816 0.0370642
0.00770581 0.0607309 0.0360723
0.0139315 0.0611429 0.0347601
0.0262913 0.0613413 0.0326848
0.0404822 0.0616007 0.0298314
0.0561532 0.0619821 0.0261997
0.0733654 0.0625162 0.0216373
0.0919356 0.0634012 0.0157015
0.114977 0.0643015 0.0100404
0.142367 0.0649271 0.00544747
0.174594 0.0652781 0.00230411
0.212421 0.0653239 0.000640879
0.258091 0.0652934 0.000183108
0.30898 0.0654002 3.0518e-05
0.363012 0.0657816 0
0.417777 0.066743 0
0.469245 0.0687419 0
0.515984 0.0715343 0
0.558495 0.0746624 0
0.597162 0.0780804 0
0.632059 0.0817426 0
0.662974 0.0862745 0
0.690867 0.0923781 0
0.715892 0.0995651 0
0.738033 0.106722 0
0.757153 0.112062 0
0.773739 0.113268 0
0.786892 0.112566 0
0.797513 0.112749 0
0.806134 0.114137 0
0.813565 0.11632 0
0.820462 0.118807 0
0.826871 0.122591 0
0.0024567 0.0659495 0.0374151
0.00578317 0.0666514 0.0364538
0.011017 0.067216 0.0352026
0.0232395 0.0675212 0.0330968
0.0379492 0.0679179 0.0301061
0.0546578 0.0684062 0.026276
0.0732891 0.0691386 0.0214237
0.0934005 0.0702068 0.0152285
0.118166 0.071397 0.00953689
0.147524 0.0724651 0.00511177
0.181918 0.0733043 0.00213626
0.222568 0.0738537 0.000595102
0.270665 0.0742809 0.000167849
0.323888 0.074876 1.5259e-05
0.379705 0.0757458 0
0.436027 0.0771649 0
0.488487 0.0792096 0
0.535821 0.0819562 0
0.578637 0.0851911 0
0.61738 0.0888075 0
0.651942 0.0927291 0
0.682597 0.0971695 0
0.709972 0.10277 0
0.73434 0.109483 0
0.755734 0.116457 0
0.774273 0.122057 0
0.790204 0.123278 0
0.802747 0.122011 0
0.812757 0.121675 0
0.820996 0.122805 0
0.828031 0.125017 0
0.834623 0.12784 0
0.84033 0.132708 0
0.00158694 0.0724346 0.0377813
0.0041352 0.0733043 0.0367742
0.00839246 0.0740826 0.0354162
0.0199893 0.0745251 0.0330968
0.0348211 0.0751049 0.0298466
0.052369 0.0758373 0.0256962
0.0723278 0.0767681 0.0205844
0.0942397 0.0780194 0.0141604
0.120592 0.0795148 0.00868238
0.152041 0.0810712 0.00456245
0.189151 0.0824445 0.0018616
0.232563 0.0836042 0.000518807
0.283131 0.0846571 0.000137331
0.338369 0.0858778 1.5259e-05
0.395987 0.0874495 0
0.453773 0.0893568 0
0.507347 0.0916609 0
0.555367 0.0942702 0
0.598596 0.0975509 0
0.637308 0.101228 0
0.671611 0.10515 0
0.701839 0.109407 0
0.728679 0.114702 0
0.752438 0.121141 0
0.773159 0.127733 0
0.791241 0.132952 0
0.806668 0.134005 0
0.818769 0.132647 0
0.828443 0.132204 0
0.836484 0.133333 0
0.843519 0.135683 0
0.849714 0.138659 0
0.854749 0.144594 0
0.00102235 0.0797284 0.0382391
0.00288396 0.0808118 0.0370489
0.00624094 0.0818189 0.0353704
0.0167239 0.0825666 0.0325933
0.0311589 0.0834363 0.0288853
0.0490578 0.0843671 0.0243687
0.0700847 0.0854963 0.0190127
0.0938277 0.0869764 0.012604
0.122026 0.0887465 0.0075227
0.155596 0.0906539 0.0037995
0.195178 0.0925154 0.00149538
0.241291 0.0943313 0.000396735
0.294514 0.0962844 0.000106813
0.351492 0.0983597 1.5259e-05
0.411154 0.10071 0
0.470542 0.103243 0
0.525597 0.105928 0
0.57409 0.108492 0
0.617777 0.111528 0
0.656519 0.115145 0
0.690288 0.118807 0
0.720241 0.122896 0
0.746792 0.127993 0
0.770047 0.134051 0
0.790311 0.140047 0
0.808042 0.144625 0
0.823102 0.145647 0
0.834943 0.144823 0
0.844541 0.145022 0
0.852491 0.146578 0
0.85948 0.149203 0
0.865736 0.152605 0
0.8701 0.158648 0
0.000534066 0.0892348 0.0384222
0.00158694 0.0906691 0.0370031
0.00366217 0.0919509 0.0349432
0.0122835 0.0930037 0.0314488
0.0256352 0.0942397 0.0270848
0.0433814 0.0955825 0.0220645
0.0653697 0.0971389 0.0164187
0.0914626 0.0990616 0.0104067
0.122301 0.101305 0.00595102
0.158709 0.103731 0.00288396
0.200931 0.106172 0.00105287
0.24947 0.108766 0.000259403
0.304479 0.111406 7.62951e-05
0.363455 0.114321 1.5259e-05
0.424674 0.11751 0
0.485603 0.120897 0
0.542184 0.124147 0
0.591531 0.127062 0
0.635706 0.130205 0
0.674342 0.133501 0
0.707988 0.137118 0
0.737804 0.140948 0
0.764096 0.145708 0
0.786999 0.151049 0
0.806943 0.156176 0
0.824338 0.160037 0
0.839124 0.161303 0
0.850797 0.161273 0
0.860304 0.161975 0
0.868101 0.163806 0
0.874693 0.16672 0
0.880598 0.170352 0
0.884901 0.176257 0
0.000183108 0.100847 0.038407
0.000579843 0.102586 0.0366979
0.00148013 0.104143 0.0341955
0.00772107 0.105623 0.0298924
0.0190127 0.107271 0.0248264
0.0355688 0.109071 0.0192721
0.0574197 0.111208 0.0134127
0.0859236 0.113634 0.00798047
0.119997 0.116411 0.00436408
0.15935 0.119432 0.00201419
0.204623 0.12256 0.000671397
0.255741 0.125902 0.000137331
0.312963 0.12932 3.0518e-05
0.374121 0.133181 0
0.436515 0.137285 0
0.499001 0.141665 0
0.557031 0.145785 0
0.607294 0.149462 0
0.652018 0.153094 0
0.690867 0.156634 0
0.724453 0.160388 0
0.754452 0.164385 0
0.780118 0.168521 0
0.802915 0.173312 0
0.822507 0.177813 0
0.839338 0.181399 0
0.853315 0.18323 0
0.864607 0.183627 0
0.87393 0.184375 0
0.881498 0.18616 0
0.887953 0.189151 0
0.893965 0.192874 0
0.898878 0.198001 0
1.5259e-05 0.114076 0.0384222
7.62951e-05 0.116258 0.036347
0.00030518 0.118181 0.0332952
0.00392157 0.120134 0.0281987
0.0123445 0.122286 0.0225223
0.0263066 0.12459 0.0165408
0.0465248 0.12723 0.0106203
0.0767987 0.13022 0.00585946
0.114336 0.133608 0.00302129
0.157488 0.137331 0.00131228
0.206027 0.141329 0.000396735
0.26006 0.145495 6.10361e-05
0.319875 0.149798 1.5259e-05
0.383108 0.154543 0
0.447364 0.159594 0
0.510658 0.164996 0
0.569711 0.170138 0
0.621057 0.174716 0
0.666423 0.179248 0
0.70576 0.183642 0
0.739498 0.187778 0
0.769512 0.191821 0
0.795102 0.195743 0
0.817639 0.200031 0
0.837095 0.204059 0
0.853407 0.207675 0
0.866545 0.209888 0
0.877409 0.210712 0
0.886564 0.211612 0
0.894011 0.213321 0
0.900389 0.216327 0
0.906279 0.22005 0
0.911879 0.224369 0
0 0.129824 0.0389258
0 0.132494 0.0364691
4.57771e-05 0.13489 0.0327611
0.00132753 0.137392 0.0269017
0.00657664 0.140078 0.0205539
0.0169985 0.142962 0.0141756
0.0341192 0.146075 0.00822461
0.0648356 0.149645 0.00404364
0.105623 0.153796 0.00190738
0.152728 0.158389 0.000762951
0.204791 0.163333 0.000198367
0.262104 0.168536 3.0518e-05
0.325002 0.174029 0
0.390524 0.179614 0
0.456565 0.185718 0
0.521065 0.192035 0
0.581262 0.198306 0
0.633021 0.203861 0
0.679133 0.209644 0
0.719142 0.214939 0
0.753017 0.219379 0
0.783108 0.223484 0
0.808774 0.227543 0
0.831342 0.231495 0
0.850736 0.235019 0
0.86688 0.238224 0
0.879667 0.240589 0
0.890257 0.241947 0
0.899199 0.242786 0
0.906706 0.244556 0
0.912993 0.247883 0
0.918257 0.251835 0
0.92401 0.255909 0
0 0.151247 0.0410315
0 0.154238 0.0380102
1.5259e-05 0.157092 0.0335546
0.000259403 0.15993 0.0266575
0.00315862 0.162951 0.0194705
0.0101472 0.166155 0.0124666
0.0231785 0.169604 0.00622568
0.0512703 0.173709 0.00256352
0.0940261 0.178988 0.000991836
0.145052 0.184833 0.000320439
0.20177 0.191196 6.10361e-05
0.26273 0.19794 0
0.328084 0.204791 0
0.395926 0.21178 0
0.464057 0.218677 0
0.530785 0.225834 0
0.592309 0.233173 0
0.645274 0.240497 0
0.691615 0.246937 0
0.731746 0.252659 0
0.76582 0.257465 0
0.795834 0.262119 0
0.821195 0.266255 0
0.843732 0.26981 0
0.863478 0.272755 0
0.880049 0.27483 0
0.893217 0.276509 0
0.903639 0.277317 0
0.912612 0.277882 0
0.920073 0.27953 0
0.92607 0.282902 0
0.930617 0.287221 0
0.935943 0.291661 0
0 0.177813 0.046067
0 0.181613 0.0426032
0 0.184939 0.0373083
6.10361e-05 0.188174 0.029221
0.00148013 0.191379 0.0208438
0.00547799 0.19472 0.0127108
0.0139773 0.198322 0.00556954
0.0361334 0.202853 0.00198367
0.0781109 0.208591 0.000640879
0.131456 0.215366 0.000167849
0.192401 0.223178 1.5259e-05
0.25861 0.231556 0
0.327932 0.240284 0
0.398581 0.248722 0
0.469581 0.257176 0
0.538216 0.265354 0
0.6009 0.273289 0
0.654215 0.281346 0
0.700938 0.288746 0
0.741283 0.295384 0
0.775326 0.301091 0
0.805417 0.306233 0
0.831464 0.310338 0
0.85452 0.313741 0
0.874388 0.31632 0
0.891066 0.318044 0
0.904402 0.318761 0
0.915282 0.319539 0
0.924331 0.320562 0
0.931502 0.322301 0
0.937041 0.325185 0
0.941482 0.329244 0
0.9467 0.333516 0
0 0.208667 0.0535286
0 0.213275 0.0496681
0 0.21738 0.0435492
1.5259e-05 0.220798 0.0342412
0.000564584 0.224353 0.0243534
0.00256352 0.227832 0.0146334
0.00762951 0.231525 0.0059968
0.0245365 0.235996 0.00195315
0.0633097 0.24239 0.000534066
0.116289 0.250217 9.15541e-05
0.179828 0.259144 0
0.250706 0.269215 0
0.324804 0.27985 0
0.399771 0.290333 0
0.473487 0.300343 0
0.54435 0.309545 0
0.608927 0.318547 0
0.662654 0.326833 0
0.709438 0.334752 0
0.749676 0.342092 0
0.783688 0.348333 0
0.813962 0.353857 0
0.840604 0.357702 0
0.864225 0.360601 0
0.884489 0.362631 0
0.901289 0.363622 0
0.915007 0.364172 0
0.92604 0.365072 0
0.934997 0.366293 0
0.941955 0.36791 0
0.947372 0.370565 0
0.951904 0.373754 0
0.956924 0.377844 0
0 0.243702 0.0634623
0 0.249317 0.0593576
0 0.254017 0.0525368
0 0.257832 0.0419318
0.000137331 0.261738 0.0303807
0.0010071 0.265431 0.0185092
0.00376898 0.269245 0.00761425
0.0159152 0.27393 0.00251774
0.049836 0.28069 0.000640879
0.100542 0.289052 9.15541e-05
0.165209 0.29929 0
0.240589 0.310948 0
0.320012 0.32343 0
0.399512 0.335775 0
0.477119 0.347555 0
0.55053 0.358419 0
0.616693 0.368048 0
0.671153 0.376608 0
0.718044 0.385031 0
0.758068 0.392569 0
0.791943 0.398795 0
0.822385 0.404242 0
0.849561 0.407767 0
0.873686 0.410117 0
0.894392 0.411475 0
0.91165 0.41207 0
0.925368 0.412222 0
0.936049 0.412726 0
0.944701 0.413703 0
0.951446 0.414984 0
0.956817 0.416602 0
0.9617 0.419287 0
0.966506 0.422812 0
0 0.282872 0.0760662
0 0.289311 0.0717632
0 0.294606 0.0644083
0 0.299046 0.0525521
0 0.303197 0.038941
0.000335698 0.307408 0.0245518
0.00172427 0.311421 0.0105592
0.00981155 0.316228 0.00367742
0.0377813 0.323125 0.0010071
0.0848554 0.331914 0.00015259
0.149859 0.343023 0
0.229679 0.355947 0
0.315236 0.370489 0
0.399558 0.384619 0
0.480522 0.398047 0
0.557031 0.410468 0
0.624399 0.420813 0
0.679896 0.429801 0
0.727443 0.438392 0
0.767514 0.445716 0
0.80145 0.451774 0
0.831968 0.456565 0
0.859571 0.459922 0
0.88394 0.461875 0
0.90483 0.462623 0
0.92221 0.462699 0
0.935576 0.461845 0
0.945617 0.461814 0
0.953521 0.461921 0
0.959777 0.462165 0
0.965118 0.462837 0
0.970199 0.464256 0
0.975036 0.467216 0
0 0.325795 0.0922103
0 0.33286 0.0878614
0 0.338552 0.0800336
0 0.343526 0.0668956
0 0.34815 0.051133
0.000137331 0.352407 0.0334478
0.000839246 0.356664 0.015198
0.00576791 0.361547 0.00570687
0.0281376 0.368338 0.00169375
0.0710613 0.377478 0.000289921
0.135546 0.389181 0
0.219623 0.40325 0
0.311543 0.419303 0
0.400824 0.435142 0
0.485817 0.450187 0
0.564569 0.463584 0
0.634028 0.474632 0
0.690105 0.483589 0
0.738201 0.491691 0
0.778866 0.498909 0
0.812985 0.504204 0
0.843381 0.508522 0
0.870634 0.51136 0
0.894652 0.512932 0
0.915343 0.513405 0
0.932525 0.512444 0
0.945418 0.510872 0
0.954711 0.509392 0
0.961868 0.508507 0
0.967453 0.507836 0
0.972274 0.507164 0
0.977249 0.507485 0
0.982116 0.509834 0
0 0.369284 0.110674
0 0.376623 0.106416
0 0.382895 0.0983902
0 0.388281 0.0842451
0 0.393225 0.0662852
4.57771e-05 0.397879 0.0450294
0.000350958 0.40206 0.0220035
0.00318914 0.407095 0.00906386
0.021622 0.41416 0.00296025
0.0619364 0.423728 0.000549325
0.126436 0.435966 0
0.214572 0.451148 0
0.312306 0.468132 0
0.406088 0.48513 0
0.494224 0.501427 0
0.57499 0.515557 0
0.645335 0.526635 0
0.702174 0.535439 0
0.750286 0.543114 0
0.790661 0.549645 0
0.824414 0.554284 0
0.854292 0.557336 0
0.880781 0.559365 0
0.904158 0.560006 0
0.924575 0.559503 0
0.941863 0.558175 0
0.954757 0.555871 0
0.963821 0.553506 0
0.970672 0.55169 0
0.975891 0.55024 0
0.980285 0.548989 0
0.984848 0.547814 0
0.988907 0.549142 0
0 0.411017 0.129549
0 0.418891 0.12549
0 0.425635 0.117266
0 0.431617 0.102266
0 0.436622 0.0823224
1.5259e-05 0.441367 0.0578317
0.000122072 0.445762 0.0302586
0.00175479 0.451102 0.0133669
0.0180056 0.45861 0.00474556
0.0569009 0.46865 0.000991836
0.122072 0.481453 0
0.214298 0.497398 0
0.317037 0.51519 0
0.414527 0.533181 0
0.504829 0.549874 0
0.586938 0.564431 0
0.657328 0.575402 0
0.714 0.583719 0
0.761852 0.590814 0
0.801526 0.596307 0
0.834363 0.599847 0
0.863676 0.601907 0
0.889433 0.602808 0
0.912322 0.602365 0
0.932631 0.601267 0
0.950057 0.599252 0
0.963119 0.596674 0
0.972595 0.593942 0
0.979461 0.591684 0
0.984329 0.589761 0
0.988159 0.587976 0
0.991958 0.586282 0
0.994659 0.586679 0
0 0.45005 0.146975
0 0.457664 0.142641
0 0.46479 0.134035
0 0.470848 0.118242
0 0.47631 0.0968795
0 0.481254 0.070222
4.57771e-05 0.485924 0.0390021
0.0012665 0.491768 0.0184634
0.0166171 0.499825 0.00703441
0.0551003 0.510384 0.00161746
0.121752 0.523766 0
0.217777 0.540246 0
0.32459 0.558694 0
0.424674 0.576867 0
0.516228 0.593988 0
0.598413 0.60853 0
0.668223 0.619272 0
0.724636 0.626902 0
0.771984 0.632914 0
0.811002 0.637201 0
0.842802 0.639658 0
0.871199 0.640833 0
0.896361 0.640818 0
0.919051 0.639673 0
0.939223 0.637705 0
0.956786 0.635508 0
0.970031 0.632898 0
0.980148 0.630289 0
0.987106 0.628061 0
0.991638 0.626078 0
0.99472 0.62417 0
0.997238 0.622415 0
0.998505 0.622217 0
0 0.484108 0.159915
0 0.491417 0.154986
0 0.498283 0.145861
0 0.504463 0.129778
0 0.510216 0.107958
0 0.515694 0.0804913
4.57771e-05 0.521096 0.0474708
0.00149538 0.527886 0.0238804
0.0170748 0.536568 0.00958267
0.0560769 0.547677 0.00236515
0.123598 0.56144 0
0.223224 0.578286 0
0.333043 0.596902 0
0.43473 0.615061 0
0.526528 0.631968 0
0.608209 0.646204 0
0.677104 0.656596 0
0.733135 0.663584 0
0.77995 0.668544 0
0.81828 0.671778 0
0.849363 0.673213 0
0.877287 0.673808 0
0.9019 0.673274 0
0.924178 0.671702 0
0.944305 0.669352 0
0.961776 0.666911 0
0.975067 0.66424 0
0.985656 0.662028 0
0.992477 0.660334 0
0.996506 0.658686 0
0.998672 0.657145 0
0.999649 0.655787 0
0.999939 0.655512 0
0 0.509468 0.164355
0 0.516808 0.15935
0 0.523812 0.150454
0 0.530358 0.135088
0 0.536751 0.114168
0 0.543069 0.0874495
4.57771e-05 0.549538 0.0547189
0.00195315 0.557275 0.0288548
0.0178683 0.566659 0.0122835
0.0569314 0.578256 0.00326543
0.125231 0.592279 0
0.226444 0.609155 0
0.337972 0.627543 0
0.441062 0.64564 0
0.532708 0.662135 0
0.613733 0.676417 0
0.681819 0.68658 0
0.737621 0.693187 0
0.78436 0.697948 0
0.822843 0.700816 0
0.853956 0.702007 0
0.881468 0.702052 0
0.90605 0.701244 0
0.928115 0.699535 0
0.947982 0.697307 0
0.965194 0.694759 0
0.978607 0.692317 0
0.989151 0.690379 0
0.995254 0.688991 0
0.998383 0.687984 0
0.999695 0.686946 0
0.999954 0.686076 0
0.999985 0.686 0
0 0.53167 0.168353
0 0.538689 0.163195
0 0.545373 0.154467
0 0.551858 0.139773
0 0.558419 0.119799
0 0.565133 0.0938735
1.5259e-05 0.572198 0.0615702
0.00215152 0.580331 0.0340124
0.0175174 0.590021 0.0152132
0.0552224 0.601587 0.00425727
0.121859 0.615488 0
0.223423 0.632197 0
0.336431 0.650492 0
0.440452 0.668696 0
0.532311 0.68545 0
0.613123 0.699931 0
0.681376 0.710506 0
0.737469 0.717693 0
0.784619 0.722576 0
0.823606 0.725551 0
0.855161 0.726787 0
0.882979 0.726833 0
0.907958 0.726024 0
0.930526 0.724559 0
0.95053 0.72253 0
0.968017 0.720424 0
0.981674 0.71841 0
0.991928 0.716701 0
0.997192 0.715938 0
0.999329 0.715358 0
0.999939 0.714916 0
1 0.714672 0
1 0.714961 0
0 0.550195 0.17232
0 0.556848 0.167086
0 0.563073 0.158328
0 0.56936 0.144198
0 0.575738 0.124849
0 0.582513 0.0995956
0 0.589868 0.0674601
0.00201419 0.598199 0.0385901
0.016083 0.607813 0.0177768
0.0512551 0.619257 0.00518807
0.114717 0.632837 0
0.214221 0.649134 0
0.328267 0.667491 0
0.433738 0.686091 0
0.52697 0.703609 0
0.607691 0.718624 0
0.676646 0.729992 0
0.73344 0.737758 0
0.78143 0.743236 0
0.821378 0.746593 0
0.853727 0.74815 0
0.882094 0.748379 0
0.907942 0.74786 0
0.931273 0.746838 0
0.952117 0.74548 0
0.970214 0.743832 0
0.984176 0.742245 0
0.993973 0.740932 0
0.998413 0.740353 0
0.999786 0.740276 0
0.999985 0.740276 0
1 0.740536 0
1 0.741085 0
0 0.564996 0.176242
0 0.571145 0.170779
0 0.576898 0.162036
0 0.582773 0.148165
0 0.588785 0.129
0 0.595346 0.103792
0 0.602823 0.0713512
0.00157168 0.611337 0.0415961
0.0135042 0.621042 0.0195315
0.0448157 0.632288 0.00579843
0.10341 0.64564 0
0.200626 0.661799 0
0.315435 0.680369 0
0.422797 0.699519 0
0.517311 0.717693 0
0.599252 0.733577 0
0.668925 0.745846 0
0.726772 0.754498 0
0.776074 0.76054 0
0.817349 0.764492 0
0.851072 0.766674 0
0.880156 0.767315 0
0.907073 0.767208 0
0.931151 0.76672 0
0.95288 0.765896 0
0.971969 0.76495 0
0.986252 0.76376 0
0.995407 0.762722 0
0.999069 0.762249 0
0.999954 0.76228 0
1 0.762478 0
1 0.763027 0
1 0.763714 0
0 0.575769 0.179629
0 0.58146 0.173907
0 0.586892 0.165057
0 0.592386 0.151171
0 0.598032 0.13167
0 0.604212 0.10573
0 0.611627 0.0724193
0.000961318 0.620401 0.0422522
0.0103609 0.630396 0.0197452
0.0370794 0.64184 0.00576791
0.0896773 0.655238 0
0.182956 0.671489 0
0.298161 0.690303 0
0.407858 0.709957 0
0.505257 0.728923 0
0.588663 0.745632 0
0.659281 0.758785 0
0.719081 0.768338 0
0.769924 0.77525 0
0.812863 0.779919 0
0.848203 0.782712 0
0.878477 0.783948 0
0.906157 0.784375 0
0.931044 0.784344 0
0.953475 0.7841 0
0.973236 0.783566 0
0.987778 0.782696 0
0.996246 0.781826 0
0.999359 0.781384 0
1 0.781216 0
1 0.78146 0
1 0.782055 0
1 0.782574 0
0 0.582742 0.181796
0 0.588281 0.176074
0 0.593606 0.167376
0 0.59884 0.153918
0 0.604135 0.134096
0 0.609873 0.107149
0 0.616815 0.0721447
0.000488289 0.62565 0.0411536
0.00766003 0.63592 0.0185397
0.0298314 0.647822 0.00505074
0.0759594 0.661662 0
0.164355 0.678294 0
0.279835 0.69752 0
0.391516 0.717494 0
0.49099 0.736889 0
0.576501 0.754406 0
0.649683 0.768627 0
0.711269 0.779263 0
0.764187 0.787152 0
0.808789 0.792645 0
0.845914 0.796246 0
0.877241 0.798306 0
0.905959 0.799344 0
0.931502 0.799619 0
0.954208 0.799466 0
0.974182 0.799115 0
0.988937 0.798474 0
0.996689 0.797665 0
0.999481 0.797009 0
1 0.796735 0
1 0.79678 0
1 0.797269 0
1 0.797436 0
0 0.587991 0.182818
0 0.593454 0.177539
0 0.598688 0.169482
0 0.6038 0.157092
0 0.608896 0.138109
0 0.614404 0.111086
0 0.621103 0.0754253
0.000320439 0.629816 0.0430152
0.00607309 0.640162 0.0190738
