media_library/luts/baidu-pack/风情de复古暖.cube
TITLE "Generated by Resolve"
LUT_3D_SIZE 5
0.00820935 0.0471656 0.0352636
0.105333 0.0496529 0.0102235
0.415579 0.0463874 0
0.687724 0.0818189 0
0.791806 0.0981308 0
0.000183108 0.100847 0.038407
0.119997 0.116411 0.00436408
0.557031 0.145785 0
0.822507 0.177813 0
0.898878 0.198001 0
0 0.325795 0.0922103
0.0281376 0.368338 0.00169375
0.634028 0.474632 0
0.915343 0.513405 0
0.982116 0.509834 0
0 0.564996 0.176242
0.0135042 0.621042 0.0195315
0.668925 0.745846 0
0.95288 0.765896 0
1 0.763714 0
0 0.610361 0.182498
0.00364691 0.66685 0.0217594
0.591684 0.791211 0
0.947799 0.841749 0
1 0.844114 0
0.0010071 0.0531167 0.0978866
0.0972152 0.0511788 0.0798352
0.424475 0.00773632 0.0161288
0.733104 0.000915541 0.00277714
0.851591 0.00204471 0.000747692
0 0.118624 0.124819
0.102846 0.128618 0.103029
0.570855 0.126604 0.0300603
0.883162 0.0693675 0.0108186
0.9776 0.0720836 0.00872816
0 0.381109 0.204456
0.0119631 0.41178 0.0840467
0.63566 0.479408 0.00227359
0.959045 0.507057 0.000381476
0.999985 0.504784 6.10361e-05
0 0.600748 0.291966
0.00344854 0.657099 0.13138
0.637446 0.750088 6.10361e-05
0.978042 0.784512 0
1 0.78436 0
0 0.64979 0.324025
3.0518e-05 0.71313 0.218799
0.543572 0.809583 0.00242618
0.968505 0.866758 0.00213626
1 0.87303 0.00866712
0 0.163821 0.381277
0.0649424 0.0230106 0.37084
0.421057 0.000396735 0.350835
0.738186 0 0.333944
0.873091 0 0.308476
0 0.266636 0.480156
0.0366522 0.17293 0.483543
0.560632 0.132143 0.475608
0.883268 0.0706035 0.493599
0.982025 0.0650492 0.493599
0 0.498054 0.569711
9.15541e-05 0.531487 0.576867
0.56614 0.526375 0.481575
0.932387 0.541222 0.458106
1 0.522881 0.423743
0 0.700771 0.654917
0 0.759335 0.636072
0.502724 0.804868 0.446586
0.935164 0.838499 0.404471
1 0.843442 0.382696
0 0.740124 0.661723
0 0.805249 0.668833
0.397116 0.876081 0.515846
0.894865 0.926589 0.500084
1 0.938766 0.507744
0 0.275105 0.599283
0.0294957 0.152834 0.627146
0.426734 0 0.668803
0.759594 0 0.675074
0.896452 0 0.665125
0 0.353567 0.687953
0.0151827 0.245731 0.753674
0.563561 0.113924 0.814694
0.895994 0.0575723 0.844846
0.994949 0.0550546 0.853971
0 0.555077 0.789578
0 0.594995 0.847684
0.509529 0.564736 0.864317
0.899931 0.568582 0.853666
0.999878 0.549172 0.832975
0 0.741375 0.867155
0 0.803586 0.897505
0.380331 0.857496 0.860685
0.878264 0.88687 0.834348
0.999893 0.891875 0.81915
0 0.783948 0.879271
0 0.852171 0.917845
0.281804 0.93138 0.890867
0.840955 0.972045 0.869657
0.99762 0.983429 0.86688
0 0.320241 0.693645
0.0121462 0.246357 0.733654
0.420417 0 0.847913
0.768551 0 0.866407
0.922637 0 0.865156
0 0.391333 0.767102
0.00694286 0.325597 0.841398
0.544808 0.134463 0.960891
0.893034 0.0878614 0.989136
0.996246 0.0899062 0.997436
0 0.577539 0.869261
0 0.609979 0.930907
0.463661 0.571572 0.999985
0.872984 0.565301 0.999954
0.997101 0.541619 0.999786
0 0.746426 0.929381
0 0.80383 0.972229
0.262684 0.870359 1
0.843488 0.896819 0.999191
0.991562 0.903655 0.996262
0 0.79295 0.943954
0 0.855726 0.985458
0.174929 0.952209 1
0.808728 0.988327 0.999054
0.98233 0.99852 0.995193
